%
O1 (5AXIS)
G17
(--- Initialisation ---)
G0 G40 G49 G80 G21
(--- Go To Machine Origin ---)
G0 G53 Z0
G0 G53 X0 Y0 A0
G54 A-0
(Tool # 3 - Diameter 10. D3 H3)
T3 M6 D3 H3
S1000 M4
M8
G54 A-0
( ---- Start of 4x chamfer front face ----)
G0 G53 Z123  ; move up to tool_z_level
G0 A-0
( ---------------------------------- )
( 4X CHAMFER FRONT FACE - 4X-CONTOUR )
( ---------------------------------- )
G0 X202.605 Y-19.665 Z22.481 A-7.421
 Y-19.665 Z8.825 A-7.421
G1 Y-19.665 Z6.825 A-7.421 F33
 X202.37 Y-19.683 Z6.825 A-7.421 F100
 X202.124 Y-19.739 Z6.819 A-7.421
 X201.889 Y-19.834 Z6.811 A-7.421
 X201.673 Y-19.964 Z6.8 A-7.421
 X201.48 Y-20.126 Z6.786 A-7.421
 X201.315 Y-20.317 Z6.77 A-7.421
 X201.229 Y-20.446 Z6.759 A-7.421
 X201.182 Y-20.477 Z6.915 A-6.965
 X201.084 Y-20.563 Z7.323 A-5.784
 X201.025 Y-20.653 Z7.737 A-4.602
 X201. Y-20.741 Z8.158 A-3.419
 Y-20.897 Z9.055 A-0.959
 Y-20.968 Z9.932 A1.447
 Y-20.844 Z10.83 A3.91
 Y-20.839 Z11.74 A6.42
 Y-20.628 Z12.669 A8.987
 Y-20.555 Z13.604 A11.597
 Y-20.233 Z14.551 A14.262
 Y-20.067 Z15.5 A16.969
 Y-19.642 Z16.454 A19.726
 Y-19.307 Z17.402 A22.521
 Y-18.846 Z18.349 A25.362
 Y-18.407 Z19.281 A28.236
 Y-17.839 Z20.203 A31.15
 Y-17.295 Z21.103 A34.092
 Y-16.622 Z21.984 A37.065
 Y-15.976 Z22.834 A40.061
 Y-15.386 Z23.521 A42.576
 Y-14.688 Z24.183 A45.102
 Y-13.959 Z24.818 A47.638
 Y-13.353 Z25.424 A50.181
 Y-12.643 Z26.001 A52.73
 Y-11.83 Z26.545 A55.281
 Y-10.993 Z27.054 A57.832
 Y-10.29 Z27.527 A60.381
 Y-9.491 Z27.965 A62.924
 Y-8.599 Z28.364 A65.46
 Y-7.694 Z28.724 A67.986
 Y-6.93 Z29.045 A70.501
 Y-5.852 Z29.38 A73.496
 Y-4.84 Z29.654 A76.47
 Y-3.753 Z29.876 A79.412
 Y-2.739 Z30.038 A82.325
 Y-1.66 Z30.149 A85.199
 Y-0.661 Z30.204 A88.04
 Y0.394 Z30.212 A90.835
 Y1.296 Z30.167 A93.592
 Y2.381 Z30.079 A96.299
 Y3.246 Z29.945 A98.964
 Y4.28 Z29.772 A101.575
 Y5.113 Z29.559 A104.141
 Y6.074 Z29.313 A106.651
 Y6.852 Z29.032 A109.115
 Y7.749 Z28.725 A111.52
 Y8.469 Z28.389 A113.878
 Y9.313 Z28.026 A116.213
 Y10.003 Z27.624 A118.583
 Y10.846 Z27.181 A121.012
 Y11.528 Z26.695 A123.487
 Y12.364 Z26.167 A126.02
 Y13.01 Z25.592 A128.597
 Y13.843 Z24.974 A131.23
 Y14.456 Z24.31 A133.905
 Y15.256 Z23.601 A136.633
 Y15.892 Z22.847 A139.399
 Y16.573 Z22.05 A142.213
 Y17.149 Z21.209 A145.062
 Y17.763 Z20.329 A147.953
 Y18.264 Z19.408 A150.874
 Y18.797 Z18.453 A153.829
 Y19.209 Z17.462 A156.808
 Y19.527 Z16.614 A159.311
 Y19.886 Z15.748 A161.828
 Y20.207 Z14.864 A164.356
 Y20.337 Z13.966 A166.893
 Y20.505 Z13.057 A169.438
 Y20.708 Z12.14 A171.988
 Y20.871 Z11.214 A174.539
 Y20.839 Z10.285 A177.09
 Y20.842 Z9.357 A179.637
 Y20.881 Z8.431 A182.179
 Y20.879 Z7.508 A184.714
 Y20.684 Z6.591 A187.238
 Y20.526 Z5.687 A189.748
 Y20.405 Z4.795 A192.244
 Y20.106 Z3.741 A195.218
 Y19.83 Z2.716 A198.159
 Y19.433 Z1.715 A201.073
 Y19.064 Z0.75 A203.947
 Y18.581 Z-0.186 A206.788
 Y18.13 Z-1.081 A209.583
 Y17.507 Z-1.942 A212.34
 Y17.058 Z-2.76 A215.047
 Y16.379 Z-3.541 A217.712
 Y15.875 Z-4.277 A220.323
 Y15.172 Z-4.976 A222.889
 Y14.61 Z-5.629 A225.399
 Y13.879 Z-6.244 A227.863
 Y13.289 Z-6.815 A230.268
 Y12.013 Z-6.905 A230.536
 Y11.726 Z-6.306 A227.649
 Y11.286 Z-5.721 A224.746
 Y10.936 Z-5.154 A221.831
 Y10.435 Z-4.606 A218.906
 Y10.028 Z-4.082 A215.976
 Y9.472 Z-3.581 A213.044
 Y9.014 Z-3.107 A210.115
 Y8.411 Z-2.661 A207.191
 Y7.91 Z-2.245 A204.278
 Y7.27 Z-1.858 A201.378
 Y6.736 Z-1.505 A198.496
 Y5.795 Z-1.606 A199.641
 Y5.312 Z-1.879 A202.454
 Y4.875 Z-2.136 A205.322
 Y4.416 Z-2.374 A208.243
 Y3.938 Z-2.593 A211.215
 Y3.603 Z-2.742 A213.478
 Y3.186 Z-2.879 A215.763
 Y2.833 Z-3. A218.076
 Y2.397 Z-3.108 A220.409
 Y2.029 Z-3.199 A222.765
 Y1.578 Z-3.276 A225.139
 Y1.197 Z-3.333 A227.533
 Y0.735 Z-3.376 A229.941
 Y0.346 Z-3.399 A232.364
 Y-0.124 Z-3.405 A234.797
 Y-0.516 Z-3.391 A237.242
 Y-0.988 Z-3.361 A239.693
 Y-1.38 Z-3.31 A242.15
 Y-1.848 Z-3.242 A244.609
 Y-2.235 Z-3.155 A247.069
 Y-2.696 Z-3.051 A249.528
 Y-3.073 Z-2.927 A251.983
 Y-3.522 Z-2.788 A254.433
 Y-3.885 Z-2.63 A256.873
 Y-4.316 Z-2.457 A259.304
 Y-4.661 Z-2.268 A261.722
 Y-5.072 Z-2.065 A264.126
 Y-5.396 Z-1.847 A266.512
 Y-5.783 Z-1.618 A268.882
 Y-6.082 Z-1.375 A271.229
 Y-6.443 Z-1.122 A273.557
 Y-6.716 Z-0.857 A275.859
 Y-7.048 Z-0.585 A278.139
 Y-7.42 Z-0.208 A281.136
 Y-7.766 Z0.181 A284.083
 Y-8.086 Z0.579 A286.978
 Y-8.38 Z0.986 A289.818
 Y-8.648 Z1.398 A292.603
 Y-8.892 Z1.815 A295.336
 Y-9.118 Z2.247 A298.092
 Y-9.327 Z2.698 A300.904
 Y-9.518 Z3.168 A303.772
 Y-9.687 Z3.656 A306.694
 Y-9.834 Z4.16 A309.666
 Y-9.891 Z4.55 A311.929
 Y-10.007 Z4.945 A314.214
 Y-10.033 Z5.35 A316.527
 Y-10.119 Z5.759 A318.859
 Y-10.112 Z6.175 A321.216
 Y-10.164 Z6.593 A323.59
 Y-10.123 Z7.017 A325.984
 Y-10.14 Z7.441 A328.391
 Y-10.062 Z7.868 A330.815
 Y-10.043 Z8.294 A333.248
 Y-9.928 Z8.72 A335.693
 Y-9.873 Z9.142 A338.144
 Y-9.721 Z9.562 A340.6
 Y-9.629 Z9.976 A343.06
 Y-9.442 Z10.385 A345.52
 Y-9.315 Z10.786 A347.979
 Y-9.093 Z11.181 A350.434
 Y-8.933 Z11.564 A352.884
 Y-8.68 Z11.939 A355.324
 Y-8.49 Z12.302 A357.755
 Y-8.208 Z12.654 A360.172
 Y-7.99 Z12.993 A362.577
 Y-7.684 Z13.319 A364.963
 Y-7.442 Z13.63 A367.333
 Y-7.116 Z13.929 A369.68
 Y-6.854 Z14.211 A372.008
 Y-6.511 Z14.48 A374.31
 Y-6.233 Z14.732 A376.59
 Y-5.805 Z15.045 A379.586
 Y-5.369 Z15.33 A382.534
 Y-4.927 Z15.589 A385.429
 Y-4.481 Z15.821 A388.269
 Y-4.033 Z16.026 A391.053
 Y-5.143 Z15.944 A390.239
 Y-6.62 Z15.647 A387.352
 Y-8.148 Z15.275 A384.45
 Y-9.54 Z14.826 A381.534
 Y-11.034 Z14.303 A378.609
 Y-12.38 Z13.705 A375.679
 Y-13.817 Z13.037 A372.747
 Y-15.093 Z12.298 A369.818
 Y-16.451 Z11.496 A366.895
 Y-17.639 Z10.63 A363.982
 Y-18.897 Z9.707 A361.081
 Y-19.98 Z8.73 A358.199
 Y-20.741 Z8.158 A356.581
 X201.025 Y-21.102 Z7.867 A355.797
 X201.084 Y-21.453 Z7.569 A355.014
 X201.182 Y-21.788 Z7.264 A354.231
 X201.315 Y-22.1 Z6.952 A353.448
 X201.48 Y-22.384 Z6.635 A352.665
 X201.499 Y-22.413 Z6.6 A352.58
 X201.673 Y-22.556 Z6.588 A352.58
 X201.889 Y-22.686 Z6.578 A352.58
 X202.124 Y-22.781 Z6.571 A352.58
 X202.37 Y-22.837 Z6.566 A352.58
 X202.605 Y-22.855 Z6.566 A352.58
 Y-22.855 Z8.565 A352.58 F200
G0 Y-22.855 Z22.066 A352.58
( ---- End of 4x chamfer front face ----)
(Tool # 1 - Diameter 5. D1 H1)
T1 M6 D1 H1
S1000 M4
M8
G54 A-0
( ---- Start of 4X-PC-faces ----)
G0 G53 Z123  ; move up to tool_z_level
G0 A-0
( ------------------------------ )
( 4X-PC-FACES - 4X-PARALLEL-CUTS )
( ------------------------------ )
G0 X191.369 Y-15.491 Z36.878 A-2.479
 Y-15.491 Z13.265 A-2.479
G1 Y-15.491 Z11.265 A-2.479 F1000
 Y-15.996 Z10.79 A-3.807 F1500
 Y-16.852 Z9.93 A-6.132
 Y-17.675 Z9.033 A-8.466
 Y-18.463 Z8.102 A-10.805
 Y-19.213 Z7.137 A-13.149
 Y-19.924 Z6.141 A-15.494
 Y-20.594 Z5.118 A-17.839
 Y-21.22 Z4.068 A-20.182
 Y-21.803 Z2.996 A-22.522
 Y-22.339 Z1.903 A-24.855
 Y-22.83 Z0.793 A-27.181
 Y-23.273 Z-0.331 A-29.497
 Y-23.668 Z-1.466 A-31.802
 Y-24.016 Z-2.609 A-34.093
 Y-24.58 Z-1.72 A-31.204
 Y-25.113 Z-0.777 A-28.234
 Y-25.534 Z0.059 A-25.668
 Y-25.924 Z0.932 A-23.047
 Y-26.269 Z1.806 A-20.472
 Y-26.579 Z2.711 A-17.848
 Y-26.844 Z3.616 A-15.264
 Y-27.071 Z4.547 A-12.637
 Y-27.253 Z5.475 A-10.044
 Y-27.394 Z6.424 A-7.414
 Y-27.491 Z7.368 A-4.812
 Y-27.546 Z8.327 A-2.179
 Y-27.556 Z9.254 A0.365
 Y-27.525 Z10.191 A2.933
 Y-27.452 Z11.133 A5.525
 Y-27.334 Z12.078 A8.137
 Y-27.173 Z13.023 A10.763
 Y-26.967 Z13.964 A13.405
 Y-26.719 Z14.893 A16.04
 Y-26.427 Z15.812 A18.685
 Y-26.093 Z16.717 A21.329
 Y-25.718 Z17.606 A23.976
 Y-25.3 Z18.479 A26.628
 Y-24.844 Z19.331 A29.279
 Y-24.346 Z20.164 A31.939
 Y-23.812 Z20.971 A34.593
 Y-23.373 Z21.577 A36.644
 Y-22.915 Z22.165 A38.688
 Y-22.438 Z22.734 A40.723
 Y-21.944 Z23.284 A42.748
 Y-21.26 Z23.984 A45.431
 Y-20.551 Z24.645 A48.092
 Y-19.802 Z25.281 A50.784
 Y-19.032 Z25.874 A53.448
 Y-18.225 Z26.439 A56.15
 Y-17.402 Z26.958 A58.817
 Y-16.542 Z27.446 A61.528
 Y-15.674 Z27.887 A64.198
 Y-14.768 Z28.294 A66.92
 Y-13.861 Z28.651 A69.594
 Y-13.052 Z28.929 A71.939
 Y-12.247 Z29.17 A74.243
 Y-11.447 Z29.375 A76.506
 Y-10.655 Z29.546 A78.728
 Y-9.665 Z29.714 A81.48
 Y-8.694 Z29.832 A84.163
 Y-7.764 Z29.902 A86.719
 Y-6.81 Z29.931 A89.336
 Y-5.875 Z29.917 A91.899
 Y-4.921 Z29.859 A94.519
 Y-3.988 Z29.76 A97.092
 Y-3.042 Z29.616 A99.716
 Y-2.276 Z29.467 A101.856
 Y-1.505 Z29.286 A104.027
 Y-0.73 Z29.073 A106.229
 Y0.045 Z28.827 A108.46
 Y0.935 Z28.503 A111.056
 Y1.821 Z28.134 A113.688
 Y2.681 Z27.729 A116.293
 Y3.531 Z27.28 A118.928
 Y4.352 Z26.796 A121.542
 Y5.158 Z26.271 A124.18
 Y5.934 Z25.712 A126.802
 Y6.689 Z25.114 A129.443
 Y7.414 Z24.485 A132.073
 Y8.111 Z23.82 A134.717
 Y8.748 Z23.155 A137.239
 Y9.356 Z22.462 A139.768
 Y9.934 Z21.741 A142.301
 Y10.48 Z20.995 A144.836
 Y11.016 Z20.188 A147.491
 Y11.513 Z19.358 A150.143
 Y11.973 Z18.503 A152.807
 Y12.392 Z17.629 A155.461
 Y12.772 Z16.732 A158.134
 Y13.108 Z15.823 A160.792
 Y13.404 Z14.89 A163.473
 Y13.655 Z13.953 A166.134
 Y13.863 Z12.994 A168.825
 Y14.025 Z12.036 A171.488
 Y14.141 Z11.09 A174.102
 Y14.212 Z10.151 A176.684
 Y14.242 Z9.222 A179.233
 Y14.23 Z8.305 A181.746
 Y14.172 Z7.315 A184.465
 Y14.069 Z6.345 A187.138
 Y13.918 Z5.361 A189.868
 Y13.724 Z4.404 A192.544
 Y13.479 Z3.435 A195.286
 Y13.195 Z2.5 A197.965
 Y12.859 Z1.553 A200.719
 Y12.487 Z0.648 A203.402
 Y12.026 Z0.948 A201.111
 Y11.551 Z1.231 A198.806
 Y11.062 Z1.496 A196.49
 Y10.561 Z1.742 A194.164
 Y10.048 Z1.969 A191.831
 Y9.526 Z2.174 A189.492
 Y8.994 Z2.359 A187.148
 Y8.455 Z2.522 A184.803
 Y7.91 Z2.662 A182.458
 Y7.36 Z2.78 A180.115
 Y6.806 Z2.875 A177.775
 Y6.251 Z2.948 A175.442
 Y5.695 Z2.997 A173.116
 Y5.139 Z3.024 A170.8
 Y4.586 Z3.029 A168.495
 Y4.036 Z3.011 A166.204
 Y3.916 Z2.725 A167.958
 Y3.786 Z2.44 A169.736
 Y3.644 Z2.154 A171.537
 Y3.492 Z1.87 A173.362
 Y3.338 Z1.601 A175.114
 Y3.173 Z1.335 A176.886
 Y2.999 Z1.071 A178.678
 Y2.814 Z0.809 A180.488
 Y2.596 Z0.522 A182.53
 Y2.298 Z0.161 A185.174
 Y2.112 Z-0.048 A186.761
 Y1.919 Z-0.254 A188.358
 Y1.718 Z-0.455 A189.967
 Y1.511 Z-0.652 A191.586
 Y1.297 Z-0.845 A193.214
 Y1.061 Z-1.044 A194.961
 Y0.818 Z-1.237 A196.718
 Y0.568 Z-1.424 A198.483
 Y0.311 Z-1.604 A200.257
 Y0.052 Z-1.772 A202.003
 Y-0.212 Z-1.934 A203.754
 Y-0.481 Z-2.088 A205.511
 Y-0.757 Z-2.234 A207.273
 Y-1.033 Z-2.37 A209.017
 Y-1.314 Z-2.497 A210.764
 Y-1.599 Z-2.616 A212.513
 Y-2.069 Z-2.791 A215.346
 Y-2.433 Z-2.908 A217.512
 Y-2.801 Z-3.012 A219.677
 Y-3.173 Z-3.102 A221.839
 Y-3.662 Z-3.197 A224.658
 Y-3.965 Z-3.244 A226.394
 Y-4.269 Z-3.282 A228.125
 Y-4.572 Z-3.31 A229.85
 Y-4.879 Z-3.329 A231.588
 Y-5.185 Z-3.339 A233.319
 Y-5.489 Z-3.339 A235.042
 Y-5.792 Z-3.332 A236.756
 Y-6.099 Z-3.314 A238.493
 Y-6.402 Z-3.287 A240.219
 Y-6.703 Z-3.252 A241.934
 Y-7.001 Z-3.207 A243.637
 Y-7.355 Z-3.143 A245.674
 Y-7.704 Z-3.066 A247.693
 Y-8.046 Z-2.979 A249.691
 Y-8.381 Z-2.88 A251.667
 Y-8.672 Z-2.785 A253.4
 Y-8.957 Z-2.681 A255.116
 Y-9.236 Z-2.571 A256.813
 Y-9.508 Z-2.453 A258.491
 Y-9.786 Z-2.323 A260.223
 Y-10.055 Z-2.187 A261.933
 Y-10.318 Z-2.045 A263.621
 Y-10.573 Z-1.897 A265.291
 Y-11.019 Z-1.613 A268.281
 Y-11.24 Z-1.46 A269.801
 Y-11.459 Z-1.3 A271.337
 Y-11.676 Z-1.132 A272.89
 Y-11.89 Z-0.956 A274.459
 Y-12.101 Z-0.772 A276.043
 Y-12.31 Z-0.581 A277.642
 Y-12.532 Z-0.366 A279.393
 Y-12.749 Z-0.141 A281.16
 Y-12.961 Z0.092 A282.943
 Y-13.167 Z0.334 A284.742
 Y-13.36 Z0.575 A286.491
 Y-13.548 Z0.824 A288.253
 Y-13.728 Z1.081 A290.027
 Y-13.902 Z1.344 A291.813
 Y-14.064 Z1.607 A293.56
 Y-14.219 Z1.876 A295.317
 Y-14.366 Z2.151 A297.082
 Y-14.505 Z2.432 A298.856
 Y-14.642 Z2.734 A300.73
 Y-14.77 Z3.041 A302.612
 Y-14.889 Z3.352 A304.499
 Y-14.997 Z3.669 A306.392
 Y-15.087 Z3.964 A308.135
 Y-15.169 Z4.261 A309.881
 Y-15.241 Z4.562 A311.629
 Y-15.304 Z4.864 A313.379
 Y-15.358 Z5.167 A315.121
 Y-15.403 Z5.472 A316.862
 Y-15.438 Z5.777 A318.602
 Y-15.464 Z6.083 A320.34
 Y-15.481 Z6.391 A322.08
 Y-15.488 Z6.697 A323.817
 Y-15.486 Z7.004 A325.549
 Y-15.463 Z7.505 A328.389
 Y-15.428 Z7.895 A330.607
 Y-15.377 Z8.282 A332.813
 Y-15.313 Z8.664 A335.005
 Y-15.208 Z9.153 A337.832
 Y-15.132 Z9.448 A339.558
 Y-15.048 Z9.739 A341.271
 Y-14.957 Z10.025 A342.973
 Y-14.854 Z10.314 A344.708
 Y-14.744 Z10.598 A346.428
 Y-14.626 Z10.875 A348.134
 Y-14.502 Z11.147 A349.824
 Y-14.366 Z11.42 A351.549
 Y-14.224 Z11.686 A353.256
 Y-14.076 Z11.945 A354.945
 Y-13.922 Z12.197 A356.615
 Y-13.762 Z12.442 A358.267
 Y-13.598 Z12.679 A359.899
 Y-13.429 Z12.908 A361.512
 Y-13.255 Z13.13 A363.106
 Y-14.195 Z12.391 A360.814
 Y-15.109 Z11.611 A358.509
 Y-15.491 Z11.265 A357.521
 X191.366 Y-16.428 Z10.364 A355.03
 X191.364 Y-17.268 Z9.486 A352.701
 X191.361 Y-18.074 Z8.572 A350.364
 X191.359 Y-18.843 Z7.623 A348.023
 X191.356 Y-19.574 Z6.643 A345.679
 X191.354 Y-20.264 Z5.633 A343.334
 X191.352 Y-20.912 Z4.596 A340.989
 X191.349 Y-21.517 Z3.535 A338.648
 X191.347 Y-22.077 Z2.452 A336.312
 X191.344 Y-22.59 Z1.351 A333.982
 X191.342 Y-23.057 Z0.234 A331.661
 X191.339 Y-23.476 Z-0.896 A329.351
 X191.337 Y-23.848 Z-2.036 A327.053
 X191.336 Y-24.016 Z-2.609 A325.907
 X191.333 Y-24.58 Z-1.72 A328.796
 X191.33 Y-25.113 Z-0.777 A331.766
 X191.328 Y-25.534 Z0.059 A334.332
 X191.325 Y-25.924 Z0.932 A336.953
 X191.323 Y-26.269 Z1.806 A339.528
 X191.321 Y-26.579 Z2.711 A342.152
 X191.318 Y-26.844 Z3.616 A344.736
 X191.316 Y-27.071 Z4.547 A347.363
 X191.313 Y-27.253 Z5.475 A349.956
 X191.311 Y-27.394 Z6.424 A352.586
 X191.308 Y-27.491 Z7.368 A355.188
 X191.306 Y-27.546 Z8.327 A357.821
 X191.303 Y-27.556 Z9.254 A360.365
 X191.301 Y-27.525 Z10.191 A362.933
 X191.299 Y-27.452 Z11.133 A365.525
 X191.296 Y-27.334 Z12.078 A368.137
 X191.294 Y-27.173 Z13.023 A370.763
 X191.291 Y-26.967 Z13.964 A373.405
 X191.289 Y-26.719 Z14.893 A376.04
 X191.286 Y-26.427 Z15.812 A378.685
 X191.284 Y-26.093 Z16.717 A381.329
 X191.281 Y-25.718 Z17.606 A383.976
 X191.279 Y-25.3 Z18.479 A386.628
 X191.276 Y-24.844 Z19.331 A389.279
 X191.274 Y-24.346 Z20.164 A391.939
 X191.271 Y-23.812 Z20.971 A394.593
 X191.269 Y-23.373 Z21.577 A396.644
 X191.267 Y-22.915 Z22.165 A398.688
 Y-22.438 Z22.735 A400.723
 X191.264 Y-21.944 Z23.284 A402.748
 X191.261 Y-21.26 Z23.984 A405.431
 X191.259 Y-20.55 Z24.645 A408.092
 X191.256 Y-19.802 Z25.281 A410.784
 X191.254 Y-19.032 Z25.874 A413.448
 X191.251 Y-18.225 Z26.439 A416.15
 X191.249 Y-17.402 Z26.958 A418.817
 X191.246 Y-16.542 Z27.446 A421.528
 X191.243 Y-15.674 Z27.887 A424.198
 X191.241 Y-14.768 Z28.294 A426.92
 X191.238 Y-13.861 Z28.651 A429.594
 X191.236 Y-13.052 Z28.929 A431.939
 X191.234 Y-12.247 Z29.17 A434.243
 X191.232 Y-11.447 Z29.375 A436.506
 X191.23 Y-10.655 Z29.546 A438.728
 X191.227 Y-9.665 Z29.714 A441.48
 X191.225 Y-8.694 Z29.832 A444.163
 X191.222 Y-7.764 Z29.902 A446.719
 X191.22 Y-6.81 Z29.931 A449.336
 X191.217 Y-5.875 Z29.917 A451.899
 X191.215 Y-4.921 Z29.859 A454.519
 X191.213 Y-3.988 Z29.76 A457.092
 X191.21 Y-3.042 Z29.616 A459.716
 X191.208 Y-2.276 Z29.467 A461.856
 X191.206 Y-1.505 Z29.286 A464.027
 X191.204 Y-0.73 Z29.073 A466.229
 X191.202 Y0.045 Z28.827 A468.46
 X191.199 Y0.935 Z28.503 A471.056
 X191.197 Y1.821 Z28.134 A473.688
 X191.195 Y2.681 Z27.729 A476.293
 X191.192 Y3.531 Z27.28 A478.928
 X191.19 Y4.352 Z26.796 A481.542
 X191.187 Y5.158 Z26.271 A484.18
 X191.185 Y5.934 Z25.712 A486.802
 X191.182 Y6.69 Z25.115 A489.443
 X191.18 Y7.414 Z24.485 A492.073
 X191.177 Y8.111 Z23.82 A494.717
 X191.175 Y8.748 Z23.155 A497.239
 X191.173 Y9.356 Z22.462 A499.768
 X191.17 Y9.934 Z21.741 A502.301
 X191.168 Y10.48 Z20.995 A504.836
 X191.165 Y11.016 Z20.188 A507.491
 X191.163 Y11.513 Z19.358 A510.143
 X191.16 Y11.973 Z18.503 A512.807
 X191.158 Y12.392 Z17.63 A515.461
 X191.155 Y12.772 Z16.732 A518.134
 X191.153 Y13.108 Z15.823 A520.792
 X191.15 Y13.404 Z14.891 A523.473
 X191.148 Y13.655 Z13.953 A526.134
 X191.145 Y13.863 Z12.994 A528.825
 X191.143 Y14.025 Z12.036 A531.488
 X191.14 Y14.141 Z11.09 A534.102
 X191.138 Y14.213 Z10.151 A536.684
 X191.135 Y14.242 Z9.222 A539.233
 X191.133 Y14.23 Z8.305 A541.746
 X191.131 Y14.172 Z7.315 A544.465
 X191.128 Y14.069 Z6.345 A547.138
 X191.125 Y13.918 Z5.361 A549.868
 X191.123 Y13.724 Z4.404 A552.544
 X191.12 Y13.479 Z3.435 A555.286
 X191.118 Y13.196 Z2.5 A557.965
 X191.115 Y12.859 Z1.554 A560.719
 X191.113 Y12.487 Z0.648 A563.402
 X191.11 Y12.026 Z0.948 A561.111
 X191.108 Y11.551 Z1.231 A558.806
 X191.106 Y11.062 Z1.496 A556.49
 X191.103 Y10.561 Z1.742 A554.164
 X191.101 Y10.048 Z1.969 A551.831
 X191.098 Y9.526 Z2.174 A549.492
 X191.096 Y8.994 Z2.359 A547.148
 X191.093 Y8.455 Z2.522 A544.803
 X191.091 Y7.91 Z2.662 A542.458
 X191.088 Y7.36 Z2.78 A540.115
 X191.086 Y6.806 Z2.875 A537.775
 X191.084 Y6.251 Z2.948 A535.442
 X191.081 Y5.695 Z2.997 A533.116
 X191.079 Y5.139 Z3.024 A530.8
 X191.076 Y4.586 Z3.029 A528.495
 X191.074 Y4.036 Z3.011 A526.204
 X191.072 Y3.852 Z2.582 A528.847
 X191.07 Y3.645 Z2.154 A531.537
 X191.068 Y3.416 Z1.735 A534.238
 X191.066 Y3.174 Z1.335 A536.886
 X191.064 Y2.908 Z0.939 A539.583
 X191.062 Y2.596 Z0.522 A542.53
 X191.06 Y2.299 Z0.162 A545.174
 Y2.016 Z-0.151 A547.56
 X191.057 Y1.718 Z-0.455 A549.967
 X191.055 Y1.405 Z-0.749 A552.4
 X191.053 Y1.061 Z-1.044 A554.961
 Y0.694 Z-1.332 A557.601
 X191.05 Y0.311 Z-1.603 A560.257
 X191.048 Y-0.079 Z-1.854 A562.878
 X191.046 Y-0.481 Z-2.088 A565.511
 X191.044 Y-0.894 Z-2.302 A568.145
 X191.042 Y-1.314 Z-2.497 A570.764
 X191.041 Y-1.599 Z-2.616 A572.513
 X191.039 Y-2.069 Z-2.791 A575.346
 X191.037 Y-2.433 Z-2.908 A577.512
 X191.036 Y-2.801 Z-3.012 A579.677
 X191.034 Y-3.173 Z-3.102 A581.839
 X191.032 Y-3.662 Z-3.197 A584.658
 X191.03 Y-4.117 Z-3.264 A587.259
 Y-4.572 Z-3.31 A589.85
 X191.027 Y-5.032 Z-3.335 A592.454
 X191.025 Y-5.489 Z-3.34 A595.042
 X191.023 Y-5.945 Z-3.324 A597.625
 X191.021 Y-6.402 Z-3.287 A600.219
 X191.019 Y-6.852 Z-3.23 A602.785
 X191.017 Y-7.355 Z-3.143 A605.674
 Y-7.704 Z-3.066 A607.693
 X191.014 Y-8.214 Z-2.931 A610.679
 X191.012 Y-8.672 Z-2.784 A613.4
 X191.01 Y-9.097 Z-2.627 A615.964
 X191.008 Y-9.508 Z-2.453 A618.491
 X191.006 Y-9.921 Z-2.256 A621.078
 X191.004 Y-10.318 Z-2.045 A623.621
 Y-10.573 Z-1.897 A625.291
 X191.001 Y-11.019 Z-1.613 A628.281
 X190.999 Y-11.349 Z-1.381 A630.569
 Y-11.675 Z-1.131 A632.89
 X190.996 Y-11.996 Z-0.865 A635.251
 X190.994 Y-12.31 Z-0.581 A637.642
 X190.993 Y-12.641 Z-0.254 A640.276
 X190.991 Y-12.961 Z0.092 A642.943
 X190.989 Y-13.264 Z0.454 A645.617
 X190.987 Y-13.547 Z0.824 A648.253
 X190.985 Y-13.816 Z1.212 A650.92
 X190.983 Y-14.064 Z1.607 A653.56
 X190.981 Y-14.293 Z2.013 A656.2
 X190.979 Y-14.505 Z2.432 A658.856
 X190.977 Y-14.707 Z2.887 A661.671
 X190.975 Y-14.888 Z3.353 A664.499
 X190.973 Y-15.043 Z3.816 A667.263
 X190.971 Y-15.168 Z4.261 A669.881
 Y-15.274 Z4.713 A672.504
 X190.968 Y-15.358 Z5.168 A675.121
 X190.966 Y-15.421 Z5.625 A677.732
 X190.964 Y-15.464 Z6.084 A680.34
 X190.962 Y-15.485 Z6.544 A682.949
 X190.96 Y-15.486 Z7.004 A685.549
 X190.958 Y-15.463 Z7.505 A688.389
 Y-15.427 Z7.896 A690.607
 X190.955 Y-15.377 Z8.282 A692.813
 X190.953 Y-15.313 Z8.664 A695.005
 X190.951 Y-15.208 Z9.153 A697.832
 X190.95 Y-15.091 Z9.594 A700.414
 X190.948 Y-14.956 Z10.026 A702.973
 X190.946 Y-14.8 Z10.457 A705.568
 X190.944 Y-14.626 Z10.876 A708.134
 X190.942 Y-14.435 Z11.284 A710.687
 X190.94 Y-14.224 Z11.686 A713.256
 X190.939 Y-13.999 Z12.072 A715.78
 X190.937 Y-13.762 Z12.442 A718.267
 X190.935 Y-13.514 Z12.794 A720.706
 X190.933 Y-13.255 Z13.13 A723.106
 X190.931 Y-14.195 Z12.391 A720.814
 X190.928 Y-15.301 Z11.439 A718.015
 Y-15.491 Z11.265 A717.521
 X190.925 Y-16.428 Z10.364 A715.03
 X190.923 Y-17.268 Z9.486 A712.701
 X190.92 Y-18.074 Z8.572 A710.364
 X190.918 Y-18.843 Z7.623 A708.023
 X190.915 Y-19.574 Z6.643 A705.679
 X190.913 Y-20.264 Z5.633 A703.334
 X190.91 Y-20.912 Z4.596 A700.989
 X190.908 Y-21.517 Z3.535 A698.648
 X190.905 Y-22.077 Z2.452 A696.312
 X190.903 Y-22.59 Z1.351 A693.982
 X190.901 Y-23.057 Z0.234 A691.661
 X190.898 Y-23.476 Z-0.896 A689.351
 X190.896 Y-23.848 Z-2.036 A687.053
 Y-24.016 Z-2.609 A685.907
 X190.892 Y-24.58 Z-1.72 A688.796
 X190.889 Y-25.113 Z-0.777 A691.766
 X190.887 Y-25.534 Z0.059 A694.332
 X190.884 Y-25.924 Z0.932 A696.953
 X190.882 Y-26.269 Z1.806 A699.528
 X190.879 Y-26.579 Z2.711 A702.152
 X190.877 Y-26.844 Z3.616 A704.736
 X190.874 Y-27.071 Z4.547 A707.363
 X190.872 Y-27.253 Z5.475 A709.956
 X190.87 Y-27.394 Z6.424 A712.586
 X190.867 Y-27.491 Z7.368 A715.188
 X190.865 Y-27.546 Z8.327 A717.821
 X190.862 Y-27.556 Z9.254 A720.365
 X190.86 Y-27.525 Z10.191 A722.933
 X190.857 Y-27.452 Z11.133 A725.525
 X190.855 Y-27.334 Z12.078 A728.137
 X190.853 Y-27.173 Z13.023 A730.763
 X190.85 Y-26.967 Z13.964 A733.405
 X190.848 Y-26.719 Z14.893 A736.04
 X190.845 Y-26.427 Z15.812 A738.685
 X190.843 Y-26.093 Z16.717 A741.329
 X190.84 Y-25.718 Z17.606 A743.976
 X190.838 Y-25.3 Z18.479 A746.628
 X190.835 Y-24.844 Z19.331 A749.279
 X190.833 Y-24.346 Z20.164 A751.939
 X190.83 Y-23.812 Z20.971 A754.593
 X190.828 Y-23.373 Z21.577 A756.644
 X190.826 Y-22.915 Z22.165 A758.688
 X190.824 Y-22.438 Z22.735 A760.723
 X190.822 Y-21.944 Z23.284 A762.748
 X190.82 Y-21.26 Z23.984 A765.431
 X190.817 Y-20.55 Z24.645 A768.092
 X190.815 Y-19.802 Z25.281 A770.784
 X190.812 Y-19.032 Z25.874 A773.448
 X190.81 Y-18.225 Z26.439 A776.15
 X190.807 Y-17.402 Z26.958 A778.817
 X190.805 Y-16.542 Z27.446 A781.528
 X190.802 Y-15.674 Z27.887 A784.198
 X190.8 Y-14.768 Z28.294 A786.92
 X190.797 Y-13.861 Z28.651 A789.594
 X190.795 Y-13.052 Z28.929 A791.939
 X190.793 Y-12.247 Z29.17 A794.243
 X190.791 Y-11.447 Z29.375 A796.506
 X190.789 Y-10.655 Z29.546 A798.728
 X190.786 Y-9.665 Z29.714 A801.48
 X190.784 Y-8.694 Z29.832 A804.163
 X190.781 Y-7.764 Z29.902 A806.719
 X190.779 Y-6.81 Z29.931 A809.336
 X190.776 Y-5.875 Z29.917 A811.899
 X190.774 Y-4.921 Z29.859 A814.519
 X190.771 Y-3.988 Z29.76 A817.092
 X190.769 Y-3.042 Z29.616 A819.716
 X190.767 Y-2.276 Z29.467 A821.856
 X190.765 Y-1.505 Z29.286 A824.027
 X190.763 Y-0.73 Z29.073 A826.229
 X190.761 Y0.045 Z28.827 A828.46
 X190.758 Y0.935 Z28.503 A831.056
 X190.756 Y1.821 Z28.134 A833.688
 X190.753 Y2.681 Z27.729 A836.293
 X190.751 Y3.531 Z27.28 A838.928
 X190.748 Y4.352 Z26.796 A841.542
 X190.746 Y5.158 Z26.271 A844.18
 X190.744 Y5.934 Z25.712 A846.802
 X190.741 Y6.69 Z25.115 A849.443
 X190.739 Y7.414 Z24.485 A852.073
 X190.736 Y8.111 Z23.82 A854.717
 X190.734 Y8.748 Z23.155 A857.239
 X190.731 Y9.356 Z22.462 A859.768
 X190.729 Y9.934 Z21.741 A862.301
 X190.727 Y10.48 Z20.995 A864.836
 X190.724 Y11.016 Z20.188 A867.491
 X190.722 Y11.513 Z19.358 A870.143
 X190.719 Y11.973 Z18.503 A872.807
 X190.717 Y12.392 Z17.63 A875.461
 X190.714 Y12.772 Z16.732 A878.134
 X190.712 Y13.108 Z15.823 A880.792
 X190.709 Y13.404 Z14.891 A883.473
 X190.707 Y13.655 Z13.953 A886.134
 X190.704 Y13.863 Z12.994 A888.825
 X190.702 Y14.025 Z12.036 A891.488
 X190.699 Y14.141 Z11.09 A894.102
 X190.697 Y14.213 Z10.151 A896.684
 X190.694 Y14.242 Z9.222 A899.233
 X190.692 Y14.23 Z8.305 A901.746
 X190.689 Y14.172 Z7.315 A904.465
 X190.687 Y14.069 Z6.345 A907.138
 X190.684 Y13.918 Z5.361 A909.868
 X190.682 Y13.724 Z4.404 A912.544
 X190.679 Y13.479 Z3.435 A915.286
 X190.677 Y13.196 Z2.5 A917.965
 X190.674 Y12.859 Z1.554 A920.719
 X190.672 Y12.487 Z0.648 A923.402
 X190.669 Y12.026 Z0.948 A921.111
 X190.667 Y11.551 Z1.231 A918.806
 X190.664 Y11.062 Z1.496 A916.49
 X190.662 Y10.561 Z1.742 A914.164
 X190.66 Y10.048 Z1.969 A911.831
 X190.657 Y9.526 Z2.174 A909.492
 X190.655 Y8.994 Z2.359 A907.148
 X190.652 Y8.455 Z2.522 A904.803
 X190.65 Y7.91 Z2.662 A902.458
 X190.647 Y7.36 Z2.78 A900.115
 X190.645 Y6.806 Z2.875 A897.775
 X190.642 Y6.251 Z2.948 A895.442
 X190.64 Y5.695 Z2.997 A893.116
 X190.638 Y5.139 Z3.024 A890.8
 X190.635 Y4.586 Z3.029 A888.495
 X190.633 Y4.036 Z3.011 A886.204
 X190.631 Y3.852 Z2.582 A888.847
 X190.629 Y3.645 Z2.154 A891.537
 X190.627 Y3.416 Z1.735 A894.238
 X190.625 Y3.174 Z1.335 A896.886
 X190.623 Y2.908 Z0.939 A899.583
 X190.621 Y2.596 Z0.522 A902.53
 X190.619 Y2.299 Z0.162 A905.174
 X190.618 Y2.016 Z-0.151 A907.559
 X190.616 Y1.718 Z-0.455 A909.967
 X190.614 Y1.405 Z-0.749 A912.4
 X190.612 Y1.061 Z-1.044 A914.961
 X190.61 Y0.694 Z-1.332 A917.601
 X190.609 Y0.311 Z-1.603 A920.257
 X190.607 Y-0.079 Z-1.854 A922.879
 X190.605 Y-0.481 Z-2.088 A925.511
 X190.603 Y-0.894 Z-2.302 A928.145
 X190.601 Y-1.314 Z-2.497 A930.764
 Y-1.599 Z-2.616 A932.513
 X190.598 Y-2.069 Z-2.791 A935.346
 X190.596 Y-2.433 Z-2.908 A937.512
 Y-2.801 Z-3.012 A939.677
 X190.593 Y-3.173 Z-3.102 A941.839
 X190.591 Y-3.662 Z-3.197 A944.658
 X190.589 Y-4.117 Z-3.264 A947.259
 X190.587 Y-4.572 Z-3.31 A949.85
 X190.586 Y-5.032 Z-3.335 A952.454
 X190.584 Y-5.489 Z-3.34 A955.042
 X190.582 Y-5.945 Z-3.324 A957.625
 X190.58 Y-6.402 Z-3.287 A960.219
 X190.578 Y-6.852 Z-3.23 A962.786
 X190.576 Y-7.355 Z-3.143 A965.675
 X190.575 Y-7.704 Z-3.066 A967.693
 X190.572 Y-8.214 Z-2.931 A970.679
 X190.571 Y-8.672 Z-2.784 A973.401
 X190.569 Y-9.097 Z-2.627 A975.964
 X190.567 Y-9.508 Z-2.453 A978.491
 X190.565 Y-9.921 Z-2.256 A981.078
 X190.563 Y-10.318 Z-2.045 A983.621
 X190.562 Y-10.573 Z-1.897 A985.291
 X190.56 Y-11.019 Z-1.613 A988.281
 X190.558 Y-11.349 Z-1.381 A990.569
 Y-11.675 Z-1.131 A992.89
 X190.555 Y-11.996 Z-0.865 A995.251
 X190.553 Y-12.31 Z-0.581 A997.642
 X190.551 Y-12.641 Z-0.254 A1000.276
 X190.549 Y-12.961 Z0.092 A1002.943
 Y-13.264 Z0.454 A1005.617
 X190.546 Y-13.547 Z0.824 A1008.253
 X190.544 Y-13.816 Z1.212 A1010.92
 X190.542 Y-14.064 Z1.607 A1013.56
 X190.54 Y-14.293 Z2.013 A1016.2
 X190.538 Y-14.505 Z2.432 A1018.856
 X190.536 Y-14.707 Z2.887 A1021.671
 X190.534 Y-14.888 Z3.353 A1024.499
 X190.532 Y-15.043 Z3.816 A1027.263
 X190.53 Y-15.168 Z4.261 A1029.881
 X190.528 Y-15.274 Z4.713 A1032.504
 X190.526 Y-15.358 Z5.168 A1035.121
 X190.525 Y-15.421 Z5.625 A1037.732
 X190.523 Y-15.464 Z6.084 A1040.34
 X190.521 Y-15.485 Z6.544 A1042.948
 X190.519 Y-15.486 Z7.004 A1045.549
 X190.517 Y-15.463 Z7.505 A1048.389
 X190.515 Y-15.427 Z7.896 A1050.607
 Y-15.377 Z8.282 A1052.813
 X190.512 Y-15.313 Z8.664 A1055.005
 X190.51 Y-15.208 Z9.153 A1057.832
 X190.508 Y-15.091 Z9.594 A1060.415
 Y-14.956 Z10.026 A1062.973
 X190.505 Y-14.8 Z10.457 A1065.568
 X190.503 Y-14.626 Z10.876 A1068.134
 X190.501 Y-14.435 Z11.284 A1070.687
 X190.499 Y-14.224 Z11.686 A1073.256
 X190.497 Y-13.999 Z12.072 A1075.78
 Y-13.762 Z12.442 A1078.267
 X190.494 Y-13.514 Z12.794 A1080.706
 X190.492 Y-13.255 Z13.13 A1083.106
 X190.49 Y-14.195 Z12.391 A1080.814
 X190.487 Y-15.301 Z11.439 A1078.016
 X190.486 Y-15.491 Z11.265 A1077.523
 X190.484 Y-16.428 Z10.364 A1075.03
 X190.481 Y-17.268 Z9.486 A1072.701
 X190.479 Y-18.074 Z8.572 A1070.364
 X190.476 Y-18.843 Z7.623 A1068.023
 X190.474 Y-19.574 Z6.643 A1065.679
 X190.472 Y-20.264 Z5.633 A1063.334
 X190.469 Y-20.912 Z4.596 A1060.989
 X190.467 Y-21.517 Z3.535 A1058.648
 X190.464 Y-22.077 Z2.452 A1056.312
 X190.462 Y-22.59 Z1.351 A1053.982
 X190.459 Y-23.057 Z0.234 A1051.661
 X190.457 Y-23.476 Z-0.896 A1049.351
 X190.455 Y-23.848 Z-2.036 A1047.053
 X190.453 Y-24.016 Z-2.609 A1045.907
 X190.451 Y-24.58 Z-1.72 A1048.797
 X190.448 Y-25.113 Z-0.777 A1051.766
 X190.446 Y-25.534 Z0.059 A1054.332
 X190.443 Y-25.924 Z0.932 A1056.953
 X190.441 Y-26.269 Z1.806 A1059.528
 X190.438 Y-26.579 Z2.711 A1062.152
 X190.436 Y-26.844 Z3.616 A1064.736
 X190.433 Y-27.071 Z4.547 A1067.363
 X190.431 Y-27.253 Z5.475 A1069.956
 X190.428 Y-27.394 Z6.424 A1072.586
 X190.426 Y-27.491 Z7.368 A1075.188
 X190.423 Y-27.546 Z8.327 A1077.821
 X190.421 Y-27.556 Z9.254 A1080.365
 X190.419 Y-27.525 Z10.191 A1082.933
 X190.416 Y-27.452 Z11.133 A1085.525
 X190.414 Y-27.334 Z12.078 A1088.137
 X190.411 Y-27.173 Z13.023 A1090.763
 X190.409 Y-26.967 Z13.964 A1093.405
 X190.406 Y-26.719 Z14.893 A1096.04
 X190.404 Y-26.427 Z15.812 A1098.685
 X190.401 Y-26.093 Z16.717 A1101.329
 X190.399 Y-25.718 Z17.606 A1103.976
 X190.396 Y-25.3 Z18.479 A1106.628
 X190.394 Y-24.844 Z19.331 A1109.279
 X190.391 Y-24.346 Z20.164 A1111.939
 X190.389 Y-23.812 Z20.971 A1114.593
 X190.387 Y-23.373 Z21.577 A1116.644
 X190.385 Y-22.915 Z22.165 A1118.688
 X190.383 Y-22.438 Z22.735 A1120.723
 X190.381 Y-21.944 Z23.284 A1122.748
 X190.379 Y-21.26 Z23.984 A1125.431
 X190.376 Y-20.55 Z24.645 A1128.092
 X190.374 Y-19.802 Z25.281 A1130.784
 X190.371 Y-19.032 Z25.874 A1133.448
 X190.369 Y-18.225 Z26.439 A1136.15
 X190.366 Y-17.402 Z26.958 A1138.817
 X190.364 Y-16.542 Z27.446 A1141.528
 X190.361 Y-15.674 Z27.887 A1144.198
 X190.359 Y-14.768 Z28.294 A1146.92
 X190.356 Y-13.861 Z28.651 A1149.594
 X190.354 Y-13.052 Z28.929 A1151.939
 X190.352 Y-12.247 Z29.17 A1154.243
 X190.35 Y-11.447 Z29.375 A1156.506
 X190.347 Y-10.655 Z29.546 A1158.728
 X190.345 Y-9.665 Z29.714 A1161.48
 X190.342 Y-8.694 Z29.832 A1164.163
 X190.34 Y-7.764 Z29.902 A1166.719
 X190.338 Y-6.81 Z29.931 A1169.336
 X190.335 Y-5.875 Z29.917 A1171.899
 X190.333 Y-4.921 Z29.859 A1174.519
 X190.33 Y-3.988 Z29.76 A1177.092
 X190.328 Y-3.042 Z29.616 A1179.716
 X190.326 Y-2.276 Z29.467 A1181.856
 X190.324 Y-1.505 Z29.286 A1184.027
 X190.322 Y-0.73 Z29.073 A1186.229
 X190.32 Y0.045 Z28.827 A1188.46
 X190.317 Y0.935 Z28.503 A1191.056
 X190.315 Y1.821 Z28.134 A1193.688
 X190.312 Y2.681 Z27.729 A1196.293
 X190.31 Y3.531 Z27.28 A1198.928
 X190.307 Y4.352 Z26.796 A1201.542
 X190.305 Y5.158 Z26.271 A1204.18
 X190.302 Y5.934 Z25.712 A1206.802
 X190.3 Y6.69 Z25.115 A1209.443
 X190.297 Y7.414 Z24.485 A1212.073
 X190.295 Y8.111 Z23.82 A1214.717
 X190.293 Y8.748 Z23.155 A1217.239
 X190.29 Y9.356 Z22.462 A1219.768
 X190.288 Y9.934 Z21.741 A1222.301
 X190.285 Y10.48 Z20.995 A1224.836
 X190.283 Y11.016 Z20.188 A1227.491
 X190.28 Y11.513 Z19.358 A1230.143
 X190.278 Y11.973 Z18.503 A1232.807
 X190.275 Y12.392 Z17.63 A1235.461
 X190.273 Y12.772 Z16.732 A1238.134
 X190.27 Y13.108 Z15.823 A1240.792
 X190.268 Y13.404 Z14.891 A1243.473
 X190.265 Y13.655 Z13.953 A1246.134
 X190.263 Y13.863 Z12.994 A1248.825
 X190.26 Y14.025 Z12.036 A1251.488
 X190.258 Y14.141 Z11.09 A1254.102
 X190.255 Y14.213 Z10.151 A1256.684
 X190.253 Y14.242 Z9.222 A1259.233
 X190.251 Y14.23 Z8.305 A1261.746
 X190.248 Y14.172 Z7.315 A1264.465
 X190.246 Y14.069 Z6.345 A1267.138
 X190.243 Y13.918 Z5.361 A1269.868
 X190.241 Y13.724 Z4.404 A1272.544
 X190.238 Y13.479 Z3.435 A1275.286
 X190.236 Y13.196 Z2.5 A1277.965
 X190.233 Y12.859 Z1.554 A1280.719
 X190.23 Y12.487 Z0.648 A1283.402
 X190.228 Y12.026 Z0.948 A1281.111
 X190.226 Y11.551 Z1.231 A1278.806
 X190.223 Y11.062 Z1.496 A1276.49
 X190.221 Y10.561 Z1.742 A1274.164
 X190.218 Y10.048 Z1.969 A1271.831
 X190.216 Y9.526 Z2.174 A1269.492
 X190.213 Y8.994 Z2.359 A1267.148
 X190.211 Y8.455 Z2.522 A1264.803
 X190.209 Y7.91 Z2.662 A1262.458
 X190.206 Y7.36 Z2.78 A1260.115
 X190.204 Y6.806 Z2.875 A1257.775
 X190.201 Y6.251 Z2.948 A1255.442
 X190.199 Y5.695 Z2.997 A1253.116
 X190.196 Y5.139 Z3.024 A1250.8
 X190.194 Y4.586 Z3.029 A1248.495
 X190.192 Y4.036 Z3.011 A1246.204
 X190.19 Y3.852 Z2.582 A1248.847
 X190.188 Y3.645 Z2.154 A1251.537
 X190.186 Y3.416 Z1.735 A1254.238
 X190.184 Y3.174 Z1.335 A1256.886
 X190.182 Y2.908 Z0.939 A1259.583
 X190.18 Y2.596 Z0.522 A1262.53
 X190.178 Y2.299 Z0.162 A1265.174
 X190.176 Y2.016 Z-0.151 A1267.559
 Y1.718 Z-0.455 A1269.967
 X190.173 Y1.405 Z-0.749 A1272.4
 X190.171 Y1.061 Z-1.044 A1274.961
 X190.169 Y0.694 Z-1.332 A1277.601
 X190.167 Y0.311 Z-1.603 A1280.257
 X190.165 Y-0.079 Z-1.854 A1282.879
 Y-0.481 Z-2.088 A1285.511
 X190.162 Y-0.894 Z-2.302 A1288.145
 X190.16 Y-1.314 Z-2.497 A1290.764
 X190.159 Y-1.599 Z-2.616 A1292.513
 X190.157 Y-2.069 Z-2.791 A1295.346
 X190.155 Y-2.433 Z-2.908 A1297.512
 X190.153 Y-2.801 Z-3.012 A1299.677
 X190.152 Y-3.173 Z-3.102 A1301.839
 X190.15 Y-3.662 Z-3.197 A1304.658
 X190.148 Y-4.117 Z-3.264 A1307.259
 X190.146 Y-4.572 Z-3.31 A1309.85
 X190.144 Y-5.032 Z-3.335 A1312.454
 X190.142 Y-5.489 Z-3.34 A1315.042
 Y-5.945 Z-3.324 A1317.625
 X190.139 Y-6.402 Z-3.287 A1320.219
 X190.137 Y-6.852 Z-3.23 A1322.786
 X190.135 Y-7.355 Z-3.143 A1325.675
 X190.133 Y-7.704 Z-3.066 A1327.693
 X190.131 Y-8.214 Z-2.931 A1330.679
 X190.129 Y-8.672 Z-2.784 A1333.401
 Y-9.097 Z-2.627 A1335.964
 X190.126 Y-9.508 Z-2.453 A1338.491
 X190.124 Y-9.921 Z-2.256 A1341.078
 X190.122 Y-10.318 Z-2.045 A1343.621
 Y-10.573 Z-1.897 A1345.291
 X190.119 Y-11.019 Z-1.613 A1348.281
 X190.117 Y-11.349 Z-1.381 A1350.569
 X190.115 Y-11.675 Z-1.131 A1352.89
 X190.114 Y-11.996 Z-0.865 A1355.251
 X190.112 Y-12.31 Z-0.581 A1357.642
 X190.11 Y-12.641 Z-0.254 A1360.276
 X190.108 Y-12.961 Z0.092 A1362.943
 X190.106 Y-13.264 Z0.454 A1365.617
 X190.104 Y-13.547 Z0.824 A1368.253
 X190.103 Y-13.816 Z1.212 A1370.92
 X190.101 Y-14.064 Z1.607 A1373.56
 X190.099 Y-14.293 Z2.013 A1376.2
 X190.097 Y-14.505 Z2.432 A1378.856
 X190.095 Y-14.707 Z2.887 A1381.671
 X190.093 Y-14.888 Z3.353 A1384.499
 X190.091 Y-15.043 Z3.816 A1387.263
 X190.089 Y-15.168 Z4.261 A1389.881
 X190.087 Y-15.274 Z4.713 A1392.504
 X190.085 Y-15.358 Z5.168 A1395.121
 X190.083 Y-15.421 Z5.625 A1397.732
 Y-15.464 Z6.084 A1400.34
 X190.08 Y-15.485 Z6.544 A1402.948
 X190.078 Y-15.486 Z7.004 A1405.549
 X190.076 Y-15.463 Z7.505 A1408.389
 X190.074 Y-15.427 Z7.896 A1410.607
 X190.073 Y-15.377 Z8.282 A1412.813
 X190.071 Y-15.313 Z8.664 A1415.005
 X190.069 Y-15.208 Z9.153 A1417.832
 X190.067 Y-15.091 Z9.594 A1420.415
 X190.065 Y-14.956 Z10.026 A1422.973
 X190.064 Y-14.8 Z10.457 A1425.568
 X190.062 Y-14.626 Z10.876 A1428.134
 X190.06 Y-14.435 Z11.284 A1430.687
 X190.058 Y-14.224 Z11.686 A1433.256
 X190.056 Y-13.999 Z12.072 A1435.78
 X190.054 Y-13.762 Z12.442 A1438.267
 X190.053 Y-13.514 Z12.794 A1440.706
 X190.051 Y-13.255 Z13.13 A1443.106
 X190.049 Y-14.195 Z12.391 A1440.814
 X190.046 Y-15.3 Z11.439 A1438.017
 X190.045 Y-15.49 Z11.266 A1437.524
 X190.043 Y-16.428 Z10.364 A1435.03
 X190.04 Y-17.268 Z9.486 A1432.701
 X190.038 Y-18.074 Z8.572 A1430.364
 X190.035 Y-18.843 Z7.623 A1428.023
 X190.033 Y-19.574 Z6.643 A1425.679
 X190.03 Y-20.264 Z5.633 A1423.334
 X190.028 Y-20.912 Z4.596 A1420.989
 X190.026 Y-21.517 Z3.535 A1418.648
 X190.023 Y-22.077 Z2.452 A1416.312
 X190.021 Y-22.59 Z1.351 A1413.982
 X190.018 Y-23.057 Z0.234 A1411.661
 X190.016 Y-23.476 Z-0.896 A1409.351
 X190.013 Y-23.848 Z-2.036 A1407.053
 X190.012 Y-24.016 Z-2.609 A1405.907
 X190.01 Y-24.58 Z-1.72 A1408.797
 X190.007 Y-25.113 Z-0.777 A1411.766
 X190.004 Y-25.534 Z0.059 A1414.332
 X190.002 Y-25.924 Z0.932 A1416.953
 X189.999 Y-26.269 Z1.806 A1419.528
 X189.997 Y-26.579 Z2.711 A1422.152
 X189.995 Y-26.844 Z3.616 A1424.736
 X189.992 Y-27.071 Z4.547 A1427.363
 X189.99 Y-27.253 Z5.475 A1429.956
 X189.987 Y-27.394 Z6.424 A1432.586
 X189.985 Y-27.491 Z7.368 A1435.188
 X189.982 Y-27.546 Z8.327 A1437.821
 X189.98 Y-27.556 Z9.254 A1440.365
 X189.977 Y-27.525 Z10.191 A1442.933
 X189.975 Y-27.452 Z11.133 A1445.525
 X189.973 Y-27.334 Z12.078 A1448.137
 X189.97 Y-27.173 Z13.023 A1450.763
 X189.968 Y-26.967 Z13.964 A1453.405
 X189.965 Y-26.719 Z14.893 A1456.04
 X189.963 Y-26.427 Z15.812 A1458.685
 X189.96 Y-26.093 Z16.717 A1461.329
 X189.958 Y-25.718 Z17.606 A1463.976
 X189.955 Y-25.3 Z18.479 A1466.628
 X189.953 Y-24.844 Z19.331 A1469.279
 X189.95 Y-24.346 Z20.164 A1471.939
 X189.948 Y-23.812 Z20.971 A1474.593
 X189.946 Y-23.373 Z21.577 A1476.644
 X189.944 Y-22.915 Z22.165 A1478.688
 X189.942 Y-22.438 Z22.735 A1480.723
 X189.94 Y-21.944 Z23.284 A1482.748
 X189.938 Y-21.26 Z23.984 A1485.431
 X189.935 Y-20.55 Z24.645 A1488.092
 X189.933 Y-19.802 Z25.281 A1490.784
 X189.93 Y-19.032 Z25.874 A1493.448
 X189.928 Y-18.225 Z26.439 A1496.15
 X189.925 Y-17.402 Z26.958 A1498.817
 X189.922 Y-16.542 Z27.446 A1501.528
 X189.92 Y-15.674 Z27.887 A1504.198
 X189.917 Y-14.768 Z28.294 A1506.92
 X189.915 Y-13.861 Z28.651 A1509.594
 X189.913 Y-13.052 Z28.929 A1511.939
 X189.911 Y-12.247 Z29.17 A1514.243
 X189.908 Y-11.447 Z29.375 A1516.506
 X189.906 Y-10.655 Z29.546 A1518.728
 X189.904 Y-9.665 Z29.714 A1521.48
 X189.901 Y-8.694 Z29.832 A1524.163
 X189.899 Y-7.764 Z29.902 A1526.719
 X189.896 Y-6.81 Z29.931 A1529.336
 X189.894 Y-5.875 Z29.917 A1531.899
 X189.891 Y-4.921 Z29.859 A1534.519
 X189.889 Y-3.988 Z29.76 A1537.092
 X189.887 Y-3.042 Z29.616 A1539.716
 X189.885 Y-2.276 Z29.467 A1541.856
 X189.883 Y-1.505 Z29.286 A1544.027
 X189.88 Y-0.73 Z29.073 A1546.229
 X189.878 Y0.045 Z28.827 A1548.46
 X189.876 Y0.935 Z28.503 A1551.056
 X189.873 Y1.821 Z28.134 A1553.688
 X189.871 Y2.681 Z27.729 A1556.293
 X189.869 Y3.531 Z27.28 A1558.928
 X189.866 Y4.352 Z26.796 A1561.542
 X189.864 Y5.158 Z26.271 A1564.18
 X189.861 Y5.934 Z25.712 A1566.802
 X189.859 Y6.69 Z25.115 A1569.443
 X189.856 Y7.414 Z24.485 A1572.073
 X189.854 Y8.111 Z23.82 A1574.717
 X189.851 Y8.748 Z23.155 A1577.239
 X189.849 Y9.356 Z22.462 A1579.768
 X189.847 Y9.934 Z21.741 A1582.301
 X189.844 Y10.48 Z20.995 A1584.836
 X189.842 Y11.016 Z20.188 A1587.491
 X189.839 Y11.513 Z19.358 A1590.143
 X189.837 Y11.973 Z18.503 A1592.807
 X189.834 Y12.392 Z17.63 A1595.461
 X189.832 Y12.772 Z16.732 A1598.134
 X189.829 Y13.108 Z15.823 A1600.792
 X189.827 Y13.404 Z14.891 A1603.473
 X189.824 Y13.655 Z13.953 A1606.134
 X189.822 Y13.863 Z12.994 A1608.825
 X189.819 Y14.025 Z12.036 A1611.488
 X189.817 Y14.141 Z11.09 A1614.102
 X189.814 Y14.213 Z10.151 A1616.684
 X189.812 Y14.242 Z9.222 A1619.233
 X189.81 Y14.23 Z8.305 A1621.746
 X189.807 Y14.172 Z7.315 A1624.465
 X189.804 Y14.069 Z6.345 A1627.138
 X189.802 Y13.918 Z5.361 A1629.868
 X189.799 Y13.724 Z4.404 A1632.544
 X189.797 Y13.479 Z3.435 A1635.286
 X189.794 Y13.196 Z2.5 A1637.965
 X189.792 Y12.859 Z1.554 A1640.719
 X189.789 Y12.487 Z0.648 A1643.402
 X189.787 Y12.026 Z0.948 A1641.111
 X189.784 Y11.551 Z1.231 A1638.806
 X189.782 Y11.062 Z1.496 A1636.49
 X189.78 Y10.561 Z1.742 A1634.164
 X189.777 Y10.048 Z1.969 A1631.831
 X189.775 Y9.526 Z2.174 A1629.492
 X189.772 Y8.994 Z2.359 A1627.148
 X189.77 Y8.455 Z2.522 A1624.803
 X189.767 Y7.91 Z2.662 A1622.458
 X189.765 Y7.36 Z2.78 A1620.115
 X189.763 Y6.806 Z2.875 A1617.775
 X189.76 Y6.251 Z2.948 A1615.442
 X189.758 Y5.695 Z2.997 A1613.116
 X189.755 Y5.139 Z3.024 A1610.8
 X189.753 Y4.586 Z3.029 A1608.495
 X189.75 Y4.036 Z3.011 A1606.204
 X189.749 Y3.852 Z2.582 A1608.847
 X189.747 Y3.645 Z2.154 A1611.537
 X189.745 Y3.416 Z1.735 A1614.238
 X189.743 Y3.174 Z1.335 A1616.886
 X189.741 Y2.908 Z0.939 A1619.583
 X189.739 Y2.596 Z0.522 A1622.53
 X189.737 Y2.299 Z0.162 A1625.174
 X189.735 Y2.016 Z-0.151 A1627.559
 X189.733 Y1.718 Z-0.455 A1629.967
 X189.732 Y1.405 Z-0.749 A1632.4
 X189.73 Y1.061 Z-1.044 A1634.961
 X189.728 Y0.694 Z-1.332 A1637.601
 X189.726 Y0.311 Z-1.603 A1640.257
 X189.724 Y-0.079 Z-1.854 A1642.879
 X189.722 Y-0.481 Z-2.088 A1645.511
 X189.721 Y-0.894 Z-2.302 A1648.145
 X189.719 Y-1.314 Z-2.497 A1650.764
 X189.717 Y-1.599 Z-2.616 A1652.513
 X189.715 Y-2.069 Z-2.791 A1655.346
 Y-2.433 Z-2.908 A1657.512
 X189.712 Y-2.801 Z-3.012 A1659.677
 X189.711 Y-3.173 Z-3.102 A1661.839
 X189.709 Y-3.662 Z-3.197 A1664.658
 X189.707 Y-4.117 Z-3.264 A1667.259
 X189.705 Y-4.572 Z-3.31 A1669.85
 X189.703 Y-5.032 Z-3.335 A1672.454
 X189.701 Y-5.489 Z-3.34 A1675.042
 X189.699 Y-5.945 Z-3.324 A1677.625
 X189.698 Y-6.402 Z-3.287 A1680.219
 X189.696 Y-6.852 Z-3.23 A1682.786
 X189.694 Y-7.355 Z-3.143 A1685.675
 X189.692 Y-7.704 Z-3.066 A1687.693
 X189.69 Y-8.214 Z-2.931 A1690.679
 X189.688 Y-8.672 Z-2.784 A1693.401
 X189.686 Y-9.097 Z-2.627 A1695.964
 X189.685 Y-9.508 Z-2.453 A1698.491
 X189.683 Y-9.921 Z-2.256 A1701.078
 X189.681 Y-10.318 Z-2.045 A1703.621
 X189.68 Y-10.573 Z-1.897 A1705.291
 X189.678 Y-11.019 Z-1.613 A1708.281
 X189.676 Y-11.349 Z-1.381 A1710.569
 X189.674 Y-11.675 Z-1.131 A1712.89
 Y-11.996 Z-0.865 A1715.251
 X189.671 Y-12.31 Z-0.581 A1717.642
 X189.669 Y-12.641 Z-0.254 A1720.276
 X189.667 Y-12.961 Z0.092 A1722.943
 X189.665 Y-13.264 Z0.454 A1725.617
 X189.663 Y-13.547 Z0.824 A1728.253
 X189.661 Y-13.816 Z1.212 A1730.92
 Y-14.064 Z1.607 A1733.56
 X189.658 Y-14.293 Z2.013 A1736.2
 X189.656 Y-14.505 Z2.432 A1738.856
 X189.654 Y-14.707 Z2.887 A1741.671
 X189.652 Y-14.888 Z3.353 A1744.499
 X189.65 Y-15.043 Z3.816 A1747.263
 X189.648 Y-15.168 Z4.261 A1749.881
 X189.646 Y-15.274 Z4.713 A1752.504
 X189.644 Y-15.358 Z5.168 A1755.121
 X189.642 Y-15.421 Z5.625 A1757.732
 X189.64 Y-15.464 Z6.084 A1760.34
 Y-15.485 Z6.544 A1762.948
 X189.637 Y-15.486 Z7.004 A1765.549
 X189.635 Y-15.463 Z7.505 A1768.389
 X189.633 Y-15.427 Z7.896 A1770.607
 X189.631 Y-15.377 Z8.282 A1772.813
 Y-15.313 Z8.664 A1775.005
 X189.628 Y-15.208 Z9.153 A1777.832
 X189.626 Y-15.091 Z9.594 A1780.415
 X189.624 Y-14.956 Z10.026 A1782.973
 X189.622 Y-14.8 Z10.457 A1785.568
 Y-14.626 Z10.876 A1788.134
 X189.619 Y-14.435 Z11.284 A1790.687
 X189.617 Y-14.224 Z11.686 A1793.256
 X189.615 Y-13.999 Z12.072 A1795.78
 X189.613 Y-13.762 Z12.442 A1798.267
 X189.612 Y-13.514 Z12.794 A1800.706
 X189.61 Y-13.255 Z13.13 A1803.106
 X189.607 Y-14.195 Z12.391 A1800.814
 X189.605 Y-15.3 Z11.439 A1798.017
 Y-15.49 Z11.266 A1797.525
 X189.601 Y-16.428 Z10.364 A1795.03
 X189.599 Y-17.268 Z9.486 A1792.701
 X189.597 Y-18.074 Z8.572 A1790.364
 X189.594 Y-18.843 Z7.623 A1788.023
 X189.592 Y-19.574 Z6.643 A1785.679
 X189.589 Y-20.264 Z5.633 A1783.334
 X189.587 Y-20.912 Z4.596 A1780.989
 X189.584 Y-21.517 Z3.535 A1778.648
 X189.582 Y-22.077 Z2.452 A1776.312
 X189.58 Y-22.59 Z1.351 A1773.982
 X189.577 Y-23.057 Z0.234 A1771.661
 X189.575 Y-23.476 Z-0.896 A1769.351
 X189.572 Y-23.848 Z-2.036 A1767.053
 X189.571 Y-24.016 Z-2.609 A1765.907
 X189.568 Y-24.58 Z-1.72 A1768.797
 X189.566 Y-25.113 Z-0.777 A1771.766
 X189.563 Y-25.534 Z0.059 A1774.332
 X189.561 Y-25.924 Z0.932 A1776.953
 X189.558 Y-26.269 Z1.806 A1779.528
 X189.556 Y-26.579 Z2.711 A1782.152
 X189.553 Y-26.844 Z3.616 A1784.736
 X189.551 Y-27.071 Z4.547 A1787.363
 X189.549 Y-27.253 Z5.475 A1789.956
 X189.546 Y-27.394 Z6.424 A1792.586
 X189.544 Y-27.491 Z7.368 A1795.188
 X189.541 Y-27.546 Z8.327 A1797.821
 X189.539 Y-27.556 Z9.254 A1800.365
 X189.536 Y-27.525 Z10.191 A1802.933
 X189.534 Y-27.452 Z11.133 A1805.525
 X189.531 Y-27.334 Z12.078 A1808.137
 X189.529 Y-27.173 Z13.023 A1810.763
 X189.526 Y-26.967 Z13.964 A1813.405
 X189.524 Y-26.719 Z14.893 A1816.04
 X189.522 Y-26.427 Z15.812 A1818.685
 X189.519 Y-26.093 Z16.717 A1821.329
 X189.517 Y-25.718 Z17.606 A1823.976
 X189.514 Y-25.3 Z18.479 A1826.628
 X189.512 Y-24.844 Z19.331 A1829.279
 X189.509 Y-24.346 Z20.164 A1831.939
 X189.507 Y-23.812 Z20.971 A1834.593
 X189.505 Y-23.373 Z21.577 A1836.644
 X189.503 Y-22.915 Z22.165 A1838.688
 X189.501 Y-22.438 Z22.735 A1840.723
 X189.499 Y-21.944 Z23.284 A1842.748
 X189.496 Y-21.26 Z23.984 A1845.431
 X189.494 Y-20.55 Z24.645 A1848.092
 X189.491 Y-19.802 Z25.281 A1850.784
 X189.489 Y-19.032 Z25.874 A1853.448
 X189.486 Y-18.225 Z26.439 A1856.15
 X189.484 Y-17.402 Z26.958 A1858.817
 X189.481 Y-16.542 Z27.446 A1861.528
 X189.479 Y-15.674 Z27.887 A1864.198
 X189.476 Y-14.768 Z28.294 A1866.92
 X189.474 Y-13.861 Z28.651 A1869.594
 X189.472 Y-13.052 Z28.929 A1871.939
 X189.469 Y-12.247 Z29.17 A1874.243
 X189.467 Y-11.447 Z29.375 A1876.507
 X189.465 Y-10.655 Z29.546 A1878.728
 X189.463 Y-9.665 Z29.714 A1881.48
 X189.46 Y-8.694 Z29.832 A1884.163
 X189.458 Y-7.764 Z29.902 A1886.719
 X189.455 Y-6.81 Z29.931 A1889.336
 X189.453 Y-5.875 Z29.917 A1891.899
 X189.45 Y-4.921 Z29.859 A1894.52
 X189.448 Y-3.988 Z29.76 A1897.092
 X189.445 Y-3.042 Z29.616 A1899.716
 X189.443 Y-2.276 Z29.467 A1901.856
 X189.441 Y-1.505 Z29.286 A1904.027
 X189.439 Y-0.73 Z29.073 A1906.229
 X189.437 Y0.045 Z28.827 A1908.46
 X189.435 Y0.935 Z28.503 A1911.056
 X189.432 Y1.821 Z28.134 A1913.688
 X189.43 Y2.681 Z27.729 A1916.293
 X189.427 Y3.531 Z27.28 A1918.928
 X189.425 Y4.352 Z26.796 A1921.542
 X189.422 Y5.158 Z26.271 A1924.18
 X189.42 Y5.934 Z25.712 A1926.802
 X189.418 Y6.69 Z25.115 A1929.443
 X189.415 Y7.414 Z24.485 A1932.073
 X189.413 Y8.111 Z23.82 A1934.717
 X189.41 Y8.748 Z23.155 A1937.239
 X189.408 Y9.356 Z22.462 A1939.768
 X189.405 Y9.934 Z21.741 A1942.301
 X189.403 Y10.48 Z20.995 A1944.836
 X189.401 Y11.016 Z20.188 A1947.491
 X189.398 Y11.513 Z19.358 A1950.143
 X189.396 Y11.973 Z18.503 A1952.807
 X189.393 Y12.392 Z17.63 A1955.461
 X189.391 Y12.772 Z16.732 A1958.134
 X189.388 Y13.108 Z15.823 A1960.792
 X189.386 Y13.404 Z14.891 A1963.473
 X189.383 Y13.655 Z13.953 A1966.134
 X189.381 Y13.863 Z12.994 A1968.825
 X189.378 Y14.025 Z12.036 A1971.488
 X189.376 Y14.141 Z11.09 A1974.102
 X189.373 Y14.213 Z10.151 A1976.684
 X189.371 Y14.242 Z9.222 A1979.232
 X189.368 Y14.23 Z8.305 A1981.746
 X189.366 Y14.172 Z7.315 A1984.465
 X189.363 Y14.069 Z6.345 A1987.138
 X189.361 Y13.918 Z5.361 A1989.868
 X189.358 Y13.724 Z4.404 A1992.544
 X189.356 Y13.479 Z3.435 A1995.286
 X189.353 Y13.196 Z2.5 A1997.966
 X189.351 Y12.859 Z1.554 A2000.719
 X189.348 Y12.487 Z0.648 A2003.402
 X189.346 Y12.026 Z0.948 A2001.111
 X189.343 Y11.551 Z1.231 A1998.806
 X189.341 Y11.062 Z1.496 A1996.49
 X189.338 Y10.561 Z1.742 A1994.165
 X189.336 Y10.048 Z1.969 A1991.831
 X189.334 Y9.526 Z2.174 A1989.492
 X189.331 Y8.994 Z2.359 A1987.148
 X189.329 Y8.455 Z2.522 A1984.803
 X189.326 Y7.91 Z2.662 A1982.458
 X189.324 Y7.36 Z2.78 A1980.115
 X189.321 Y6.806 Z2.875 A1977.775
 X189.319 Y6.251 Z2.948 A1975.442
 X189.316 Y5.695 Z2.997 A1973.116
 X189.314 Y5.139 Z3.024 A1970.8
 X189.312 Y4.586 Z3.029 A1968.495
 X189.309 Y4.036 Z3.011 A1966.204
 X189.307 Y3.852 Z2.582 A1968.847
 X189.305 Y3.645 Z2.154 A1971.537
 Y3.416 Z1.735 A1974.238
 X189.302 Y3.174 Z1.335 A1976.886
 X189.3 Y2.908 Z0.939 A1979.583
 X189.298 Y2.596 Z0.522 A1982.53
 X189.296 Y2.299 Z0.162 A1985.174
 X189.294 Y2.016 Z-0.151 A1987.56
 X189.292 Y1.718 Z-0.455 A1989.967
 X189.291 Y1.405 Z-0.749 A1992.4
 X189.289 Y1.061 Z-1.044 A1994.961
 X189.287 Y0.694 Z-1.332 A1997.601
 X189.285 Y0.311 Z-1.603 A2000.257
 X189.283 Y-0.079 Z-1.854 A2002.878
 X189.281 Y-0.481 Z-2.088 A2005.511
 X189.279 Y-0.894 Z-2.302 A2008.145
 X189.277 Y-1.314 Z-2.497 A2010.764
 Y-1.599 Z-2.616 A2012.513
 X189.274 Y-2.069 Z-2.791 A2015.346
 X189.273 Y-2.433 Z-2.908 A2017.512
 X189.271 Y-2.801 Z-3.012 A2019.677
 Y-3.173 Z-3.102 A2021.839
 X189.268 Y-3.662 Z-3.197 A2024.658
 X189.266 Y-4.117 Z-3.264 A2027.259
 X189.264 Y-4.572 Z-3.31 A2029.85
 X189.262 Y-5.032 Z-3.335 A2032.454
 X189.26 Y-5.489 Z-3.34 A2035.042
 X189.258 Y-5.945 Z-3.324 A2037.625
 X189.256 Y-6.402 Z-3.287 A2040.219
 Y-6.852 Z-3.23 A2042.785
 X189.253 Y-7.355 Z-3.143 A2045.675
 X189.251 Y-7.704 Z-3.066 A2047.693
 X189.249 Y-8.214 Z-2.931 A2050.679
 X189.247 Y-8.672 Z-2.784 A2053.4
 X189.245 Y-9.097 Z-2.627 A2055.964
 X189.243 Y-9.508 Z-2.453 A2058.491
 Y-9.921 Z-2.256 A2061.078
 X189.24 Y-10.318 Z-2.045 A2063.621
 X189.239 Y-10.573 Z-1.897 A2065.291
 X189.236 Y-11.019 Z-1.613 A2068.281
 Y-11.349 Z-1.381 A2070.569
 X189.233 Y-11.675 Z-1.131 A2072.89
 X189.231 Y-11.996 Z-0.865 A2075.251
 X189.23 Y-12.31 Z-0.581 A2077.642
 X189.228 Y-12.641 Z-0.254 A2080.276
 X189.226 Y-12.961 Z0.092 A2082.943
 X189.224 Y-13.264 Z0.454 A2085.617
 X189.222 Y-13.547 Z0.824 A2088.253
 X189.22 Y-13.816 Z1.212 A2090.92
 X189.218 Y-14.064 Z1.607 A2093.56
 X189.216 Y-14.293 Z2.013 A2096.2
 X189.215 Y-14.505 Z2.432 A2098.856
 X189.213 Y-14.707 Z2.887 A2101.671
 X189.211 Y-14.888 Z3.353 A2104.499
 X189.209 Y-15.043 Z3.816 A2107.263
 X189.207 Y-15.168 Z4.261 A2109.881
 X189.205 Y-15.274 Z4.713 A2112.504
 X189.203 Y-15.358 Z5.168 A2115.121
 X189.201 Y-15.421 Z5.625 A2117.732
 X189.199 Y-15.464 Z6.084 A2120.34
 X189.197 Y-15.485 Z6.544 A2122.948
 X189.195 Y-15.486 Z7.004 A2125.549
 X189.193 Y-15.463 Z7.505 A2128.389
 Y-15.427 Z7.896 A2130.607
 X189.19 Y-15.377 Z8.282 A2132.813
 X189.189 Y-15.313 Z8.664 A2135.005
 X189.187 Y-15.208 Z9.153 A2137.832
 X189.185 Y-15.091 Z9.594 A2140.415
 X189.183 Y-14.956 Z10.026 A2142.973
 X189.181 Y-14.8 Z10.457 A2145.568
 X189.179 Y-14.626 Z10.876 A2148.134
 X189.178 Y-14.435 Z11.284 A2150.687
 X189.176 Y-14.224 Z11.686 A2153.256
 X189.174 Y-13.999 Z12.072 A2155.78
 X189.172 Y-13.762 Z12.442 A2158.267
 X189.17 Y-13.514 Z12.794 A2160.706
 Y-13.255 Z13.13 A2163.105
 X189.166 Y-14.195 Z12.391 A2160.814
 X189.163 Y-15.3 Z11.44 A2158.018
 Y-15.489 Z11.267 A2157.527
 X189.16 Y-16.428 Z10.364 A2155.03
 X189.158 Y-17.268 Z9.486 A2152.701
 X189.155 Y-18.074 Z8.572 A2150.364
 X189.153 Y-18.843 Z7.623 A2148.023
 X189.151 Y-19.574 Z6.643 A2145.679
 X189.148 Y-20.264 Z5.633 A2143.333
 X189.146 Y-20.912 Z4.596 A2140.989
 X189.143 Y-21.517 Z3.535 A2138.648
 X189.141 Y-22.077 Z2.452 A2136.312
 X189.138 Y-22.59 Z1.351 A2133.982
 X189.136 Y-23.057 Z0.234 A2131.661
 X189.133 Y-23.476 Z-0.896 A2129.351
 X189.131 Y-23.848 Z-2.036 A2127.053
 Y-24.016 Z-2.609 A2125.907
 X189.127 Y-24.58 Z-1.72 A2128.796
 X189.124 Y-25.113 Z-0.777 A2131.767
 X189.122 Y-25.534 Z0.059 A2134.332
 X189.12 Y-25.924 Z0.932 A2136.953
 X189.117 Y-26.269 Z1.806 A2139.528
 X189.115 Y-26.579 Z2.711 A2142.152
 X189.112 Y-26.844 Z3.616 A2144.736
 X189.11 Y-27.071 Z4.547 A2147.363
 X189.107 Y-27.253 Z5.475 A2149.956
 X189.105 Y-27.394 Z6.424 A2152.586
 X189.102 Y-27.491 Z7.368 A2155.188
 X189.1 Y-27.546 Z8.327 A2157.821
 X189.098 Y-27.556 Z9.254 A2160.365
 X189.095 Y-27.525 Z10.191 A2162.933
 X189.093 Y-27.452 Z11.133 A2165.525
 X189.09 Y-27.334 Z12.078 A2168.137
 X189.088 Y-27.173 Z13.023 A2170.763
 X189.085 Y-26.967 Z13.964 A2173.405
 X189.083 Y-26.719 Z14.893 A2176.04
 X189.08 Y-26.427 Z15.812 A2178.685
 X189.078 Y-26.093 Z16.717 A2181.329
 X189.075 Y-25.718 Z17.606 A2183.976
 X189.073 Y-25.3 Z18.479 A2186.628
 X189.07 Y-24.844 Z19.331 A2189.279
 X189.068 Y-24.346 Z20.164 A2191.939
 X189.065 Y-23.812 Z20.971 A2194.593
 X189.063 Y-23.373 Z21.577 A2196.644
 X189.062 Y-22.915 Z22.165 A2198.688
 X189.06 Y-22.438 Z22.735 A2200.723
 X189.058 Y-21.944 Z23.284 A2202.749
 X189.055 Y-21.26 Z23.984 A2205.431
 X189.053 Y-20.55 Z24.645 A2208.092
 X189.05 Y-19.802 Z25.281 A2210.784
 X189.048 Y-19.032 Z25.874 A2213.448
 X189.045 Y-18.225 Z26.439 A2216.15
 X189.043 Y-17.402 Z26.958 A2218.817
 X189.04 Y-16.542 Z27.446 A2221.528
 X189.038 Y-15.674 Z27.887 A2224.198
 X189.035 Y-14.768 Z28.294 A2226.92
 X189.033 Y-13.861 Z28.651 A2229.594
 X189.03 Y-13.052 Z28.929 A2231.939
 X189.028 Y-12.247 Z29.17 A2234.243
 X189.026 Y-11.447 Z29.375 A2236.507
 X189.024 Y-10.655 Z29.546 A2238.728
 X189.021 Y-9.665 Z29.714 A2241.48
 X189.019 Y-8.694 Z29.832 A2244.163
 X189.016 Y-7.764 Z29.902 A2246.719
 X189.014 Y-6.81 Z29.931 A2249.336
 X189.012 Y-5.875 Z29.917 A2251.899
 X189.009 Y-4.921 Z29.859 A2254.52
 X189.007 Y-3.988 Z29.76 A2257.092
 X189.004 Y-3.042 Z29.616 A2259.716
 X189.002 Y-2.276 Z29.467 A2261.856
 X189. Y-1.505 Z29.286 A2264.027
 X188.998 Y-0.73 Z29.073 A2266.229
 X188.996 Y0.045 Z28.827 A2268.46
 X188.994 Y0.935 Z28.503 A2271.056
 X188.991 Y1.821 Z28.134 A2273.688
 X188.989 Y2.681 Z27.729 A2276.293
 X188.986 Y3.531 Z27.28 A2278.928
 X188.984 Y4.352 Z26.796 A2281.542
 X188.981 Y5.158 Z26.271 A2284.18
 X188.979 Y5.934 Z25.712 A2286.802
 X188.976 Y6.69 Z25.115 A2289.443
 X188.974 Y7.414 Z24.485 A2292.073
 X188.971 Y8.111 Z23.82 A2294.717
 X188.969 Y8.748 Z23.155 A2297.239
 X188.967 Y9.356 Z22.462 A2299.768
 X188.964 Y9.934 Z21.741 A2302.301
 X188.962 Y10.48 Z20.995 A2304.836
 X188.959 Y11.016 Z20.188 A2307.491
 X188.957 Y11.513 Z19.358 A2310.143
 X188.954 Y11.973 Z18.503 A2312.807
 X188.952 Y12.392 Z17.63 A2315.461
 X188.949 Y12.772 Z16.732 A2318.134
 X188.947 Y13.108 Z15.823 A2320.792
 X188.944 Y13.404 Z14.891 A2323.473
 X188.942 Y13.655 Z13.953 A2326.134
 X188.939 Y13.863 Z12.994 A2328.825
 X188.937 Y14.025 Z12.036 A2331.488
 X188.934 Y14.141 Z11.09 A2334.102
 X188.932 Y14.213 Z10.151 A2336.684
 X188.93 Y14.242 Z9.222 A2339.232
 X188.927 Y14.23 Z8.305 A2341.746
 X188.925 Y14.172 Z7.315 A2344.465
 X188.922 Y14.069 Z6.345 A2347.138
 X188.92 Y13.918 Z5.361 A2349.868
 X188.917 Y13.724 Z4.404 A2352.544
 X188.914 Y13.479 Z3.435 A2355.286
 X188.912 Y13.196 Z2.5 A2357.966
 X188.909 Y12.859 Z1.554 A2360.719
 X188.907 Y12.487 Z0.648 A2363.402
 X188.904 Y12.026 Z0.948 A2361.111
 X188.902 Y11.551 Z1.231 A2358.806
 X188.9 Y11.062 Z1.496 A2356.49
 X188.897 Y10.561 Z1.742 A2354.165
 X188.895 Y10.048 Z1.969 A2351.831
 X188.892 Y9.526 Z2.174 A2349.492
 X188.89 Y8.994 Z2.359 A2347.148
 X188.887 Y8.455 Z2.522 A2344.803
 X188.885 Y7.91 Z2.662 A2342.458
 X188.883 Y7.36 Z2.78 A2340.115
 X188.88 Y6.806 Z2.875 A2337.775
 X188.878 Y6.251 Z2.948 A2335.442
 X188.875 Y5.695 Z2.997 A2333.116
 X188.873 Y5.139 Z3.024 A2330.8
 X188.87 Y4.586 Z3.029 A2328.495
 X188.868 Y4.036 Z3.011 A2326.204
 X188.866 Y3.852 Z2.582 A2328.847
 X188.864 Y3.645 Z2.154 A2331.537
 X188.862 Y3.416 Z1.735 A2334.238
 X188.86 Y3.174 Z1.335 A2336.886
 X188.859 Y2.908 Z0.939 A2339.583
 X188.856 Y2.596 Z0.522 A2342.53
 X188.855 Y2.299 Z0.162 A2345.174
 X188.853 Y2.016 Z-0.151 A2347.56
 X188.851 Y1.718 Z-0.455 A2349.967
 X188.849 Y1.405 Z-0.749 A2352.4
 Y1.061 Z-1.044 A2354.961
 X188.846 Y0.694 Z-1.332 A2357.601
 X188.844 Y0.311 Z-1.603 A2360.257
 X188.842 Y-0.079 Z-1.854 A2362.878
 X188.84 Y-0.481 Z-2.088 A2365.511
 X188.838 Y-0.894 Z-2.302 A2368.145
 X188.836 Y-1.314 Z-2.497 A2370.764
 Y-1.599 Z-2.616 A2372.513
 X188.833 Y-2.069 Z-2.791 A2375.346
 X188.831 Y-2.433 Z-2.908 A2377.512
 Y-2.801 Z-3.012 A2379.677
 X188.828 Y-3.173 Z-3.102 A2381.839
 X188.826 Y-3.662 Z-3.197 A2384.658
 X188.824 Y-4.117 Z-3.264 A2387.259
 X188.823 Y-4.572 Z-3.31 A2389.85
 X188.821 Y-5.032 Z-3.335 A2392.454
 X188.819 Y-5.489 Z-3.34 A2395.042
 X188.817 Y-5.945 Z-3.324 A2397.625
 X188.815 Y-6.402 Z-3.287 A2400.219
 X188.813 Y-6.852 Z-3.23 A2402.785
 X188.811 Y-7.355 Z-3.143 A2405.675
 X188.81 Y-7.704 Z-3.066 A2407.693
 X188.808 Y-8.214 Z-2.931 A2410.679
 X188.806 Y-8.672 Z-2.784 A2413.4
 X188.804 Y-9.097 Z-2.627 A2415.964
 X188.802 Y-9.508 Z-2.453 A2418.491
 X188.8 Y-9.921 Z-2.256 A2421.078
 X188.799 Y-10.318 Z-2.045 A2423.621
 X188.797 Y-10.573 Z-1.897 A2425.291
 X188.795 Y-11.019 Z-1.613 A2428.281
 Y-11.349 Z-1.381 A2430.569
 X188.792 Y-11.675 Z-1.131 A2432.89
 X188.79 Y-11.996 Z-0.865 A2435.251
 Y-12.31 Z-0.581 A2437.642
 X188.787 Y-12.641 Z-0.254 A2440.276
 X188.785 Y-12.961 Z0.092 A2442.943
 X188.783 Y-13.264 Z0.454 A2445.617
 X188.781 Y-13.547 Z0.824 A2448.253
 X188.779 Y-13.816 Z1.212 A2450.92
 X188.777 Y-14.064 Z1.607 A2453.56
 X188.775 Y-14.293 Z2.013 A2456.2
 X188.773 Y-14.505 Z2.432 A2458.856
 X188.771 Y-14.707 Z2.887 A2461.671
 X188.769 Y-14.888 Z3.353 A2464.499
 X188.767 Y-15.043 Z3.816 A2467.263
 X188.765 Y-15.168 Z4.261 A2469.881
 Y-15.274 Z4.713 A2472.504
 X188.762 Y-15.358 Z5.168 A2475.121
 X188.76 Y-15.421 Z5.625 A2477.732
 X188.758 Y-15.464 Z6.084 A2480.34
 X188.756 Y-15.485 Z6.544 A2482.948
 X188.754 Y-15.486 Z7.004 A2485.549
 X188.752 Y-15.463 Z7.505 A2488.389
 Y-15.427 Z7.896 A2490.607
 X188.749 Y-15.377 Z8.282 A2492.813
 Y-15.313 Z8.664 A2495.005
 X188.746 Y-15.208 Z9.153 A2497.832
 X188.744 Y-15.091 Z9.594 A2500.415
 X188.742 Y-14.956 Z10.026 A2502.973
 X188.74 Y-14.8 Z10.457 A2505.568
 X188.738 Y-14.626 Z10.876 A2508.134
 X188.736 Y-14.435 Z11.284 A2510.687
 Y-14.224 Z11.686 A2513.256
 X188.733 Y-13.999 Z12.072 A2515.78
 X188.731 Y-13.762 Z12.442 A2518.267
 X188.729 Y-13.514 Z12.794 A2520.706
 X188.727 Y-13.255 Z13.13 A2523.105
 X188.725 Y-14.195 Z12.391 A2520.814
 X188.722 Y-15.3 Z11.44 A2518.019
 Y-15.489 Z11.267 A2517.528
 X188.719 Y-16.428 Z10.364 A2515.03
 X188.717 Y-17.268 Z9.486 A2512.701
 X188.714 Y-18.074 Z8.572 A2510.364
 X188.712 Y-18.843 Z7.623 A2508.023
 X188.709 Y-19.574 Z6.643 A2505.679
 X188.707 Y-20.264 Z5.633 A2503.333
 X188.704 Y-20.912 Z4.596 A2500.989
 X188.702 Y-21.517 Z3.535 A2498.648
 X188.7 Y-22.077 Z2.452 A2496.312
 X188.697 Y-22.59 Z1.351 A2493.982
 X188.695 Y-23.057 Z0.234 A2491.661
 X188.692 Y-23.476 Z-0.896 A2489.351
 X188.69 Y-23.848 Z-2.036 A2487.053
 X188.689 Y-24.016 Z-2.609 A2485.907
 X188.686 Y-24.58 Z-1.72 A2488.796
 X188.683 Y-25.113 Z-0.777 A2491.767
 X188.681 Y-25.534 Z0.059 A2494.332
 X188.678 Y-25.924 Z0.932 A2496.953
 X188.676 Y-26.269 Z1.806 A2499.528
 X188.673 Y-26.579 Z2.711 A2502.152
 X188.671 Y-26.844 Z3.616 A2504.736
 X188.669 Y-27.071 Z4.547 A2507.363
 X188.666 Y-27.253 Z5.475 A2509.956
 X188.664 Y-27.394 Z6.424 A2512.586
 X188.661 Y-27.491 Z7.368 A2515.188
 X188.659 Y-27.546 Z8.327 A2517.821
 X188.656 Y-27.556 Z9.254 A2520.365
 X188.654 Y-27.525 Z10.191 A2522.933
 X188.652 Y-27.452 Z11.133 A2525.525
 X188.649 Y-27.334 Z12.078 A2528.137
 X188.647 Y-27.173 Z13.023 A2530.763
 X188.644 Y-26.967 Z13.964 A2533.405
 X188.642 Y-26.719 Z14.893 A2536.04
 X188.639 Y-26.427 Z15.812 A2538.685
 X188.637 Y-26.093 Z16.717 A2541.329
 X188.634 Y-25.718 Z17.606 A2543.976
 X188.632 Y-25.3 Z18.479 A2546.628
 X188.629 Y-24.844 Z19.331 A2549.279
 X188.627 Y-24.346 Z20.164 A2551.939
 X188.624 Y-23.812 Z20.971 A2554.593
 X188.622 Y-23.373 Z21.577 A2556.644
 X188.62 Y-22.915 Z22.165 A2558.688
 X188.618 Y-22.438 Z22.735 A2560.723
 Y-21.944 Z23.284 A2562.749
 X188.614 Y-21.26 Z23.984 A2565.431
 X188.612 Y-20.55 Z24.645 A2568.092
 X188.609 Y-19.802 Z25.281 A2570.784
 X188.607 Y-19.032 Z25.874 A2573.448
 X188.604 Y-18.225 Z26.439 A2576.15
 X188.601 Y-17.402 Z26.958 A2578.817
 X188.599 Y-16.542 Z27.446 A2581.528
 X188.596 Y-15.674 Z27.887 A2584.198
 X188.594 Y-14.768 Z28.294 A2586.92
 X188.591 Y-13.861 Z28.651 A2589.594
 X188.589 Y-13.052 Z28.929 A2591.939
 X188.587 Y-12.247 Z29.17 A2594.243
 X188.585 Y-11.447 Z29.375 A2596.507
 X188.583 Y-10.655 Z29.546 A2598.728
 X188.58 Y-9.665 Z29.714 A2601.48
 X188.578 Y-8.694 Z29.832 A2604.163
 X188.575 Y-7.764 Z29.902 A2606.719
 X188.573 Y-6.81 Z29.931 A2609.336
 X188.57 Y-5.875 Z29.917 A2611.899
 X188.568 Y-4.921 Z29.859 A2614.52
 X188.566 Y-3.988 Z29.76 A2617.092
 X188.563 Y-3.042 Z29.616 A2619.716
 X188.561 Y-2.276 Z29.467 A2621.856
 X188.559 Y-1.505 Z29.286 A2624.027
 X188.557 Y-0.73 Z29.073 A2626.229
 X188.555 Y0.045 Z28.827 A2628.46
 X188.552 Y0.935 Z28.503 A2631.056
 X188.55 Y1.821 Z28.134 A2633.688
 X188.547 Y2.681 Z27.729 A2636.293
 X188.545 Y3.531 Z27.28 A2638.928
 X188.543 Y4.352 Z26.796 A2641.542
 X188.54 Y5.158 Z26.271 A2644.18
 X188.538 Y5.934 Z25.712 A2646.802
 X188.535 Y6.69 Z25.115 A2649.443
 X188.533 Y7.414 Z24.485 A2652.073
 X188.53 Y8.111 Z23.82 A2654.717
 X188.528 Y8.748 Z23.155 A2657.239
 X188.525 Y9.356 Z22.462 A2659.768
 X188.523 Y9.934 Z21.741 A2662.301
 X188.521 Y10.48 Z20.995 A2664.836
 X188.518 Y11.016 Z20.188 A2667.491
 X188.516 Y11.513 Z19.358 A2670.143
 X188.513 Y11.973 Z18.503 A2672.807
 X188.511 Y12.392 Z17.63 A2675.461
 X188.508 Y12.772 Z16.732 A2678.134
 X188.506 Y13.108 Z15.823 A2680.792
 X188.503 Y13.404 Z14.891 A2683.473
 X188.501 Y13.655 Z13.953 A2686.134
 X188.498 Y13.863 Z12.994 A2688.825
 X188.496 Y14.025 Z12.036 A2691.488
 X188.493 Y14.141 Z11.09 A2694.102
 X188.491 Y14.213 Z10.151 A2696.684
 X188.488 Y14.242 Z9.222 A2699.232
 X188.486 Y14.23 Z8.305 A2701.746
 X188.483 Y14.172 Z7.315 A2704.465
 X188.481 Y14.069 Z6.345 A2707.138
 X188.478 Y13.918 Z5.361 A2709.868
 X188.476 Y13.724 Z4.404 A2712.544
 X188.473 Y13.479 Z3.435 A2715.286
 X188.471 Y13.196 Z2.5 A2717.966
 X188.468 Y12.859 Z1.554 A2720.719
 X188.466 Y12.487 Z0.648 A2723.402
 X188.463 Y12.026 Z0.948 A2721.111
 X188.461 Y11.551 Z1.231 A2718.806
 X188.458 Y11.062 Z1.496 A2716.49
 X188.456 Y10.561 Z1.742 A2714.165
 X188.454 Y10.048 Z1.969 A2711.831
 X188.451 Y9.526 Z2.174 A2709.492
 X188.449 Y8.994 Z2.359 A2707.148
 X188.446 Y8.455 Z2.522 A2704.803
 X188.444 Y7.91 Z2.662 A2702.458
 X188.441 Y7.36 Z2.78 A2700.115
 X188.439 Y6.806 Z2.875 A2697.775
 X188.437 Y6.251 Z2.948 A2695.442
 X188.434 Y5.695 Z2.997 A2693.116
 X188.432 Y5.139 Z3.024 A2690.8
 X188.429 Y4.586 Z3.029 A2688.495
 X188.427 Y4.036 Z3.011 A2686.204
 X188.425 Y3.852 Z2.582 A2688.847
 X188.423 Y3.645 Z2.154 A2691.537
 X188.421 Y3.416 Z1.735 A2694.238
 X188.419 Y3.174 Z1.335 A2696.886
 X188.417 Y2.908 Z0.939 A2699.583
 X188.415 Y2.596 Z0.522 A2702.53
 X188.413 Y2.299 Z0.162 A2705.174
 Y2.016 Z-0.151 A2707.56
 X188.41 Y1.718 Z-0.455 A2709.967
 X188.408 Y1.405 Z-0.749 A2712.4
 X188.406 Y1.061 Z-1.044 A2714.961
 X188.404 Y0.694 Z-1.332 A2717.601
 X188.403 Y0.311 Z-1.603 A2720.257
 X188.401 Y-0.079 Z-1.854 A2722.878
 X188.399 Y-0.481 Z-2.088 A2725.511
 X188.397 Y-0.894 Z-2.302 A2728.145
 X188.395 Y-1.314 Z-2.497 A2730.764
 X188.394 Y-1.599 Z-2.616 A2732.513
 X188.392 Y-2.069 Z-2.791 A2735.346
 X188.39 Y-2.433 Z-2.908 A2737.512
 Y-2.801 Z-3.012 A2739.677
 X188.387 Y-3.173 Z-3.102 A2741.839
 X188.385 Y-3.662 Z-3.197 A2744.658
 X188.383 Y-4.117 Z-3.264 A2747.259
 X188.381 Y-4.572 Z-3.31 A2749.85
 Y-5.032 Z-3.335 A2752.454
 X188.378 Y-5.489 Z-3.34 A2755.042
 X188.376 Y-5.945 Z-3.324 A2757.625
 X188.374 Y-6.402 Z-3.287 A2760.219
 X188.372 Y-6.852 Z-3.23 A2762.785
 X188.37 Y-7.355 Z-3.143 A2765.675
 Y-7.704 Z-3.066 A2767.693
 X188.367 Y-8.214 Z-2.931 A2770.679
 X188.365 Y-8.672 Z-2.784 A2773.4
 X188.363 Y-9.097 Z-2.627 A2775.964
 X188.361 Y-9.508 Z-2.453 A2778.491
 X188.359 Y-9.921 Z-2.256 A2781.078
 X188.357 Y-10.318 Z-2.045 A2783.621
 Y-10.573 Z-1.897 A2785.291
 X188.354 Y-11.019 Z-1.613 A2788.281
 X188.352 Y-11.349 Z-1.381 A2790.569
 X188.351 Y-11.675 Z-1.131 A2792.89
 X188.349 Y-11.996 Z-0.865 A2795.251
 X188.347 Y-12.31 Z-0.581 A2797.642
 X188.345 Y-12.641 Z-0.254 A2800.276
 X188.344 Y-12.961 Z0.092 A2802.943
 X188.342 Y-13.264 Z0.454 A2805.617
 X188.34 Y-13.547 Z0.824 A2808.253
 X188.338 Y-13.816 Z1.212 A2810.92
 X188.336 Y-14.064 Z1.607 A2813.56
 X188.334 Y-14.293 Z2.013 A2816.2
 X188.332 Y-14.505 Z2.432 A2818.856
 X188.33 Y-14.707 Z2.887 A2821.671
 X188.328 Y-14.888 Z3.353 A2824.499
 X188.326 Y-15.043 Z3.816 A2827.263
 X188.324 Y-15.168 Z4.261 A2829.881
 X188.322 Y-15.274 Z4.713 A2832.504
 X188.321 Y-15.358 Z5.168 A2835.121
 X188.319 Y-15.421 Z5.625 A2837.732
 X188.317 Y-15.464 Z6.084 A2840.34
 X188.315 Y-15.485 Z6.544 A2842.948
 X188.313 Y-15.486 Z7.004 A2845.549
 X188.311 Y-15.463 Z7.505 A2848.389
 X188.31 Y-15.427 Z7.896 A2850.607
 X188.308 Y-15.377 Z8.282 A2852.813
 X188.306 Y-15.313 Z8.664 A2855.005
 X188.304 Y-15.208 Z9.153 A2857.832
 X188.303 Y-15.091 Z9.594 A2860.415
 X188.301 Y-14.956 Z10.026 A2862.973
 X188.299 Y-14.8 Z10.457 A2865.568
 X188.297 Y-14.626 Z10.876 A2868.134
 X188.295 Y-14.435 Z11.284 A2870.687
 X188.293 Y-14.224 Z11.686 A2873.256
 Y-13.999 Z12.072 A2875.78
 X188.29 Y-13.762 Z12.442 A2878.267
 X188.288 Y-13.514 Z12.794 A2880.706
 X188.286 Y-13.255 Z13.13 A2883.105
 X188.284 Y-14.195 Z12.391 A2880.814
 X188.281 Y-15.299 Z11.44 A2878.019
 Y-15.488 Z11.268 A2877.529
 X188.278 Y-16.428 Z10.364 A2875.03
 X188.275 Y-17.268 Z9.486 A2872.701
 X188.273 Y-18.074 Z8.572 A2870.364
 X188.271 Y-18.843 Z7.623 A2868.023
 X188.268 Y-19.574 Z6.643 A2865.679
 X188.266 Y-20.264 Z5.633 A2863.333
 X188.263 Y-20.912 Z4.596 A2860.989
 X188.261 Y-21.517 Z3.535 A2858.648
 X188.258 Y-22.077 Z2.452 A2856.312
 X188.256 Y-22.59 Z1.351 A2853.982
 X188.254 Y-23.057 Z0.234 A2851.661
 X188.251 Y-23.476 Z-0.896 A2849.351
 X188.249 Y-23.848 Z-2.036 A2847.053
 Y-24.016 Z-2.609 A2845.907
 X188.245 Y-24.58 Z-1.72 A2848.796
 X188.242 Y-25.113 Z-0.777 A2851.767
 X188.24 Y-25.534 Z0.059 A2854.332
 X188.237 Y-25.924 Z0.932 A2856.953
 X188.235 Y-26.269 Z1.806 A2859.528
 X188.232 Y-26.579 Z2.711 A2862.152
 X188.23 Y-26.844 Z3.616 A2864.736
 X188.227 Y-27.071 Z4.547 A2867.363
 X188.225 Y-27.253 Z5.475 A2869.956
 X188.222 Y-27.394 Z6.424 A2872.586
 X188.22 Y-27.491 Z7.368 A2875.188
 X188.218 Y-27.546 Z8.327 A2877.821
 X188.215 Y-27.556 Z9.254 A2880.365
 X188.213 Y-27.525 Z10.191 A2882.933
 X188.21 Y-27.452 Z11.133 A2885.525
 X188.208 Y-27.334 Z12.078 A2888.137
 X188.205 Y-27.173 Z13.023 A2890.763
 X188.203 Y-26.967 Z13.964 A2893.405
 X188.2 Y-26.719 Z14.893 A2896.04
 X188.198 Y-26.427 Z15.812 A2898.685
 X188.195 Y-26.093 Z16.717 A2901.329
 X188.193 Y-25.718 Z17.606 A2903.976
 X188.191 Y-25.3 Z18.479 A2906.628
 X188.188 Y-24.844 Z19.331 A2909.279
 X188.186 Y-24.346 Z20.164 A2911.939
 X188.183 Y-23.812 Z20.971 A2914.593
 X188.181 Y-23.373 Z21.577 A2916.644
 X188.179 Y-22.915 Z22.165 A2918.688
 X188.177 Y-22.438 Z22.735 A2920.723
 X188.175 Y-21.944 Z23.284 A2922.749
 X188.173 Y-21.26 Z23.984 A2925.431
 X188.17 Y-20.55 Z24.645 A2928.092
 X188.168 Y-19.802 Z25.281 A2930.784
 X188.165 Y-19.032 Z25.874 A2933.448
 X188.163 Y-18.225 Z26.439 A2936.15
 X188.16 Y-17.402 Z26.958 A2938.817
 X188.158 Y-16.542 Z27.446 A2941.528
 X188.155 Y-15.674 Z27.887 A2944.198
 X188.153 Y-14.768 Z28.294 A2946.92
 X188.15 Y-13.861 Z28.651 A2949.594
 X188.148 Y-13.052 Z28.929 A2951.939
 X188.146 Y-12.247 Z29.17 A2954.243
 X188.144 Y-11.447 Z29.375 A2956.507
 X188.142 Y-10.655 Z29.546 A2958.728
 X188.139 Y-9.665 Z29.714 A2961.48
 X188.136 Y-8.694 Z29.832 A2964.163
 X188.134 Y-7.764 Z29.902 A2966.719
 X188.132 Y-6.81 Z29.931 A2969.336
 X188.129 Y-5.875 Z29.917 A2971.899
 X188.127 Y-4.921 Z29.859 A2974.52
 X188.124 Y-3.988 Z29.76 A2977.092
 X188.122 Y-3.042 Z29.616 A2979.716
 X188.12 Y-2.276 Z29.467 A2981.856
 X188.118 Y-1.505 Z29.286 A2984.027
 X188.116 Y-0.73 Z29.073 A2986.229
 X188.114 Y0.045 Z28.827 A2988.46
 X188.111 Y0.935 Z28.503 A2991.056
 X188.109 Y1.821 Z28.134 A2993.688
 X188.106 Y2.681 Z27.729 A2996.293
 X188.104 Y3.531 Z27.28 A2998.928
 X188.101 Y4.352 Z26.796 A3001.542
 X188.099 Y5.158 Z26.271 A3004.18
 X188.096 Y5.934 Z25.712 A3006.802
 X188.094 Y6.69 Z25.115 A3009.443
 X188.091 Y7.414 Z24.485 A3012.073
 X188.089 Y8.111 Z23.82 A3014.717
 X188.087 Y8.748 Z23.155 A3017.239
 X188.084 Y9.356 Z22.462 A3019.768
 X188.082 Y9.934 Z21.741 A3022.301
 X188.08 Y10.48 Z20.995 A3024.836
 X188.077 Y11.016 Z20.188 A3027.491
 X188.075 Y11.513 Z19.358 A3030.143
 X188.072 Y11.973 Z18.503 A3032.807
 X188.07 Y12.392 Z17.63 A3035.461
 X188.067 Y12.772 Z16.732 A3038.134
 X188.065 Y13.108 Z15.823 A3040.792
 X188.062 Y13.404 Z14.891 A3043.473
 X188.059 Y13.655 Z13.953 A3046.134
 X188.057 Y13.863 Z12.994 A3048.825
 X188.054 Y14.025 Z12.036 A3051.488
 X188.052 Y14.141 Z11.09 A3054.102
 X188.05 Y14.213 Z10.151 A3056.684
 X188.047 Y14.242 Z9.222 A3059.232
 X188.045 Y14.23 Z8.305 A3061.746
 X188.042 Y14.172 Z7.315 A3064.465
 X188.04 Y14.069 Z6.345 A3067.138
 X188.037 Y13.918 Z5.361 A3069.868
 X188.035 Y13.724 Z4.404 A3072.544
 X188.032 Y13.479 Z3.435 A3075.286
 X188.03 Y13.196 Z2.5 A3077.966
 X188.027 Y12.859 Z1.554 A3080.719
 X188.024 Y12.487 Z0.648 A3083.402
 X188.022 Y12.026 Z0.948 A3081.111
 X188.02 Y11.551 Z1.231 A3078.806
 X188.017 Y11.062 Z1.496 A3076.49
 X188.015 Y10.561 Z1.742 A3074.165
 X188.012 Y10.048 Z1.969 A3071.831
 X188.01 Y9.526 Z2.174 A3069.492
 X188.008 Y8.994 Z2.359 A3067.148
 X188.005 Y8.455 Z2.522 A3064.803
 X188.003 Y7.91 Z2.662 A3062.458
 X188. Y7.36 Z2.78 A3060.115
 X187.998 Y6.806 Z2.875 A3057.775
 X187.995 Y6.251 Z2.948 A3055.442
 X187.993 Y5.695 Z2.997 A3053.116
 X187.991 Y5.139 Z3.024 A3050.8
 X187.988 Y4.586 Z3.029 A3048.495
 X187.986 Y4.036 Z3.011 A3046.204
 X187.984 Y3.852 Z2.582 A3048.847
 X187.982 Y3.645 Z2.154 A3051.537
 X187.98 Y3.416 Z1.735 A3054.238
 X187.978 Y3.174 Z1.335 A3056.886
 X187.976 Y2.908 Z0.939 A3059.583
 X187.974 Y2.596 Z0.522 A3062.53
 X187.972 Y2.299 Z0.162 A3065.174
 X187.97 Y2.016 Z-0.151 A3067.56
 X187.969 Y1.718 Z-0.455 A3069.967
 X187.967 Y1.405 Z-0.749 A3072.4
 X187.965 Y1.061 Z-1.044 A3074.961
 X187.963 Y0.694 Z-1.332 A3077.601
 X187.961 Y0.311 Z-1.603 A3080.257
 Y-0.079 Z-1.854 A3082.878
 X187.958 Y-0.481 Z-2.088 A3085.511
 X187.956 Y-0.894 Z-2.302 A3088.145
 X187.954 Y-1.314 Z-2.497 A3090.764
 Y-1.599 Z-2.616 A3092.513
 X187.951 Y-2.069 Z-2.791 A3095.346
 X187.949 Y-2.433 Z-2.908 A3097.512
 X187.948 Y-2.801 Z-3.012 A3099.677
 X187.946 Y-3.173 Z-3.102 A3101.839
 X187.944 Y-3.662 Z-3.197 A3104.658
 X187.942 Y-4.117 Z-3.264 A3107.259
 X187.94 Y-4.572 Z-3.31 A3109.85
 X187.938 Y-5.032 Z-3.335 A3112.454
 X187.937 Y-5.489 Z-3.34 A3115.042
 X187.935 Y-5.945 Z-3.324 A3117.625
 X187.933 Y-6.402 Z-3.287 A3120.219
 X187.931 Y-6.852 Z-3.23 A3122.785
 X187.929 Y-7.355 Z-3.143 A3125.675
 X187.928 Y-7.704 Z-3.066 A3127.693
 X187.925 Y-8.214 Z-2.931 A3130.679
 X187.923 Y-8.672 Z-2.784 A3133.4
 X187.922 Y-9.097 Z-2.627 A3135.964
 X187.92 Y-9.508 Z-2.453 A3138.491
 X187.918 Y-9.921 Z-2.256 A3141.078
 X187.916 Y-10.318 Z-2.045 A3143.621
 X187.915 Y-10.573 Z-1.897 A3145.291
 X187.913 Y-11.019 Z-1.613 A3148.281
 X187.911 Y-11.349 Z-1.381 A3150.569
 Y-11.675 Z-1.131 A3152.89
 X187.908 Y-11.996 Z-0.865 A3155.251
 X187.906 Y-12.31 Z-0.581 A3157.642
 X187.904 Y-12.641 Z-0.254 A3160.276
 X187.902 Y-12.961 Z0.092 A3162.943
 X187.9 Y-13.264 Z0.454 A3165.617
 Y-13.547 Z0.824 A3168.253
 X187.897 Y-13.816 Z1.212 A3170.92
 X187.895 Y-14.064 Z1.607 A3173.56
 X187.893 Y-14.293 Z2.013 A3176.2
 X187.891 Y-14.505 Z2.432 A3178.856
 X187.889 Y-14.707 Z2.887 A3181.671
 X187.887 Y-14.888 Z3.353 A3184.499
 X187.885 Y-15.043 Z3.816 A3187.263
 X187.883 Y-15.168 Z4.261 A3189.881
 X187.881 Y-15.274 Z4.713 A3192.504
 X187.879 Y-15.358 Z5.168 A3195.121
 Y-15.421 Z5.625 A3197.732
 X187.876 Y-15.464 Z6.084 A3200.34
 X187.874 Y-15.485 Z6.544 A3202.948
 X187.872 Y-15.486 Z7.004 A3205.549
 X187.87 Y-15.463 Z7.505 A3208.389
 X187.868 Y-15.427 Z7.896 A3210.607
 Y-15.377 Z8.282 A3212.813
 X187.865 Y-15.313 Z8.664 A3215.005
 X187.863 Y-15.208 Z9.153 A3217.832
 X187.861 Y-15.091 Z9.594 A3220.415
 Y-14.956 Z10.026 A3222.973
 X187.858 Y-14.8 Z10.457 A3225.568
 X187.856 Y-14.626 Z10.876 A3228.134
 X187.854 Y-14.435 Z11.284 A3230.687
 X187.852 Y-14.224 Z11.686 A3233.256
 X187.85 Y-13.999 Z12.072 A3235.78
 X187.849 Y-13.762 Z12.442 A3238.267
 X187.847 Y-13.514 Z12.794 A3240.706
 X187.845 Y-13.255 Z13.13 A3243.105
 X187.843 Y-14.195 Z12.391 A3240.814
 X187.84 Y-15.299 Z11.44 A3238.02
 Y-15.488 Z11.268 A3237.531
 X187.837 Y-16.428 Z10.364 A3235.03
 X187.834 Y-17.268 Z9.486 A3232.701
 X187.832 Y-18.074 Z8.572 A3230.364
 X187.829 Y-18.843 Z7.623 A3228.023
 X187.827 Y-19.574 Z6.643 A3225.679
 X187.825 Y-20.264 Z5.633 A3223.333
 X187.822 Y-20.912 Z4.596 A3220.989
 X187.82 Y-21.517 Z3.535 A3218.648
 X187.817 Y-22.077 Z2.452 A3216.312
 X187.815 Y-22.59 Z1.351 A3213.982
 X187.812 Y-23.057 Z0.234 A3211.661
 X187.81 Y-23.476 Z-0.896 A3209.351
 X187.808 Y-23.848 Z-2.036 A3207.053
 X187.806 Y-24.016 Z-2.609 A3205.907
 X187.804 Y-24.58 Z-1.72 A3208.796
 X187.801 Y-25.113 Z-0.777 A3211.767
 X187.798 Y-25.534 Z0.059 A3214.332
 X187.796 Y-25.924 Z0.932 A3216.953
 X187.794 Y-26.269 Z1.806 A3219.528
 X187.791 Y-26.579 Z2.711 A3222.152
 X187.789 Y-26.844 Z3.616 A3224.736
 X187.786 Y-27.071 Z4.547 A3227.363
 X187.784 Y-27.253 Z5.475 A3229.956
 X187.781 Y-27.394 Z6.424 A3232.586
 X187.779 Y-27.491 Z7.368 A3235.188
 X187.776 Y-27.546 Z8.327 A3237.821
 X187.774 Y-27.556 Z9.254 A3240.365
 X187.772 Y-27.525 Z10.191 A3242.933
 X187.769 Y-27.452 Z11.133 A3245.525
 X187.767 Y-27.334 Z12.078 A3248.137
 X187.764 Y-27.173 Z13.023 A3250.763
 X187.762 Y-26.967 Z13.964 A3253.405
 X187.759 Y-26.719 Z14.893 A3256.04
 X187.757 Y-26.427 Z15.812 A3258.685
 X187.754 Y-26.093 Z16.717 A3261.329
 X187.752 Y-25.718 Z17.606 A3263.976
 X187.749 Y-25.3 Z18.479 A3266.628
 X187.747 Y-24.844 Z19.331 A3269.279
 X187.744 Y-24.346 Z20.164 A3271.939
 X187.742 Y-23.812 Z20.971 A3274.593
 X187.74 Y-23.373 Z21.577 A3276.644
 X187.738 Y-22.915 Z22.165 A3278.688
 X187.736 Y-22.438 Z22.735 A3280.723
 X187.734 Y-21.944 Z23.284 A3282.749
 X187.732 Y-21.26 Z23.984 A3285.431
 X187.729 Y-20.55 Z24.645 A3288.092
 X187.727 Y-19.802 Z25.281 A3290.784
 X187.724 Y-19.032 Z25.874 A3293.448
 X187.722 Y-18.225 Z26.439 A3296.15
 X187.719 Y-17.402 Z26.958 A3298.817
 X187.717 Y-16.542 Z27.446 A3301.528
 X187.714 Y-15.674 Z27.887 A3304.198
 X187.711 Y-14.768 Z28.294 A3306.92
 X187.709 Y-13.861 Z28.651 A3309.594
 X187.707 Y-13.052 Z28.929 A3311.939
 X187.705 Y-12.247 Z29.17 A3314.243
 X187.702 Y-11.447 Z29.375 A3316.507
 X187.7 Y-10.655 Z29.546 A3318.728
 X187.698 Y-9.665 Z29.714 A3321.48
 X187.695 Y-8.694 Z29.832 A3324.163
 X187.693 Y-7.764 Z29.902 A3326.719
 X187.69 Y-6.81 Z29.931 A3329.336
 X187.688 Y-5.875 Z29.917 A3331.899
 X187.686 Y-4.921 Z29.859 A3334.52
 X187.683 Y-3.988 Z29.76 A3337.092
 X187.681 Y-3.042 Z29.616 A3339.716
 X187.679 Y-2.276 Z29.467 A3341.856
 X187.677 Y-1.505 Z29.286 A3344.027
 X187.675 Y-0.73 Z29.073 A3346.229
 X187.672 Y0.045 Z28.827 A3348.46
 X187.67 Y0.935 Z28.503 A3351.056
 X187.668 Y1.821 Z28.134 A3353.688
 X187.665 Y2.681 Z27.729 A3356.293
 X187.663 Y3.531 Z27.28 A3358.928
 X187.66 Y4.352 Z26.796 A3361.542
 X187.658 Y5.158 Z26.271 A3364.18
 X187.655 Y5.934 Z25.712 A3366.802
 X187.653 Y6.69 Z25.115 A3369.443
 X187.65 Y7.414 Z24.485 A3372.073
 X187.648 Y8.111 Z23.82 A3374.717
 X187.645 Y8.748 Z23.155 A3377.239
 X187.643 Y9.356 Z22.462 A3379.768
 X187.641 Y9.934 Z21.741 A3382.301
 X187.638 Y10.48 Z20.995 A3384.836
 X187.636 Y11.016 Z20.188 A3387.491
 X187.633 Y11.513 Z19.358 A3390.143
 X187.631 Y11.973 Z18.503 A3392.807
 X187.628 Y12.392 Z17.63 A3395.461
 X187.626 Y12.772 Z16.732 A3398.134
 X187.623 Y13.108 Z15.823 A3400.792
 X187.621 Y13.404 Z14.891 A3403.473
 X187.618 Y13.655 Z13.953 A3406.134
 X187.616 Y13.863 Z12.994 A3408.825
 X187.613 Y14.025 Z12.036 A3411.488
 X187.611 Y14.141 Z11.09 A3414.102
 X187.608 Y14.213 Z10.151 A3416.684
 X187.606 Y14.242 Z9.222 A3419.232
 X187.604 Y14.23 Z8.305 A3421.746
 X187.601 Y14.172 Z7.315 A3424.465
 X187.599 Y14.069 Z6.345 A3427.138
 X187.596 Y13.918 Z5.361 A3429.868
 X187.594 Y13.724 Z4.404 A3432.544
 X187.591 Y13.479 Z3.435 A3435.286
 X187.588 Y13.196 Z2.5 A3437.966
 X187.586 Y12.859 Z1.554 A3440.719
 X187.583 Y12.487 Z0.648 A3443.402
 X187.581 Y12.026 Z0.948 A3441.111
 X187.579 Y11.551 Z1.231 A3438.806
 X187.576 Y11.062 Z1.496 A3436.49
 X187.574 Y10.561 Z1.742 A3434.165
 X187.571 Y10.048 Z1.969 A3431.831
 X187.569 Y9.526 Z2.174 A3429.492
 X187.566 Y8.994 Z2.359 A3427.148
 X187.564 Y8.455 Z2.522 A3424.803
 X187.561 Y7.91 Z2.662 A3422.458
 X187.559 Y7.36 Z2.78 A3420.115
 X187.557 Y6.806 Z2.875 A3417.775
 X187.554 Y6.251 Z2.948 A3415.442
 X187.552 Y5.695 Z2.997 A3413.116
 X187.549 Y5.139 Z3.024 A3410.8
 X187.547 Y4.586 Z3.029 A3408.495
 X187.545 Y4.036 Z3.011 A3406.204
 X187.543 Y3.852 Z2.582 A3408.847
 X187.541 Y3.645 Z2.154 A3411.537
 X187.539 Y3.416 Z1.735 A3414.238
 X187.537 Y3.174 Z1.335 A3416.886
 X187.535 Y2.908 Z0.939 A3419.583
 X187.533 Y2.596 Z0.522 A3422.53
 X187.531 Y2.299 Z0.162 A3425.174
 X187.529 Y2.016 Z-0.151 A3427.56
 X187.528 Y1.718 Z-0.455 A3429.967
 X187.526 Y1.405 Z-0.749 A3432.4
 X187.524 Y1.061 Z-1.044 A3434.961
 X187.522 Y0.694 Z-1.332 A3437.601
 X187.52 Y0.311 Z-1.603 A3440.257
 X187.518 Y-0.079 Z-1.854 A3442.878
 X187.516 Y-0.481 Z-2.088 A3445.511
 X187.515 Y-0.894 Z-2.302 A3448.145
 X187.513 Y-1.314 Z-2.497 A3450.764
 X187.511 Y-1.599 Z-2.616 A3452.513
 X187.509 Y-2.069 Z-2.791 A3455.346
 X187.508 Y-2.433 Z-2.908 A3457.512
 X187.506 Y-2.801 Z-3.012 A3459.677
 Y-3.173 Z-3.102 A3461.839
 X187.503 Y-3.662 Z-3.197 A3464.658
 X187.501 Y-4.117 Z-3.264 A3467.259
 X187.499 Y-4.572 Z-3.31 A3469.85
 X187.497 Y-5.032 Z-3.335 A3472.454
 X187.495 Y-5.489 Z-3.34 A3475.042
 Y-5.945 Z-3.324 A3477.625
 X187.492 Y-6.402 Z-3.287 A3480.219
 X187.49 Y-6.852 Z-3.23 A3482.785
 X187.488 Y-7.355 Z-3.143 A3485.675
 X187.486 Y-7.704 Z-3.066 A3487.693
 X187.484 Y-8.214 Z-2.931 A3490.679
 X187.482 Y-8.672 Z-2.784 A3493.4
 X187.48 Y-9.097 Z-2.627 A3495.964
 Y-9.508 Z-2.453 A3498.491
 X187.477 Y-9.921 Z-2.256 A3501.078
 X187.475 Y-10.318 Z-2.045 A3503.621
 X187.474 Y-10.573 Z-1.897 A3505.291
 X187.472 Y-11.019 Z-1.613 A3508.281
 X187.47 Y-11.349 Z-1.381 A3510.569
 X187.468 Y-11.675 Z-1.131 A3512.89
 X187.467 Y-11.996 Z-0.865 A3515.251
 X187.465 Y-12.31 Z-0.581 A3517.642
 X187.463 Y-12.641 Z-0.254 A3520.276
 X187.461 Y-12.961 Z0.092 A3522.943
 X187.459 Y-13.264 Z0.454 A3525.617
 X187.457 Y-13.547 Z0.824 A3528.253
 X187.455 Y-13.816 Z1.212 A3530.92
 X187.454 Y-14.064 Z1.607 A3533.56
 X187.452 Y-14.293 Z2.013 A3536.2
 X187.45 Y-14.505 Z2.432 A3538.856
 X187.448 Y-14.707 Z2.887 A3541.671
 X187.446 Y-14.888 Z3.353 A3544.499
 X187.444 Y-15.043 Z3.816 A3547.263
 X187.442 Y-15.168 Z4.261 A3549.881
 X187.44 Y-15.274 Z4.713 A3552.504
 X187.438 Y-15.358 Z5.168 A3555.121
 X187.436 Y-15.421 Z5.625 A3557.732
 X187.434 Y-15.464 Z6.084 A3560.34
 X187.433 Y-15.485 Z6.544 A3562.948
 X187.431 Y-15.486 Z7.004 A3565.549
 X187.429 Y-15.463 Z7.505 A3568.389
 X187.427 Y-15.427 Z7.896 A3570.607
 X187.426 Y-15.377 Z8.282 A3572.813
 X187.424 Y-15.313 Z8.664 A3575.005
 X187.422 Y-15.208 Z9.153 A3577.832
 X187.42 Y-15.091 Z9.594 A3580.415
 X187.418 Y-14.956 Z10.026 A3582.973
 X187.416 Y-14.8 Z10.457 A3585.568
 X187.415 Y-14.626 Z10.876 A3588.134
 X187.413 Y-14.435 Z11.284 A3590.687
 X187.411 Y-14.224 Z11.686 A3593.256
 X187.409 Y-13.999 Z12.072 A3595.78
 X187.407 Y-13.762 Z12.442 A3598.267
 Y-13.514 Z12.794 A3600.706
 X187.404 Y-13.255 Z13.13 A3603.105
 X187.402 Y-14.195 Z12.391 A3600.814
 X187.399 Y-15.299 Z11.44 A3598.021
 X187.398 Y-15.487 Z11.269 A3597.532
 X187.396 Y-16.428 Z10.364 A3595.03
 X187.393 Y-17.268 Z9.486 A3592.701
 X187.391 Y-18.074 Z8.572 A3590.364
 X187.388 Y-18.843 Z7.623 A3588.023
 X187.386 Y-19.574 Z6.643 A3585.679
 X187.383 Y-20.264 Z5.633 A3583.333
 X187.381 Y-20.912 Z4.596 A3580.989
 X187.378 Y-21.517 Z3.535 A3578.648
 X187.376 Y-22.077 Z2.452 A3576.312
 X187.374 Y-22.59 Z1.351 A3573.982
 X187.371 Y-23.057 Z0.234 A3571.661
 X187.369 Y-23.476 Z-0.896 A3569.351
 X187.366 Y-23.848 Z-2.036 A3567.053
 Y-24.016 Z-2.609 A3565.907
 X187.362 Y-24.58 Z-1.72 A3568.796
 X187.36 Y-25.113 Z-0.777 A3571.767
 X187.357 Y-25.534 Z0.059 A3574.332
 X187.355 Y-25.924 Z0.932 A3576.953
 X187.352 Y-26.269 Z1.806 A3579.528
 X187.35 Y-26.579 Z2.711 A3582.152
 X187.348 Y-26.844 Z3.616 A3584.736
 X187.345 Y-27.071 Z4.547 A3587.363
 X187.343 Y-27.253 Z5.475 A3589.956
 X187.34 Y-27.394 Z6.424 A3592.586
 X187.338 Y-27.491 Z7.368 A3595.188
 X187.335 Y-27.546 Z8.327 A3597.821
 X187.333 Y-27.556 Z9.254 A3600.365
 X187.33 Y-27.525 Z10.191 A3602.933
 X187.328 Y-27.452 Z11.133 A3605.525
 X187.326 Y-27.334 Z12.078 A3608.137
 X187.323 Y-27.173 Z13.023 A3610.763
 X187.321 Y-26.967 Z13.964 A3613.405
 X187.318 Y-26.719 Z14.893 A3616.04
 X187.316 Y-26.427 Z15.812 A3618.685
 X187.313 Y-26.093 Z16.717 A3621.329
 X187.311 Y-25.718 Z17.606 A3623.976
 X187.308 Y-25.3 Z18.479 A3626.628
 X187.306 Y-24.844 Z19.331 A3629.279
 X187.303 Y-24.346 Z20.164 A3631.939
 X187.301 Y-23.812 Z20.971 A3634.593
 X187.299 Y-23.373 Z21.577 A3636.644
 X187.297 Y-22.915 Z22.165 A3638.688
 X187.295 Y-22.438 Z22.735 A3640.723
 X187.293 Y-21.944 Z23.284 A3642.749
 X187.29 Y-21.26 Z23.984 A3645.431
 X187.288 Y-20.55 Z24.645 A3648.092
 X187.285 Y-19.802 Z25.281 A3650.784
 X187.283 Y-19.032 Z25.874 A3653.448
 X187.28 Y-18.225 Z26.439 A3656.15
 X187.278 Y-17.402 Z26.958 A3658.817
 X187.275 Y-16.542 Z27.446 A3661.528
 X187.273 Y-15.674 Z27.887 A3664.198
 X187.27 Y-14.768 Z28.294 A3666.92
 X187.268 Y-13.861 Z28.651 A3669.594
 X187.266 Y-13.052 Z28.929 A3671.939
 X187.263 Y-12.247 Z29.17 A3674.243
 X187.261 Y-11.447 Z29.375 A3676.507
 X187.259 Y-10.655 Z29.546 A3678.728
 X187.257 Y-9.665 Z29.714 A3681.48
 X187.254 Y-8.694 Z29.832 A3684.163
 X187.252 Y-7.764 Z29.902 A3686.719
 X187.249 Y-6.81 Z29.931 A3689.336
 X187.247 Y-5.875 Z29.917 A3691.899
 X187.244 Y-4.921 Z29.859 A3694.52
 X187.242 Y-3.988 Z29.76 A3697.092
 X187.24 Y-3.042 Z29.616 A3699.716
 X187.238 Y-2.276 Z29.467 A3701.856
 X187.235 Y-1.505 Z29.286 A3704.027
 X187.233 Y-0.73 Z29.073 A3706.229
 X187.231 Y0.045 Z28.827 A3708.46
 X187.229 Y0.935 Z28.503 A3711.056
 X187.226 Y1.821 Z28.134 A3713.688
 X187.224 Y2.681 Z27.729 A3716.293
 X187.221 Y3.531 Z27.28 A3718.928
 X187.219 Y4.352 Z26.796 A3721.542
 X187.217 Y5.158 Z26.271 A3724.18
 X187.214 Y5.934 Z25.712 A3726.802
 X187.212 Y6.69 Z25.115 A3729.443
 X187.209 Y7.414 Z24.485 A3732.073
 X187.207 Y8.111 Z23.82 A3734.717
 X187.204 Y8.748 Z23.155 A3737.239
 X187.202 Y9.356 Z22.462 A3739.768
 X187.2 Y9.934 Z21.741 A3742.301
 X187.197 Y10.48 Z20.995 A3744.836
 X187.195 Y11.016 Z20.188 A3747.491
 X187.192 Y11.513 Z19.358 A3750.143
 X187.19 Y11.973 Z18.503 A3752.807
 X187.187 Y12.392 Z17.63 A3755.461
 X187.185 Y12.772 Z16.732 A3758.134
 X187.182 Y13.108 Z15.823 A3760.792
 X187.18 Y13.404 Z14.891 A3763.473
 X187.177 Y13.655 Z13.953 A3766.134
 X187.175 Y13.863 Z12.994 A3768.825
 X187.172 Y14.025 Z12.036 A3771.488
 X187.17 Y14.141 Z11.09 A3774.102
 X187.167 Y14.213 Z10.151 A3776.684
 X187.165 Y14.242 Z9.222 A3779.232
 X187.162 Y14.23 Z8.305 A3781.746
 X187.16 Y14.172 Z7.315 A3784.465
 X187.157 Y14.069 Z6.345 A3787.138
 X187.155 Y13.918 Z5.361 A3789.868
 X187.152 Y13.724 Z4.404 A3792.544
 X187.15 Y13.479 Z3.435 A3795.286
 X187.147 Y13.196 Z2.5 A3797.966
 X187.145 Y12.859 Z1.554 A3800.719
 X187.142 Y12.487 Z0.648 A3803.402
 X187.14 Y12.026 Z0.948 A3801.111
 X187.137 Y11.551 Z1.231 A3798.806
 X187.135 Y11.062 Z1.496 A3796.49
 X187.133 Y10.561 Z1.742 A3794.165
 X187.13 Y10.048 Z1.969 A3791.831
 X187.128 Y9.526 Z2.174 A3789.492
 X187.125 Y8.994 Z2.359 A3787.148
 X187.123 Y8.455 Z2.522 A3784.803
 X187.12 Y7.91 Z2.662 A3782.458
 X187.118 Y7.36 Z2.78 A3780.115
 X187.115 Y6.806 Z2.875 A3777.775
 X187.113 Y6.251 Z2.948 A3775.442
 X187.111 Y5.695 Z2.997 A3773.116
 X187.108 Y5.139 Z3.024 A3770.8
 X187.106 Y4.586 Z3.029 A3768.495
 X187.103 Y4.036 Z3.011 A3766.204
 X187.101 Y3.852 Z2.582 A3768.847
 Y3.645 Z2.154 A3771.537
 X187.098 Y3.416 Z1.735 A3774.238
 X187.096 Y3.174 Z1.335 A3776.886
 X187.094 Y2.908 Z0.939 A3779.583
 X187.092 Y2.596 Z0.522 A3782.53
 X187.09 Y2.299 Z0.162 A3785.174
 X187.088 Y2.016 Z-0.151 A3787.56
 X187.086 Y1.718 Z-0.455 A3789.967
 Y1.405 Z-0.749 A3792.4
 X187.083 Y1.061 Z-1.044 A3794.961
 X187.081 Y0.694 Z-1.332 A3797.601
 X187.079 Y0.311 Z-1.603 A3800.257
 X187.077 Y-0.079 Z-1.854 A3802.878
 X187.075 Y-0.481 Z-2.088 A3805.511
 X187.073 Y-0.894 Z-2.302 A3808.145
 Y-1.314 Z-2.497 A3810.764
 X187.07 Y-1.599 Z-2.616 A3812.513
 X187.068 Y-2.069 Z-2.791 A3815.346
 Y-2.433 Z-2.908 A3817.512
 X187.065 Y-2.801 Z-3.012 A3819.677
 X187.064 Y-3.173 Z-3.102 A3821.839
 X187.062 Y-3.662 Z-3.197 A3824.658
 X187.06 Y-4.117 Z-3.264 A3827.259
 X187.058 Y-4.572 Z-3.31 A3829.85
 X187.056 Y-5.032 Z-3.335 A3832.454
 X187.054 Y-5.489 Z-3.34 A3835.042
 X187.052 Y-5.945 Z-3.324 A3837.625
 X187.051 Y-6.402 Z-3.287 A3840.219
 X187.049 Y-6.852 Z-3.23 A3842.785
 X187.047 Y-7.355 Z-3.143 A3845.675
 X187.045 Y-7.704 Z-3.066 A3847.693
 X187.043 Y-8.214 Z-2.931 A3850.679
 X187.041 Y-8.672 Z-2.784 A3853.4
 X187.039 Y-9.097 Z-2.627 A3855.964
 X187.037 Y-9.508 Z-2.453 A3858.491
 X187.036 Y-9.921 Z-2.256 A3861.078
 X187.034 Y-10.318 Z-2.045 A3863.621
 Y-10.573 Z-1.897 A3865.291
 X187.03 Y-11.019 Z-1.613 A3868.281
 Y-11.349 Z-1.381 A3870.569
 X187.027 Y-11.675 Z-1.131 A3872.89
 Y-11.996 Z-0.865 A3875.251
 X187.024 Y-12.31 Z-0.581 A3877.642
 X187.022 Y-12.641 Z-0.254 A3880.276
 X187.02 Y-12.961 Z0.092 A3882.943
 X187.018 Y-13.264 Z0.454 A3885.617
 X187.016 Y-13.547 Z0.824 A3888.253
 X187.014 Y-13.816 Z1.212 A3890.92
 X187.012 Y-14.064 Z1.607 A3893.56
 Y-14.293 Z2.013 A3896.2
 X187.009 Y-14.505 Z2.432 A3898.856
 X187.007 Y-14.707 Z2.887 A3901.671
 X187.005 Y-14.888 Z3.353 A3904.499
 X187.003 Y-15.043 Z3.816 A3907.263
 X187.001 Y-15.168 Z4.261 A3909.881
 X186.999 Y-15.274 Z4.713 A3912.504
 X186.997 Y-15.358 Z5.168 A3915.121
 X186.995 Y-15.421 Z5.625 A3917.732
 X186.993 Y-15.464 Z6.084 A3920.34
 X186.991 Y-15.485 Z6.544 A3922.949
 Y-15.486 Z7.004 A3925.549
 X186.988 Y-15.463 Z7.505 A3928.389
 X186.986 Y-15.427 Z7.896 A3930.607
 X186.984 Y-15.377 Z8.282 A3932.813
 Y-15.313 Z8.664 A3935.005
 X186.981 Y-15.208 Z9.153 A3937.832
 X186.979 Y-15.091 Z9.594 A3940.415
 X186.977 Y-14.956 Z10.026 A3942.973
 X186.975 Y-14.8 Z10.457 A3945.568
 X186.973 Y-14.626 Z10.876 A3948.134
 X186.972 Y-14.435 Z11.284 A3950.687
 X186.97 Y-14.224 Z11.686 A3953.256
 X186.968 Y-13.999 Z12.072 A3955.78
 X186.966 Y-13.762 Z12.442 A3958.267
 X186.964 Y-13.514 Z12.794 A3960.706
 X186.963 Y-13.255 Z13.13 A3963.105
 X186.96 Y-14.195 Z12.391 A3960.814
 X186.957 Y-15.299 Z11.441 A3958.021
 Y-15.487 Z11.269 A3957.533
 X186.954 Y-16.428 Z10.364 A3955.03
 X186.952 Y-17.268 Z9.486 A3952.701
 X186.949 Y-18.074 Z8.572 A3950.364
 X186.947 Y-18.843 Z7.623 A3948.023
 X186.945 Y-19.574 Z6.643 A3945.679
 X186.942 Y-20.264 Z5.633 A3943.333
 X186.94 Y-20.912 Z4.596 A3940.989
 X186.937 Y-21.517 Z3.535 A3938.648
 X186.935 Y-22.077 Z2.452 A3936.312
 X186.932 Y-22.59 Z1.351 A3933.982
 X186.93 Y-23.057 Z0.234 A3931.661
 X186.928 Y-23.476 Z-0.896 A3929.351
 X186.925 Y-23.848 Z-2.036 A3927.053
 X186.924 Y-24.016 Z-2.609 A3925.907
 X186.921 Y-24.58 Z-1.72 A3928.796
 X186.919 Y-25.113 Z-0.777 A3931.767
 X186.916 Y-25.534 Z0.059 A3934.332
 X186.914 Y-25.924 Z0.932 A3936.953
 X186.911 Y-26.269 Z1.806 A3939.528
 X186.909 Y-26.579 Z2.711 A3942.152
 X186.906 Y-26.844 Z3.616 A3944.736
 X186.904 Y-27.071 Z4.547 A3947.363
 X186.901 Y-27.253 Z5.475 A3949.956
 X186.899 Y-27.394 Z6.424 A3952.586
 X186.897 Y-27.491 Z7.368 A3955.188
 X186.894 Y-27.546 Z8.327 A3957.821
 X186.892 Y-27.556 Z9.254 A3960.365
 X186.889 Y-27.525 Z10.191 A3962.933
 X186.887 Y-27.452 Z11.133 A3965.525
 X186.884 Y-27.334 Z12.078 A3968.137
 X186.882 Y-27.173 Z13.023 A3970.763
 X186.879 Y-26.967 Z13.964 A3973.405
 X186.877 Y-26.719 Z14.893 A3976.041
 X186.874 Y-26.427 Z15.812 A3978.685
 X186.872 Y-26.093 Z16.717 A3981.329
 X186.869 Y-25.718 Z17.606 A3983.977
 X186.867 Y-25.3 Z18.479 A3986.628
 X186.864 Y-24.844 Z19.331 A3989.279
 X186.862 Y-24.346 Z20.164 A3991.939
 X186.859 Y-23.812 Z20.971 A3994.593
 Y-23.373 Z21.577 A3996.644
 X186.856 Y-22.915 Z22.165 A3998.688
 X186.854 Y-22.438 Z22.735 A4000.723
 X186.852 Y-21.944 Z23.284 A4002.749
 X186.849 Y-21.26 Z23.984 A4005.431
 X186.847 Y-20.55 Z24.645 A4008.092
 X186.844 Y-19.802 Z25.281 A4010.784
 X186.842 Y-19.032 Z25.874 A4013.448
 X186.839 Y-18.225 Z26.439 A4016.15
 X186.837 Y-17.402 Z26.958 A4018.816
 X186.834 Y-16.542 Z27.446 A4021.528
 X186.832 Y-15.674 Z27.887 A4024.198
 X186.829 Y-14.768 Z28.294 A4026.92
 X186.827 Y-13.861 Z28.651 A4029.594
 X186.824 Y-13.052 Z28.929 A4031.939
 X186.822 Y-12.247 Z29.17 A4034.243
 X186.82 Y-11.447 Z29.375 A4036.506
 X186.818 Y-10.655 Z29.546 A4038.728
 X186.815 Y-9.665 Z29.714 A4041.479
 X186.813 Y-8.694 Z29.832 A4044.163
 X186.811 Y-7.764 Z29.902 A4046.719
 X186.808 Y-6.81 Z29.931 A4049.336
 X186.806 Y-5.875 Z29.917 A4051.899
 X186.803 Y-4.921 Z29.859 A4054.52
 X186.801 Y-3.988 Z29.76 A4057.092
 X186.798 Y-3.042 Z29.616 A4059.716
 X186.796 Y-2.276 Z29.467 A4061.856
 X186.794 Y-1.505 Z29.286 A4064.027
 X186.792 Y-0.73 Z29.073 A4066.229
 X186.79 Y0.045 Z28.827 A4068.46
 X186.788 Y0.935 Z28.503 A4071.056
 X186.785 Y1.821 Z28.134 A4073.688
 X186.783 Y2.681 Z27.729 A4076.293
 X186.78 Y3.531 Z27.28 A4078.928
 X186.778 Y4.352 Z26.796 A4081.542
 X186.775 Y5.158 Z26.271 A4084.18
 X186.773 Y5.934 Z25.712 A4086.802
 X186.77 Y6.69 Z25.115 A4089.442
 X186.768 Y7.414 Z24.485 A4092.073
 X186.765 Y8.111 Z23.82 A4094.717
 X186.763 Y8.748 Z23.155 A4097.239
 X186.761 Y9.356 Z22.462 A4099.768
 X186.758 Y9.934 Z21.741 A4102.301
 X186.756 Y10.48 Z20.995 A4104.836
 X186.753 Y11.016 Z20.188 A4107.491
 X186.751 Y11.513 Z19.358 A4110.143
 X186.748 Y11.973 Z18.503 A4112.807
 X186.746 Y12.392 Z17.63 A4115.461
 X186.743 Y12.772 Z16.732 A4118.134
 X186.741 Y13.108 Z15.823 A4120.792
 X186.738 Y13.404 Z14.891 A4123.473
 X186.736 Y13.655 Z13.953 A4126.134
 X186.733 Y13.863 Z12.994 A4128.825
 X186.731 Y14.025 Z12.036 A4131.488
 X186.728 Y14.141 Z11.09 A4134.102
 X186.726 Y14.213 Z10.151 A4136.684
 X186.724 Y14.242 Z9.222 A4139.232
 X186.721 Y14.23 Z8.305 A4141.746
 X186.719 Y14.172 Z7.315 A4144.465
 X186.716 Y14.069 Z6.345 A4147.138
 X186.714 Y13.918 Z5.361 A4149.868
 X186.711 Y13.724 Z4.404 A4152.544
 X186.709 Y13.479 Z3.435 A4155.286
 X186.706 Y13.196 Z2.5 A4157.965
 X186.703 Y12.859 Z1.554 A4160.719
 X186.701 Y12.487 Z0.648 A4163.402
 X186.699 Y12.026 Z0.948 A4161.111
 X186.696 Y11.551 Z1.231 A4158.806
 X186.694 Y11.062 Z1.496 A4156.49
 X186.691 Y10.561 Z1.742 A4154.165
 X186.689 Y10.048 Z1.969 A4151.831
 X186.686 Y9.526 Z2.174 A4149.492
 X186.684 Y8.994 Z2.359 A4147.148
 X186.682 Y8.455 Z2.522 A4144.803
 X186.679 Y7.91 Z2.662 A4142.458
 X186.677 Y7.36 Z2.78 A4140.115
 X186.674 Y6.806 Z2.875 A4137.775
 X186.672 Y6.251 Z2.948 A4135.442
 X186.669 Y5.695 Z2.997 A4133.116
 X186.667 Y5.139 Z3.024 A4130.8
 X186.665 Y4.586 Z3.029 A4128.495
 X186.662 Y4.036 Z3.011 A4126.204
 X186.66 Y3.852 Z2.582 A4128.847
 X186.658 Y3.645 Z2.154 A4131.538
 X186.656 Y3.416 Z1.735 A4134.238
 X186.655 Y3.174 Z1.335 A4136.886
 X186.653 Y2.908 Z0.939 A4139.583
 X186.651 Y2.596 Z0.522 A4142.53
 X186.649 Y2.299 Z0.162 A4145.174
 X186.647 Y2.016 Z-0.151 A4147.56
 X186.645 Y1.718 Z-0.455 A4149.967
 X186.643 Y1.405 Z-0.749 A4152.4
 X186.642 Y1.061 Z-1.044 A4154.961
 X186.64 Y0.694 Z-1.332 A4157.601
 X186.638 Y0.311 Z-1.603 A4160.257
 X186.636 Y-0.079 Z-1.854 A4162.878
 X186.634 Y-0.481 Z-2.088 A4165.512
 X186.632 Y-0.894 Z-2.302 A4168.145
 X186.63 Y-1.314 Z-2.497 A4170.764
 X186.629 Y-1.599 Z-2.616 A4172.513
 X186.627 Y-2.069 Z-2.791 A4175.346
 Y-2.433 Z-2.908 A4177.512
 X186.624 Y-2.801 Z-3.012 A4179.677
 X186.622 Y-3.173 Z-3.102 A4181.838
 X186.62 Y-3.662 Z-3.197 A4184.658
 Y-4.117 Z-3.264 A4187.259
 X186.617 Y-4.572 Z-3.31 A4189.85
 X186.615 Y-5.032 Z-3.335 A4192.454
 X186.613 Y-5.489 Z-3.34 A4195.042
 X186.611 Y-5.945 Z-3.324 A4197.625
 X186.609 Y-6.402 Z-3.287 A4200.219
 Y-6.852 Z-3.23 A4202.786
 X186.605 Y-7.355 Z-3.143 A4205.674
 Y-7.704 Z-3.066 A4207.693
 X186.602 Y-8.214 Z-2.931 A4210.679
 X186.6 Y-8.672 Z-2.784 A4213.4
 X186.598 Y-9.097 Z-2.627 A4215.964
 X186.596 Y-9.508 Z-2.453 A4218.491
 X186.594 Y-9.921 Z-2.256 A4221.078
 Y-10.318 Z-2.045 A4223.621
 X186.591 Y-10.573 Z-1.897 A4225.291
 X186.589 Y-11.019 Z-1.613 A4228.281
 X186.588 Y-11.349 Z-1.381 A4230.569
 X186.586 Y-11.675 Z-1.131 A4232.89
 X186.584 Y-11.996 Z-0.865 A4235.25
 X186.583 Y-12.31 Z-0.581 A4237.642
 X186.581 Y-12.641 Z-0.254 A4240.276
 X186.579 Y-12.961 Z0.092 A4242.943
 X186.577 Y-13.264 Z0.454 A4245.617
 X186.575 Y-13.547 Z0.824 A4248.253
 X186.573 Y-13.816 Z1.212 A4250.92
 X186.571 Y-14.064 Z1.607 A4253.561
 X186.569 Y-14.293 Z2.013 A4256.2
 X186.567 Y-14.505 Z2.432 A4258.856
 X186.565 Y-14.707 Z2.887 A4261.671
 X186.563 Y-14.888 Z3.353 A4264.499
 X186.561 Y-15.043 Z3.816 A4267.263
 X186.56 Y-15.168 Z4.261 A4269.881
 X186.558 Y-15.274 Z4.713 A4272.504
 X186.556 Y-15.358 Z5.168 A4275.121
 X186.554 Y-15.421 Z5.625 A4277.732
 X186.552 Y-15.464 Z6.084 A4280.34
 X186.55 Y-15.485 Z6.544 A4282.949
 X186.548 Y-15.486 Z7.004 A4285.549
 X186.546 Y-15.463 Z7.505 A4288.389
 X186.545 Y-15.427 Z7.896 A4290.607
 X186.543 Y-15.377 Z8.282 A4292.813
 Y-15.313 Z8.664 A4295.005
 X186.54 Y-15.208 Z9.153 A4297.832
 X186.538 Y-15.091 Z9.594 A4300.415
 X186.536 Y-14.956 Z10.026 A4302.973
 X186.534 Y-14.8 Z10.457 A4305.568
 X186.532 Y-14.626 Z10.876 A4308.134
 X186.53 Y-14.435 Z11.284 A4310.687
 Y-14.224 Z11.686 A4313.256
 X186.527 Y-13.999 Z12.072 A4315.78
 X186.525 Y-13.762 Z12.442 A4318.267
 X186.523 Y-13.514 Z12.794 A4320.706
 Y-13.255 Z13.13 A4323.105
 X186.519 Y-14.195 Z12.391 A4320.814
 X186.516 Y-15.298 Z11.441 A4318.022
 Y-15.486 Z11.27 A4317.534
 X186.513 Y-16.428 Z10.364 A4315.03
 X186.511 Y-17.268 Z9.486 A4312.701
 X186.508 Y-18.074 Z8.572 A4310.364
 X186.506 Y-18.843 Z7.623 A4308.023
 X186.503 Y-19.574 Z6.643 A4305.679
 X186.501 Y-20.264 Z5.633 A4303.333
 X186.499 Y-20.912 Z4.596 A4300.989
 X186.496 Y-21.517 Z3.535 A4298.648
 X186.494 Y-22.077 Z2.452 A4296.312
 X186.491 Y-22.59 Z1.351 A4293.982
 X186.489 Y-23.057 Z0.234 A4291.661
 X186.486 Y-23.476 Z-0.896 A4289.351
 X186.484 Y-23.848 Z-2.036 A4287.053
 Y-24.016 Z-2.609 A4285.907
 X186.48 Y-24.58 Z-1.72 A4288.796
 X186.477 Y-25.113 Z-0.777 A4291.767
 X186.475 Y-25.534 Z0.059 A4294.332
 X186.472 Y-25.924 Z0.932 A4296.953
 X186.47 Y-26.269 Z1.806 A4299.528
 X186.468 Y-26.579 Z2.711 A4302.152
 X186.465 Y-26.844 Z3.616 A4304.736
 X186.463 Y-27.071 Z4.547 A4307.363
 X186.46 Y-27.253 Z5.475 A4309.956
 X186.458 Y-27.394 Z6.424 A4312.586
 X186.455 Y-27.491 Z7.368 A4315.188
 X186.453 Y-27.546 Z8.327 A4317.821
 X186.45 Y-27.556 Z9.254 A4320.365
 X186.448 Y-27.525 Z10.191 A4322.933
 X186.446 Y-27.452 Z11.133 A4325.525
 X186.443 Y-27.334 Z12.078 A4328.137
 X186.441 Y-27.173 Z13.023 A4330.763
 X186.438 Y-26.967 Z13.964 A4333.405
 X186.436 Y-26.719 Z14.893 A4336.041
 X186.433 Y-26.427 Z15.812 A4338.685
 X186.431 Y-26.093 Z16.717 A4341.329
 X186.428 Y-25.718 Z17.606 A4343.977
 X186.426 Y-25.3 Z18.479 A4346.628
 X186.423 Y-24.844 Z19.331 A4349.279
 X186.421 Y-24.346 Z20.164 A4351.939
 X186.418 Y-23.812 Z20.971 A4354.593
 X186.416 Y-23.373 Z21.577 A4356.644
 X186.414 Y-22.915 Z22.165 A4358.688
 X186.413 Y-22.438 Z22.735 A4360.723
 X186.411 Y-21.944 Z23.284 A4362.749
 X186.408 Y-21.26 Z23.984 A4365.431
 X186.406 Y-20.55 Z24.645 A4368.092
 X186.403 Y-19.802 Z25.281 A4370.784
 X186.401 Y-19.032 Z25.874 A4373.448
 X186.398 Y-18.225 Z26.439 A4376.15
 X186.396 Y-17.402 Z26.958 A4378.816
 X186.393 Y-16.542 Z27.446 A4381.528
 X186.391 Y-15.674 Z27.887 A4384.198
 X186.388 Y-14.768 Z28.294 A4386.92
 X186.385 Y-13.861 Z28.651 A4389.594
 X186.383 Y-13.052 Z28.929 A4391.939
 X186.381 Y-12.247 Z29.17 A4394.243
 X186.379 Y-11.447 Z29.375 A4396.506
 X186.377 Y-10.655 Z29.546 A4398.728
 X186.374 Y-9.665 Z29.714 A4401.479
 X186.372 Y-8.694 Z29.832 A4404.163
 X186.369 Y-7.764 Z29.902 A4406.719
 X186.367 Y-6.81 Z29.931 A4409.336
 X186.364 Y-5.875 Z29.917 A4411.899
 X186.362 Y-4.921 Z29.859 A4414.52
 X186.36 Y-3.988 Z29.76 A4417.092
 X186.357 Y-3.042 Z29.616 A4419.716
 X186.355 Y-2.276 Z29.467 A4421.856
 X186.353 Y-1.505 Z29.286 A4424.027
 X186.351 Y-0.73 Z29.073 A4426.229
 X186.349 Y0.045 Z28.827 A4428.46
 X186.347 Y0.935 Z28.503 A4431.056
 X186.344 Y1.821 Z28.134 A4433.688
 X186.342 Y2.681 Z27.729 A4436.293
 X186.339 Y3.531 Z27.28 A4438.928
 X186.337 Y4.352 Z26.796 A4441.542
 X186.334 Y5.158 Z26.271 A4444.18
 X186.332 Y5.934 Z25.712 A4446.802
 X186.329 Y6.69 Z25.115 A4449.442
 X186.327 Y7.414 Z24.485 A4452.073
 X186.324 Y8.111 Z23.82 A4454.717
 X186.322 Y8.748 Z23.155 A4457.239
 X186.32 Y9.356 Z22.462 A4459.768
 X186.317 Y9.934 Z21.741 A4462.301
 X186.315 Y10.48 Z20.995 A4464.836
 X186.312 Y11.016 Z20.188 A4467.491
 X186.31 Y11.513 Z19.358 A4470.143
 X186.307 Y11.973 Z18.503 A4472.807
 X186.305 Y12.392 Z17.63 A4475.461
 X186.302 Y12.772 Z16.732 A4478.134
 X186.3 Y13.108 Z15.823 A4480.792
 X186.297 Y13.404 Z14.891 A4483.473
 X186.295 Y13.655 Z13.953 A4486.134
 X186.292 Y13.863 Z12.994 A4488.825
 X186.29 Y14.025 Z12.036 A4491.488
 X186.287 Y14.141 Z11.09 A4494.102
 X186.285 Y14.213 Z10.151 A4496.684
 X186.282 Y14.242 Z9.222 A4499.232
 X186.28 Y14.23 Z8.305 A4501.746
 X186.278 Y14.172 Z7.315 A4504.465
 X186.275 Y14.069 Z6.345 A4507.138
 X186.272 Y13.918 Z5.361 A4509.868
 X186.27 Y13.724 Z4.404 A4512.544
 X186.267 Y13.479 Z3.435 A4515.286
 X186.265 Y13.196 Z2.5 A4517.965
 X186.262 Y12.859 Z1.554 A4520.719
 X186.26 Y12.487 Z0.648 A4523.402
 X186.257 Y12.026 Z0.948 A4521.111
 X186.255 Y11.551 Z1.231 A4518.806
 X186.253 Y11.062 Z1.496 A4516.49
 X186.25 Y10.561 Z1.742 A4514.165
 X186.248 Y10.048 Z1.969 A4511.831
 X186.245 Y9.526 Z2.174 A4509.492
 X186.243 Y8.994 Z2.359 A4507.148
 X186.24 Y8.455 Z2.522 A4504.803
 X186.238 Y7.91 Z2.662 A4502.458
 X186.236 Y7.36 Z2.78 A4500.115
 X186.233 Y6.806 Z2.875 A4497.775
 X186.231 Y6.251 Z2.948 A4495.442
 X186.228 Y5.695 Z2.997 A4493.116
 X186.226 Y5.139 Z3.024 A4490.8
 X186.223 Y4.586 Z3.029 A4488.495
 X186.221 Y4.036 Z3.011 A4486.204
 X186.219 Y3.852 Z2.582 A4488.847
 X186.217 Y3.645 Z2.154 A4491.538
 X186.215 Y3.416 Z1.735 A4494.238
 X186.213 Y3.174 Z1.335 A4496.886
 X186.211 Y2.908 Z0.939 A4499.583
 X186.209 Y2.596 Z0.522 A4502.53
 X186.207 Y2.299 Z0.162 A4505.174
 X186.206 Y2.016 Z-0.151 A4507.56
 X186.204 Y1.718 Z-0.455 A4509.967
 X186.202 Y1.405 Z-0.749 A4512.4
 X186.2 Y1.061 Z-1.044 A4514.961
 Y0.694 Z-1.332 A4517.601
 X186.197 Y0.311 Z-1.603 A4520.257
 X186.195 Y-0.079 Z-1.854 A4522.878
 X186.193 Y-0.481 Z-2.088 A4525.512
 X186.191 Y-0.894 Z-2.302 A4528.145
 X186.189 Y-1.314 Z-2.497 A4530.764
 Y-1.599 Z-2.616 A4532.513
 X186.186 Y-2.069 Z-2.791 A4535.346
 X186.184 Y-2.433 Z-2.908 A4537.512
 X186.183 Y-2.801 Z-3.012 A4539.677
 X186.181 Y-3.173 Z-3.102 A4541.838
 X186.179 Y-3.662 Z-3.197 A4544.658
 X186.177 Y-4.117 Z-3.264 A4547.259
 X186.176 Y-4.572 Z-3.31 A4549.85
 X186.174 Y-5.032 Z-3.335 A4552.454
 X186.172 Y-5.489 Z-3.34 A4555.042
 X186.17 Y-5.945 Z-3.324 A4557.625
 X186.168 Y-6.402 Z-3.287 A4560.219
 X186.166 Y-6.852 Z-3.23 A4562.786
 X186.164 Y-7.355 Z-3.143 A4565.674
 X186.163 Y-7.704 Z-3.066 A4567.693
 X186.161 Y-8.214 Z-2.931 A4570.679
 X186.159 Y-8.672 Z-2.784 A4573.4
 X186.157 Y-9.097 Z-2.627 A4575.964
 X186.155 Y-9.508 Z-2.453 A4578.491
 X186.153 Y-9.921 Z-2.256 A4581.078
 X186.151 Y-10.318 Z-2.045 A4583.621
 X186.15 Y-10.573 Z-1.897 A4585.291
 X186.148 Y-11.019 Z-1.613 A4588.281
 X186.146 Y-11.349 Z-1.381 A4590.569
 Y-11.675 Z-1.131 A4592.89
 X186.143 Y-11.996 Z-0.865 A4595.25
 X186.141 Y-12.31 Z-0.581 A4597.642
 X186.14 Y-12.641 Z-0.254 A4600.276
 X186.138 Y-12.961 Z0.092 A4602.943
 X186.136 Y-13.264 Z0.454 A4605.617
 X186.134 Y-13.547 Z0.824 A4608.253
 X186.132 Y-13.816 Z1.212 A4610.92
 X186.13 Y-14.064 Z1.607 A4613.561
 X186.128 Y-14.293 Z2.013 A4616.2
 X186.126 Y-14.505 Z2.432 A4618.856
 X186.124 Y-14.707 Z2.887 A4621.671
 X186.122 Y-14.888 Z3.353 A4624.499
 X186.12 Y-15.043 Z3.816 A4627.263
 X186.118 Y-15.168 Z4.261 A4629.881
 Y-15.274 Z4.713 A4632.504
 X186.115 Y-15.358 Z5.168 A4635.121
 X186.113 Y-15.421 Z5.625 A4637.732
 X186.111 Y-15.464 Z6.084 A4640.34
 X186.109 Y-15.485 Z6.544 A4642.949
 X186.107 Y-15.486 Z7.004 A4645.549
 X186.105 Y-15.463 Z7.505 A4648.389
 Y-15.427 Z7.896 A4650.607
 X186.102 Y-15.377 Z8.282 A4652.813
 X186.1 Y-15.313 Z8.664 A4655.005
 X186.098 Y-15.208 Z9.153 A4657.832
 X186.097 Y-15.091 Z9.594 A4660.415
 X186.095 Y-14.956 Z10.026 A4662.973
 X186.093 Y-14.8 Z10.457 A4665.568
 X186.091 Y-14.626 Z10.876 A4668.134
 X186.089 Y-14.435 Z11.284 A4670.687
 X186.087 Y-14.224 Z11.686 A4673.256
 X186.086 Y-13.999 Z12.072 A4675.78
 X186.084 Y-13.762 Z12.442 A4678.267
 X186.082 Y-13.514 Z12.794 A4680.706
 X186.08 Y-13.255 Z13.13 A4683.105
 X186.078 Y-14.195 Z12.391 A4680.814
 X186.075 Y-15.298 Z11.441 A4678.022
 Y-15.486 Z11.27 A4677.536
 X186.072 Y-16.428 Z10.364 A4675.03
 X186.07 Y-17.268 Z9.486 A4672.701
 X186.067 Y-18.074 Z8.572 A4670.364
 X186.065 Y-18.843 Z7.623 A4668.023
 X186.062 Y-19.574 Z6.643 A4665.679
 X186.06 Y-20.264 Z5.633 A4663.333
 X186.057 Y-20.912 Z4.596 A4660.989
 X186.055 Y-21.517 Z3.535 A4658.648
 X186.052 Y-22.077 Z2.452 A4656.312
 X186.05 Y-22.59 Z1.351 A4653.982
 X186.048 Y-23.057 Z0.234 A4651.661
 X186.045 Y-23.476 Z-0.896 A4649.351
 X186.043 Y-23.848 Z-2.036 A4647.053
 Y-24.016 Z-2.609 A4645.907
 X186.039 Y-24.58 Z-1.72 A4648.796
 X186.036 Y-25.113 Z-0.777 A4651.767
 X186.034 Y-25.534 Z0.059 A4654.332
 X186.031 Y-25.924 Z0.932 A4656.953
 X186.029 Y-26.269 Z1.806 A4659.528
 X186.026 Y-26.579 Z2.711 A4662.152
 X186.024 Y-26.844 Z3.616 A4664.736
 X186.021 Y-27.071 Z4.547 A4667.363
 X186.019 Y-27.253 Z5.475 A4669.956
 X186.017 Y-27.394 Z6.424 A4672.586
 X186.014 Y-27.491 Z7.368 A4675.188
 X186.012 Y-27.546 Z8.327 A4677.821
 X186.009 Y-27.556 Z9.254 A4680.365
 X186.007 Y-27.525 Z10.191 A4682.933
 X186.004 Y-27.452 Z11.133 A4685.525
 X186.002 Y-27.334 Z12.078 A4688.137
 X186. Y-27.173 Z13.023 A4690.763
 X185.997 Y-26.967 Z13.964 A4693.405
 X185.995 Y-26.719 Z14.893 A4696.041
 X185.992 Y-26.427 Z15.812 A4698.685
 X185.99 Y-26.093 Z16.717 A4701.329
 X185.987 Y-25.718 Z17.606 A4703.977
 X185.985 Y-25.3 Z18.479 A4706.628
 X185.982 Y-24.844 Z19.331 A4709.279
 X185.98 Y-24.346 Z20.164 A4711.939
 X185.977 Y-23.812 Z20.971 A4714.593
 X185.975 Y-23.373 Z21.577 A4716.644
 X185.973 Y-22.915 Z22.165 A4718.688
 X185.971 Y-22.438 Z22.735 A4720.723
 X185.969 Y-21.944 Z23.284 A4722.749
 X185.967 Y-21.26 Z23.984 A4725.431
 X185.964 Y-20.55 Z24.645 A4728.092
 X185.962 Y-19.802 Z25.281 A4730.784
 X185.959 Y-19.032 Z25.874 A4733.448
 X185.957 Y-18.225 Z26.439 A4736.15
 X185.954 Y-17.402 Z26.958 A4738.816
 X185.952 Y-16.542 Z27.446 A4741.528
 X185.949 Y-15.674 Z27.887 A4744.198
 X185.947 Y-14.768 Z28.294 A4746.92
 X185.944 Y-13.861 Z28.651 A4749.594
 X185.942 Y-13.052 Z28.929 A4751.939
 X185.94 Y-12.247 Z29.17 A4754.243
 X185.938 Y-11.447 Z29.375 A4756.506
 X185.936 Y-10.655 Z29.546 A4758.728
 X185.933 Y-9.665 Z29.714 A4761.479
 X185.931 Y-8.694 Z29.832 A4764.163
 X185.928 Y-7.764 Z29.902 A4766.719
 X185.926 Y-6.81 Z29.931 A4769.336
 X185.923 Y-5.875 Z29.917 A4771.899
 X185.921 Y-4.921 Z29.859 A4774.52
 X185.918 Y-3.988 Z29.76 A4777.092
 X185.916 Y-3.042 Z29.616 A4779.716
 X185.914 Y-2.276 Z29.467 A4781.856
 X185.912 Y-1.505 Z29.286 A4784.027
 X185.91 Y-0.73 Z29.073 A4786.229
 X185.908 Y0.045 Z28.827 A4788.46
 X185.905 Y0.935 Z28.503 A4791.056
 X185.903 Y1.821 Z28.134 A4793.688
 X185.9 Y2.681 Z27.729 A4796.293
 X185.898 Y3.531 Z27.28 A4798.928
