%
O1 (5AXIS_POSTTEST)
G17
(--- Initialisation ---)
G0 G40 G49 G80 G21
(--- Go To Machine Origin ---)
G0 G53 Z0
G0 G53 X0 Y0 A0
G54
(Tool # 1 - Diameter 10. D1 H1)
T1 M6 D1 H1
S1000 M4
M8
G54
( ---- Start of Contour Text ----)
G0 G53 Z50  ; move up to tool_z_level
G0 G53 A-0
( ---------------------- )
( CONTOUR TEXT - PROFILE )
( ---------------------- )
G0 X0. Y70.507 Z50. A36.428
 A36.428
 Z37. A36.428
G1 Z35. A36.428 F250
 A39.104 F830
 Y69.738 A39.104 F500
 A28.086 F830
 Y70.507 A28.086 F500
 A30.442 F830
 Y70.541 A31.036 F826
 Y70.597 A31.311 F787
 Y70.691 A31.557 F701
 Y70.765 A31.668 F557
 Y70.85 A31.752 F423
 Y70.945 A31.807 F500
 Y71.057 A31.85
 Y71.172 A31.861
 Y71.21 A31.864
 Y83.103 A31.864
 Y83.418 A31.811
 Y83.596 A31.707 F275
 Y83.753 A31.533 F461
 Y83.841 A31.344 F657
 Y83.896 A31.123 F765
 Y83.952 A30.733 F808
 Y83.967 A30.334 F828
 Y83.969 A30.196 F830
 Y83.916 A29.303 F826
 Y83.835 A28.694 F810
 Y83.695 A28.114 F771
 Y83.502 A27.579 F711
 Y83.269 A27.087 F652
 Y83.001 A26.647 F584
 Y82.703 A26.266 F506
 Y82.21 A25.763 F434
 Y81.685 A25.358 F350
 Y81.108 A25.009 F284
 Y80.517 A24.737 F221
 Y79.933 A24.521 F180
 Y79.344 A24.356 F137
 Y79.161 A24.308 F500
 A23.049 F830
 Y84.738 A23.58 F47
 A43.59 F830
 Y79.161 A44.141 F49
 A42.882 F830
 Y80.07 A42.612 F146
 Y80.966 A42.244 F199
 Y81.515 A41.934 F266
 Y82.047 A41.552 F328
 Y82.347 A41.281 F397
 Y82.632 A40.968 F458
 Y83.119 A40.282 F536
 Y83.436 A39.664 F632
 Y83.691 A38.972 F707
 Y83.847 A38.321 F771
 Y83.94 A37.638 F809
 Y83.969 A36.94 F828
 Y83.937 A36.324 F827
 Y83.877 A36.004 F792
 Y83.773 A35.717 F713
 Y83.679 A35.561 F584
 Y83.567 A35.443 F444
 Y83.442 A35.368 F283
 Y83.31 A35.339 F500
 Y83.193 A35.326
 Y71.132 A35.326
 Y70.876 A35.396 F133
 Y70.73 A35.542 F428
 Y70.612 A35.747 F600
 Y70.558 A35.91 F728
 Y70.525 A36.087 F792
 Y70.513 A36.271 F825
 Y70.507 A36.428 F828
G0 Z50. A36.428
 Y79.738 A0.067
 Z37. A0.067
G1 Z35. A0.067 F250
 Y84.738 A0.382 F31
 A20.53 F830
 Y83.969 A20.53 F500
 A18.331 F830
 Y83.926 A17.66 F825
 Y83.858 A17.352 F778
 Y83.746 A17.081 F685
 Y83.626 A16.92 F522
 Y83.486 A16.813 F344
 Y83.334 A16.769 F500
 Y83.187 A16.753
 Y71.318 A16.753
 Y71.151 A16.78
 Y70.987 A16.849 F203
 Y70.866 A16.952 F377
 Y70.76 A17.096 F527
 Y70.675 A17.275 F652
 Y70.616 A17.479 F747
 Y70.549 A17.833 F792
 Y70.519 A18.199 F822
 Y70.507 A18.695 F829
 A20.53 F830
 Y69.738 A20.53 F500
 A-0.247 F830
 Y75.315 A-0.562 F28
 A0.697 F830
 Y74.452 A0.92 F127
 Y73.742 A1.215 F201
 Y73.05 A1.61 F269
 Y72.617 A1.945 F351
 Y72.205 A2.349 F422
 Y71.819 A2.817 F489
 Y71.51 A3.293 F564
 Y71.238 A3.828 F634
 Y71.007 A4.414 F694
 Y70.82 A5.042 F744
 Y70.681 A5.703 F784
 Y70.575 A6.46 F808
 Y70.526 A7.234 F825
 Y70.507 A7.898 F829
 A11.73 F830
 Y70.539 A12.367 F827
 Y70.587 A12.645 F798
 Y70.664 A12.903 F744
 Y70.748 A13.057 F614
 Y70.851 A13.175 F470
 Y70.967 A13.25 F302
 Y71.091 A13.28 F500
 Y71.168 A13.29
 Y77.046 A13.29
 A11.366 F830
 Y77.023 A10.763 F828
 Y76.949 A10.171 F812
 Y76.824 A9.603 F780
 Y76.627 A9.058 F711
 Y76.37 A8.586 F615
 Y76.105 A8.23 F521
 Y75.806 A7.957 F400
 Y75.422 A7.704 F306
 Y75.022 A7.534 F205
 Y74.402 A7.37 F130
 Y73.776 A7.308 F49
 A6.049 F830
 Y81.084 A6.049 F500
 A7.308 F830
 Y80.438 A7.385 F59
 Y79.8 A7.562 F136
 Y79.386 A7.767 F237
 Y78.988 A8.049 F326
 Y78.667 A8.383 F441
 Y78.383 A8.799 F548
 Y78.143 A9.285 F641
 Y77.997 A9.723 F726
 Y77.892 A10.193 F778
 Y77.831 A10.684 F813
 Y77.815 A11.184 F829
 A13.29 F830
 Y83.184 A13.29 F500
 Y83.489 A13.235
 Y83.625 A13.159 F261
 Y83.747 A13.03 F449
 Y83.845 A12.854 F608
 Y83.914 A12.643 F729
 Y83.955 A12.411 F796
 Y83.967 A12.169 F827
 Y83.969 A12.099 F829
 A7.234 F830
 Y83.928 A6.306 F828
 Y83.834 A5.588 F811
 Y83.675 A4.902 F774
 Y83.455 A4.264 F720
 Y83.179 A3.689 F648
 Y82.853 A3.191 F562
 Y82.485 A2.782 F462
 Y82.07 A2.422 F385
 Y81.637 A2.128 F313
 Y80.83 A1.705 F249
 Y80.003 A1.407 F176
 Y79.738 A1.327 F149
 A0.067 F830
G0 Z50. A0.067
 Y70.315 A-13.691
 Z37. A-13.691
G1 Z35. A-13.691 F250
 Y70.361 A-12.633 F828
 Y70.44 A-11.943 F815
 Y70.563 A-11.272 F794
 Y70.729 A-10.625 F763
 Y70.983 A-9.848 F729
 Y71.288 A-9.121 F681
 Y71.639 A-8.454 F625
 Y72.001 A-7.871 F578
 Y72.392 A-7.343 F523
 Y72.811 A-6.876 F463
 Y73.253 A-6.473 F399
 Y73.898 A-5.998 F336
 Y74.568 A-5.628 F262
 Y75.256 A-5.366 F185
 Y75.507 A-5.284 F158
 A-4.025 F830
 Y69.738 A-4.025 F500
 A-5.284 F830
 Y71.084 A-7.149 F531
 Y70.674 A-7.973 F640
 Y70.319 A-8.864 F692
 Y70.023 A-9.813 F737
 Y69.818 A-10.703 F775
 Y69.67 A-11.624 F802
 Y69.58 A-12.565 F820
 Y69.548 A-13.516 F829
 Y69.546 A-13.711 F830
 Y69.59 A-14.95 F828
 Y69.692 A-15.92 F817
 Y69.866 A-16.863 F794
 Y70.107 A-17.763 F758
 Y70.403 A-18.549 F703
 Y70.754 A-19.269 F645
 Y71.155 A-19.914 F577
 Y71.6 A-20.474 F501
 Y72.018 A-20.872 F413
 Y72.461 A-21.191 F330
 Y72.921 A-21.427 F244
 Y73.395 A-21.575 F154
 Y73.876 A-21.636 F62
 Y74.128 A-21.655 F500
 Y74.745 A-21.584 F57
 Y75.187 A-21.44 F159
 Y75.614 A-21.199 F267
 Y76.017 A-20.865 F370
 Y76.389 A-20.445 F466
 Y76.725 A-19.945 F554
 Y77.016 A-19.375 F632
 Y77.306 A-18.667 F687
 Y77.547 A-17.91 F734
 Y77.751 A-17.137 F760
 Y77.926 A-16.345 F779
 Y78.23 A-14.784 F790
 Y78.489 A-13.2 F801
 Y78.569 A-12.682 F804
 Y78.792 A-11.285 F802
 Y79.053 A-9.906 F792
 Y79.184 A-9.358 F772
 Y79.337 A-8.827 F748
 Y79.551 A-8.296 F689
 Y79.813 A-7.829 F607
 Y80.118 A-7.437 F508
 Y80.416 A-7.175 F388
 Y80.737 A-6.995 F265
 Y81.07 A-6.904 F135
 Y81.439 A-6.858 F500
 Y81.824 A-6.899
 Y82.202 A-7.033 F173
 Y82.563 A-7.257 F289
 Y82.902 A-7.566 F400
 Y83.217 A-7.976 F511
 Y83.497 A-8.452 F594
 Y83.736 A-8.986 F666
 Y83.91 A-9.542 F736
 Y84.039 A-10.13 F780
 Y84.121 A-10.742 F810
 Y84.155 A-11.365 F827
 Y84.161 A-11.684 F830
 Y84.119 A-12.575 F827
 Y84.06 A-13.148 F818
 Y83.963 A-13.706 F797
 Y83.829 A-14.243 F766
 Y83.573 A-15.022 F729
 Y83.257 A-15.739 F669
 Y82.887 A-16.379 F598
 Y82.546 A-16.861 F538
 Y82.181 A-17.291 F479
 Y81.794 A-17.664 F416
 Y81.064 A-18.239 F356
 Y80.304 A-18.696 F282
 Y79.463 A-19.089 F224
 Y79.353 A-19.136 F500
 A-20.395 F830
 Y84.738 A-20.395 F500
 A-19.136 F830
 Y83.392 A-17.631 F463
 Y83.927 A-16.562 F638
 Y84.187 A-15.936 F683
 Y84.415 A-15.276 F720
 Y84.608 A-14.587 F752
 Y84.789 A-13.668 F789
 Y84.896 A-12.718 F815
 Y84.93 A-11.753 F828
 Y84.891 A-10.648
 Y84.801 A-9.75 F819
 Y84.642 A-8.879 F794
 Y84.416 A-8.05 F756
 Y84.127 A-7.277 F705
 Y83.78 A-6.572 F642
 Y83.381 A-5.949 F569
 Y82.937 A-5.416 F485
 Y82.454 A-4.988 F391
 Y81.942 A-4.667 F293
 Y81.409 A-4.458 F190
 Y80.865 A-4.366 F84
 Y80.504 A-4.34 F500
 Y80.151 A-4.365
 Y79.799 A-4.426 F86
 Y79.377 A-4.575 F172
 Y78.969 A-4.812 F274
 Y78.582 A-5.133 F371
 Y78.223 A-5.533 F462
 Y77.936 A-5.954 F549
 Y77.682 A-6.433 F623
 Y77.622 A-6.553 F641
 Y77.4 A-7.107 F690
 Y77.211 A-7.694 F732
 Y77.002 A-8.459 F756
 Y76.824 A-9.247 F777
 Y76.592 A-10.441 F790
 Y76.397 A-11.654 F802
 Y76.339 A-12.038 F805
 Y75.966 A-14.468 F804
 Y75.655 A-16.1 F791
 Y75.495 A-16.739 F766
 Y75.298 A-17.348 F731
 Y75.031 A-17.936 F662
 Y74.706 A-18.438 F565
 Y74.392 A-18.76 F436
 Y74.047 A-18.979 F296
 Y73.684 A-19.088 F146
 Y73.332 A-19.136 F500
 Y72.708 A-19.033 F82
 Y72.363 A-18.885 F207
 Y72.033 A-18.658 F318
 Y71.726 A-18.356 F423
 Y71.342 A-17.858 F510
 Y71.009 A-17.267 F606
 Y70.735 A-16.597 F687
 Y70.529 A-15.864 F751
 Y70.393 A-15.087 F797
 Y70.333 A-14.284 F823
 Y70.315 A-13.691 F829
G0 Z50. A-13.691
 Y83.969 A-38.433
 Z37. A-38.433
G1 Z35. A-38.433 F250
 Y83.916 A-39.326 F826
 Y83.835 A-39.935 F810
 Y83.695 A-40.515 F771
 Y83.502 A-41.05 F711
 Y83.269 A-41.542 F652
 Y83.001 A-41.982 F584
 Y82.703 A-42.363 F506
 Y82.21 A-42.866 F434
 Y81.685 A-43.271 F350
 Y81.108 A-43.62 F284
 Y80.517 A-43.892 F221
 Y79.933 A-44.108 F180
 Y79.344 A-44.273 F137
 Y79.161 A-44.321 F500
 A-45.58 F830
 Y84.738 A-45.049 F47
 A-25.039 F830
 Y79.161 A-24.488 F49
 A-25.747 F830
 Y80.07 A-26.017 F146
 Y80.966 A-26.385 F199
 Y81.515 A-26.695 F266
 Y82.047 A-27.077 F328
 Y82.347 A-27.348 F397
 Y82.632 A-27.661 F458
 Y83.119 A-28.347 F536
 Y83.436 A-28.965 F632
 Y83.691 A-29.657 F707
 Y83.847 A-30.308 F771
 Y83.94 A-30.991 F809
 Y83.969 A-31.689 F828
 Y83.937 A-32.305 F827
 Y83.877 A-32.625 F792
 Y83.773 A-32.913 F713
 Y83.679 A-33.068 F584
 Y83.567 A-33.186 F444
 Y83.442 A-33.261 F283
 Y83.31 A-33.29 F500
 Y83.193 A-33.303
 Y71.132 A-33.303
 Y70.876 A-33.234 F133
 Y70.73 A-33.087 F428
 Y70.612 A-32.882 F600
 Y70.558 A-32.719 F728
 Y70.525 A-32.542 F792
 Y70.513 A-32.358 F825
 Y70.507 A-32.201 F828
 A-29.525 F830
 Y69.738 A-29.525 F500
 A-40.543 F830
 Y70.507 A-40.543 F500
 A-38.187 F830
 Y70.541 A-37.594 F826
 Y70.597 A-37.318 F787
 Y70.691 A-37.073 F701
 Y70.765 A-36.961 F557
 Y70.85 A-36.877 F423
 Y70.945 A-36.823 F500
 Y71.057 A-36.779
 Y71.172 A-36.768
 Y71.21 A-36.766
 Y83.103 A-36.766
 Y83.418 A-36.818
 Y83.596 A-36.922 F275
 Y83.753 A-37.096 F461
 Y83.841 A-37.285 F657
 Y83.896 A-37.506 F765
 Y83.952 A-37.896 F808
 Y83.967 A-38.295 F828
 Y83.969 A-38.433 F830
G0 Z50. A-38.433
( ---- End of Contour Text ----)
G0 G53 Z0 M9
G0 G53 X0 Y0 A0 M5
M30
%