%
O1 (5AXIS)
G17
(--- Initialisation ---)
G0 G40 G49 G80 G21
(--- Go To Machine Origin ---)
G0 G53 Z0
G0 G53 X0 Y0 A0
G54 A-0
(Tool # 1 - Diameter 5. D1 H1)
T1 M6 D1 H1
S1000 M4
M8
G54 A-0
( ---- Start of 4X-PC-faces ----)
G0 G53 Z123  ; move up to tool_z_level
G0 A-0
( ------------------------------ )
( 4X-PC-FACES - 4X-PARALLEL-CUTS )
( ------------------------------ )
G0 X191.369 Y-23.547 Z32.335 A-31.732
 Y-23.547 Z7.344 A-31.732
G1 Y-23.547 Z5.344 A-31.732 F1000
 Y-23.721 Z5.636 A-30.551 F1500
 Y-24.082 Z6.289 A-27.954
 Y-24.413 Z6.957 A-25.361
 Y-24.714 Z7.641 A-22.764
 Y-24.984 Z8.338 A-20.164
 Y-25.222 Z9.048 A-17.561
 Y-25.427 Z9.767 A-14.959
 Y-25.6 Z10.496 A-12.354
 Y-25.74 Z11.232 A-9.747
 Y-25.846 Z11.974 A-7.139
 Y-25.918 Z12.722 A-4.529
 Y-25.956 Z13.472 A-1.916
 Y-25.96 Z14.223 A0.698
 Y-25.93 Z14.974 A3.311
 Y-25.867 Z15.705 A5.862
 Y-25.773 Z16.428 A8.4
 Y-25.641 Z17.171 A11.025
 Y-25.476 Z17.908 A13.649
 Y-25.277 Z18.636 A16.273
 Y-25.046 Z19.353 A18.895
 Y-24.78 Z20.062 A21.529
 Y-24.482 Z20.758 A24.162
 Y-24.153 Z21.44 A26.793
 Y-23.794 Z22.104 A29.421
 Y-23.401 Z22.755 A32.065
 Y-22.98 Z23.387 A34.708
 Y-22.53 Z23.999 A37.347
 Y-22.054 Z24.587 A39.981
 Y-21.547 Z25.158 A42.636
 Y-21.105 Z25.615 A44.845
 Y-20.558 Z26.135 A47.472
 Y-20.084 Z26.548 A49.658
 Y-19.491 Z27.023 A52.3
 Y-18.871 Z27.475 A54.97
 Y-18.231 Z27.897 A57.635
 Y-17.588 Z28.279 A60.236
 Y-16.937 Z28.628 A62.807
 Y-16.276 Z28.945 A65.356
 Y-15.598 Z29.233 A67.917
 Y-14.906 Z29.492 A70.487
 Y-14.201 Z29.72 A73.064
 Y-13.491 Z29.914 A75.625
 Y-12.857 Z30.06 A77.887
 Y-12.458 Z30.138 A79.299
 Y-12.054 Z30.207 A80.727
 Y-11.4 Z30.297 A83.021
 Y-10.66 Z30.366 A85.607
 Y-9.921 Z30.402 A88.18
 Y-9.179 Z30.405 A90.76
 Y-8.436 Z30.375 A93.346
 Y-7.694 Z30.31 A95.937
 Y-6.958 Z30.213 A98.52
 Y-6.225 Z30.082 A101.108
 Y-5.498 Z29.918 A103.702
 Y-4.778 Z29.721 A106.298
 Y-4.069 Z29.491 A108.89
 Y-3.369 Z29.23 A111.487
 Y-2.682 Z28.937 A114.086
 Y-2.008 Z28.612 A116.689
 Y-1.43 Z28.303 A118.966
 Y-0.864 Z27.971 A121.251
 Y-0.442 Z27.703 A122.987
 Y0.175 Z27.277 A125.594
 Y0.772 Z26.824 A128.202
 Y1.348 Z26.343 A130.813
 Y1.903 Z25.836 A133.426
 Y2.434 Z25.305 A136.04
 Y2.94 Z24.749 A138.653
 Y3.421 Z24.17 A141.273
 Y3.876 Z23.569 A143.894
 Y4.303 Z22.948 A146.515
 Y4.7 Z22.308 A149.134
 Y5.069 Z21.648 A151.763
 Y5.408 Z20.973 A154.392
 Y5.715 Z20.282 A157.02
 Y5.99 Z19.579 A159.645
 Y6.17 Z19.059 A161.56
 Y6.331 Z18.538 A163.456
 Y6.527 Z17.804 A166.099
 Y6.688 Z17.062 A168.74
 Y6.815 Z16.314 A171.378
 Y6.907 Z15.562 A174.012
 Y6.965 Z14.801 A176.666
 Y6.987 Z14.04 A179.317
 Y6.975 Z13.279 A181.963
 Y6.927 Z12.521 A184.604
 Y6.844 Z11.759 A187.27
 Y6.725 Z11.003 A189.932
 Y6.572 Z10.255 A192.588
 Y6.385 Z9.517 A195.236
 Y5.663 Z9.562 A193.196
 Y4.935 Z9.582 A191.141
 Y4.202 Z9.575 A189.072
 Y3.464 Z9.542 A186.988
 Y2.628 Z9.471 A184.621
 Y1.79 Z9.366 A182.24
 Y1.044 Z9.242 A180.106
 Y0.301 Z9.089 A177.964
 Y-0.439 Z8.909 A175.816
 Y-1.173 Z8.7 A173.663
 Y-1.976 Z8.436 A171.278
 Y-2.769 Z8.14 A168.891
 Y-3.469 Z7.845 A166.749
 Y-4.157 Z7.526 A164.608
 Y-4.831 Z7.181 A162.471
 Y-5.491 Z6.812 A160.337
 Y-6.217 Z6.367 A157.935
 Y-6.921 Z5.894 A155.542
 Y-7.512 Z5.464 A153.482
 Y-8.083 Z5.015 A151.431
 Y-8.635 Z4.548 A149.392
 Y-9.167 Z4.065 A147.365
 Y-9.779 Z3.464 A144.945
 Y-10.36 Z2.844 A142.546
 Y-10.479 Z2.998 A144.3
 Y-10.594 Z3.159 A146.078
 Y-10.705 Z3.325 A147.878
 Y-10.813 Z3.497 A149.702
 Y-10.911 Z3.665 A151.454
 Y-11.004 Z3.838 A153.226
 Y-11.094 Z4.016 A155.016
 Y-11.218 Z4.289 A157.717
 Y-11.308 Z4.512 A159.88
 Y-11.367 Z4.673 A161.424
 Y-11.422 Z4.837 A162.98
 Y-11.473 Z5.003 A164.547
 Y-11.52 Z5.172 A166.124
 Y-11.562 Z5.343 A167.71
 Y-11.6 Z5.517 A169.306
 Y-11.636 Z5.707 A171.053
 Y-11.666 Z5.9 A172.81
 Y-11.69 Z6.095 A174.575
 Y-11.709 Z6.291 A176.349
 Y-11.721 Z6.485 A178.094
 Y-11.727 Z6.679 A179.845
 Y-11.727 Z6.874 A181.602
 Y-11.722 Z7.07 A183.364
 Y-11.71 Z7.263 A185.107
 Y-11.693 Z7.457 A186.854
 Y-11.669 Z7.65 A188.603
 Y-11.62 Z7.956 A191.394
 Y-11.573 Z8.183 A193.477
 Y-11.518 Z8.407 A195.559
 Y-11.455 Z8.63 A197.638
 Y-11.359 Z8.923 A200.416
 Y-11.291 Z9.103 A202.152
 Y-11.219 Z9.281 A203.883
 Y-11.141 Z9.457 A205.608
 Y-11.057 Z9.631 A207.347
 Y-10.969 Z9.802 A209.078
 Y-10.875 Z9.969 A210.801
 Y-10.778 Z10.132 A212.515
 Y-10.674 Z10.295 A214.252
 Y-10.566 Z10.453 A215.978
 Y-10.454 Z10.608 A217.693
 Y-10.338 Z10.757 A219.396
 Y-10.199 Z10.925 A221.355
 Y-10.056 Z11.086 A223.296
 Y-9.909 Z11.242 A225.219
 Y-9.759 Z11.39 A227.122
 Y-9.618 Z11.521 A228.856
 Y-9.474 Z11.646 A230.571
 Y-9.328 Z11.766 A232.269
 Y-9.181 Z11.88 A233.948
 Y-9.025 Z11.993 A235.679
 Y-8.868 Z12.1 A237.39
 Y-8.71 Z12.201 A239.079
 Y-8.55 Z12.297 A240.75
 Y-8.409 Z12.376 A242.212
 Y-8.115 Z12.527 A245.182
 Y-7.963 Z12.597 A246.691
 Y-7.807 Z12.664 A248.215
 Y-7.648 Z12.728 A249.755
 Y-7.486 Z12.788 A251.309
 Y-7.321 Z12.844 A252.878
 Y-7.135 Z12.901 A254.628
 Y-6.946 Z12.952 A256.395
 Y-6.753 Z12.999 A258.178
 Y-6.558 Z13.039 A259.976
 Y-6.366 Z13.073 A261.725
 Y-6.173 Z13.101 A263.487
 Y-5.977 Z13.123 A265.26
 Y-5.779 Z13.139 A267.046
 Y-5.585 Z13.149 A268.793
 Y-5.39 Z13.153 A270.549
 Y-5.194 Z13.151 A272.314
 Y-4.997 Z13.142 A274.087
 Y-4.798 Z13.128 A275.887
 Y-4.598 Z13.107 A277.694
 Y-4.398 Z13.08 A279.507
 Y-4.199 Z13.046 A281.324
 Y-4.009 Z13.008 A283.068
 Y-3.821 Z12.964 A284.814
 Y-3.633 Z12.914 A286.562
 Y-3.447 Z12.858 A288.311
 Y-3.263 Z12.797 A290.053
 Y-3.081 Z12.731 A291.794
 Y-2.902 Z12.659 A293.534
 Y-2.725 Z12.581 A295.272
 Y-2.55 Z12.499 A297.012
 Y-2.378 Z12.411 A298.749
 Y-2.21 Z12.318 A300.48
 Y-1.943 Z12.158 A303.278
 Y-1.746 Z12.027 A305.412
 Y-1.554 Z11.889 A307.535
 Y-1.369 Z11.745 A309.644
 Y-1.133 Z11.545 A312.43
 Y-0.991 Z11.416 A314.156
 Y-0.855 Z11.283 A315.87
 Y-0.723 Z11.147 A317.572
 Y-0.593 Z11.005 A319.307
 Y-0.469 Z10.86 A321.028
 Y-0.349 Z10.712 A322.734
 Y-0.236 Z10.563 A324.425
 Y-0.127 Z10.41 A326.115
 Y-0.023 Z10.256 A327.788
 Y0.075 Z10.1 A329.444
 Y0.167 Z9.943 A331.083
 Y0.255 Z9.785 A332.703
 Y0.336 Z9.627 A334.305
 Y0.413 Z9.469 A335.889
 Y0.484 Z9.31 A337.454
 Y-0.227 Z9.145 A335.415
 Y-0.936 Z8.954 A333.359
 Y-1.643 Z8.736 A331.29
 Y-2.346 Z8.491 A329.207
 Y-3.134 Z8.181 A326.839
 Y-3.913 Z7.837 A324.458
 Y-4.598 Z7.502 A322.324
 Y-5.273 Z7.14 A320.182
 Y-5.936 Z6.752 A318.034
 Y-6.585 Z6.338 A315.881
 Y-7.285 Z5.851 A313.496
 Y-7.965 Z5.336 A311.109
 Y-8.557 Z4.849 A308.967
 Y-9.129 Z4.341 A306.826
 Y-9.682 Z3.813 A304.689
 Y-10.213 Z3.266 A302.556
 Y-10.786 Z2.626 A300.153
 Y-11.33 Z1.966 A297.76
 Y-11.776 Z1.38 A295.7
 Y-12.199 Z0.781 A293.649
 Y-12.598 Z0.17 A291.61
 Y-12.972 Z-0.45 A289.583
 Y-13.39 Z-1.208 A287.163
 Y-13.773 Z-1.975 A284.764
 Y-14.413 Z-1.789 A287.083
 Y-15.062 Z-1.571 A289.463
 Y-15.746 Z-1.307 A292.015
 Y-16.421 Z-1.012 A294.577
 Y-17.085 Z-0.686 A297.149
 Y-17.735 Z-0.329 A299.727
 Y-18.364 Z0.054 A302.29
 Y-18.978 Z0.466 A304.861
 Y-19.575 Z0.906 A307.44
 Y-20.152 Z1.375 A310.025
 Y-20.705 Z1.866 A312.598
 Y-21.237 Z2.383 A315.178
 Y-21.746 Z2.925 A317.764
 Y-22.231 Z3.49 A320.355
 Y-22.653 Z4.028 A322.731
 Y-23.056 Z4.588 A325.134
 Y-23.331 Z5. A326.855
 Y-23.547 Z5.344 A328.268
 X191.341 Y-23.905 Z5.961 A330.748
 X191.312 Y-24.252 Z6.621 A333.342
 X191.284 Y-24.567 Z7.297 A335.937
 X191.255 Y-24.853 Z7.988 A338.536
 X191.226 Y-25.107 Z8.692 A341.138
 X191.197 Y-25.329 Z9.406 A343.74
 X191.168 Y-25.518 Z10.13 A346.343
 X191.139 Y-25.674 Z10.863 A348.949
 X191.11 Y-25.797 Z11.603 A351.557
 X191.081 Y-25.886 Z12.348 A354.166
 X191.052 Y-25.941 Z13.096 A356.778
 X191.023 Y-25.962 Z13.848 A359.391
 X190.994 Y-25.949 Z14.599 A362.005
 X190.965 Y-25.903 Z15.34 A364.587
 X190.937 Y-25.824 Z16.067 A367.131
 X190.908 Y-25.711 Z16.801 A369.712
 X190.879 Y-25.563 Z17.541 A372.337
 X190.85 Y-25.381 Z18.273 A374.961
 X190.821 Y-25.166 Z18.996 A377.584
 X190.791 Y-24.917 Z19.709 A380.212
 X190.762 Y-24.635 Z20.412 A382.846
 X190.733 Y-24.322 Z21.101 A385.478
 X190.704 Y-23.977 Z21.774 A388.107
 X190.674 Y-23.601 Z22.432 A390.743
 X190.645 Y-23.194 Z23.074 A393.387
 X190.616 Y-22.759 Z23.696 A396.027
 X190.586 Y-22.295 Z24.296 A398.664
 X190.557 Y-21.804 Z24.876 A401.309
 X190.53 Y-21.328 Z25.389 A403.741
 X190.503 Y-20.834 Z25.878 A406.158
 X190.476 Y-20.323 Z26.344 A408.565
 X190.449 Y-19.79 Z26.789 A410.979
 X190.42 Y-19.183 Z27.253 A413.635
 X190.39 Y-18.553 Z27.69 A416.302
 X190.361 Y-17.912 Z28.092 A418.935
 X190.332 Y-17.264 Z28.457 A421.521
 X190.304 Y-16.608 Z28.79 A424.081
 X190.275 Y-15.938 Z29.093 A426.637
 X190.247 Y-15.253 Z29.366 A429.202
 X190.218 Y-14.555 Z29.61 A431.775
 X190.19 Y-13.847 Z29.821 A434.345
 X190.163 Y-13.174 Z29.99 A436.756
 X190.135 Y-12.458 Z30.138 A439.299
 X190.106 Y-11.727 Z30.255 A441.874
 X190.079 Y-11.03 Z30.336 A444.314
 X190.05 Y-10.291 Z30.389 A446.893
 X190.021 Y-9.55 Z30.408 A449.47
 X189.993 Y-8.807 Z30.394 A452.053
 X189.964 Y-8.065 Z30.347 A454.642
 X189.935 Y-7.325 Z30.266 A457.229
 X189.906 Y-6.591 Z30.152 A459.814
 X189.878 Y-5.86 Z30.004 A462.405
 X189.849 Y-5.136 Z29.823 A465.
 X189.82 Y-4.422 Z29.61 A467.594
 X189.791 Y-3.717 Z29.365 A470.188
 X189.762 Y-3.024 Z29.087 A472.786
 X189.733 Y-2.343 Z28.779 A475.387
 X189.706 Y-1.717 Z28.461 A477.828
 X189.681 Y-1.145 Z28.14 A480.109
 X189.659 Y-0.652 Z27.839 A482.119
 X189.634 Y-0.131 Z27.494 A484.291
 X189.605 Y0.476 Z27.054 A486.898
 X189.576 Y1.063 Z26.587 A489.508
 X189.547 Y1.629 Z26.093 A492.12
 X189.518 Y2.172 Z25.574 A494.733
 X189.489 Y2.69 Z25.03 A497.347
 X189.46 Y3.184 Z24.462 A499.963
 X189.431 Y3.653 Z23.872 A502.584
 X189.402 Y4.093 Z23.261 A505.204
 X189.373 Y4.505 Z22.63 A507.824
 X189.344 Y4.889 Z21.981 A510.448
 X189.314 Y5.243 Z21.313 A513.078
 X189.285 Y5.566 Z20.629 A515.706
 X189.256 Y5.857 Z19.933 A518.332
 X189.231 Y6.083 Z19.32 A520.603
 X189.199 Y6.331 Z18.538 A523.456
 X189.17 Y6.527 Z17.804 A526.099
 X189.14 Y6.688 Z17.062 A528.74
 X189.111 Y6.815 Z16.314 A531.378
 X189.082 Y6.907 Z15.562 A534.012
 X189.052 Y6.965 Z14.802 A536.666
 X189.023 Y6.988 Z14.04 A539.317
 X188.993 Y6.975 Z13.279 A541.963
 X188.964 Y6.928 Z12.521 A544.604
 X188.934 Y6.844 Z11.759 A547.27
 X188.905 Y6.726 Z11.003 A549.932
 X188.875 Y6.572 Z10.255 A552.588
 X188.846 Y6.385 Z9.517 A555.236
 X188.829 Y5.664 Z9.562 A553.196
 X188.813 Y4.936 Z9.582 A551.141
 X188.796 Y4.202 Z9.575 A549.072
 X188.779 Y3.464 Z9.542 A546.988
 X188.76 Y2.628 Z9.472 A544.621
 X188.741 Y1.791 Z9.366 A542.24
 X188.723 Y1.045 Z9.242 A540.106
 X188.706 Y0.301 Z9.089 A537.964
 X188.689 Y-0.439 Z8.909 A535.816
 X188.671 Y-1.173 Z8.7 A533.663
 X188.652 Y-1.976 Z8.437 A531.278
 X188.632 Y-2.768 Z8.14 A528.891
 X188.615 Y-3.468 Z7.846 A526.749
 X188.598 Y-4.156 Z7.526 A524.608
 X188.58 Y-4.831 Z7.181 A522.471
 X188.563 Y-5.491 Z6.812 A520.337
 X188.544 Y-6.217 Z6.367 A517.935
 X188.524 Y-6.921 Z5.894 A515.542
 X188.508 Y-7.511 Z5.464 A513.482
 X188.491 Y-8.083 Z5.015 A511.431
 X188.475 Y-8.635 Z4.548 A509.392
 X188.458 Y-9.167 Z4.065 A507.365
 X188.439 Y-9.779 Z3.464 A504.945
 X188.419 Y-10.36 Z2.844 A502.546
 X188.404 Y-10.536 Z3.079 A505.189
 X188.39 Y-10.705 Z3.326 A507.878
 X188.375 Y-10.862 Z3.581 A510.578
 X188.36 Y-11.004 Z3.839 A513.226
 X188.35 Y-11.093 Z4.016 A515.016
 X188.335 Y-11.217 Z4.29 A517.717
 X188.319 Y-11.337 Z4.593 A520.652
 X188.306 Y-11.422 Z4.837 A522.98
 X188.293 Y-11.497 Z5.088 A525.335
 X188.28 Y-11.562 Z5.344 A527.71
 X188.266 Y-11.618 Z5.612 A530.18
 X188.251 Y-11.665 Z5.901 A532.81
 X188.237 Y-11.7 Z6.193 A535.462
 X188.222 Y-11.72 Z6.485 A538.094
 X188.207 Y-11.727 Z6.777 A540.724
 X188.193 Y-11.721 Z7.07 A543.364
 X188.178 Y-11.701 Z7.361 A545.981
 X188.164 Y-11.669 Z7.65 A548.603
 X188.148 Y-11.619 Z7.956 A551.394
 X188.137 Y-11.572 Z8.183 A553.477
 X188.125 Y-11.518 Z8.408 A555.559
 X188.113 Y-11.455 Z8.63 A557.638
 X188.098 Y-11.358 Z8.923 A560.416
 X188.084 Y-11.255 Z9.193 A563.018
 X188.069 Y-11.14 Z9.457 A565.608
 X188.055 Y-11.013 Z9.717 A568.212
 X188.04 Y-10.875 Z9.969 A570.801
 X188.026 Y-10.726 Z10.214 A573.383
 X188.012 Y-10.565 Z10.454 A575.978
 X187.998 Y-10.396 Z10.683 A578.544
 X187.982 Y-10.199 Z10.925 A581.355
 X187.966 Y-9.983 Z11.165 A584.258
 X187.95 Y-9.758 Z11.391 A587.122
 X187.936 Y-9.545 Z11.585 A589.713
 X187.921 Y-9.327 Z11.766 A592.269
 X187.907 Y-9.102 Z11.938 A594.814
 X187.893 Y-8.867 Z12.101 A597.39
 X187.879 Y-8.63 Z12.25 A599.915
 X187.866 Y-8.408 Z12.377 A602.212
 X187.85 Y-8.114 Z12.527 A605.182
 X187.837 Y-7.885 Z12.632 A607.453
 X187.824 Y-7.648 Z12.728 A609.755
 X187.811 Y-7.403 Z12.817 A612.093
 X187.797 Y-7.135 Z12.901 A614.628
 X187.783 Y-6.849 Z12.977 A617.287
 X187.768 Y-6.557 Z13.04 A619.976
 X187.753 Y-6.269 Z13.088 A622.606
 X187.738 Y-5.976 Z13.123 A625.26
 X187.724 Y-5.681 Z13.145 A627.919
 X187.709 Y-5.389 Z13.153 A630.549
 X187.694 Y-5.095 Z13.148 A633.2
 X187.679 Y-4.797 Z13.128 A635.887
 X187.664 Y-4.497 Z13.094 A638.601
 X187.649 Y-4.199 Z13.046 A641.324
 X187.635 Y-3.914 Z12.987 A643.941
 X187.62 Y-3.632 Z12.914 A646.562
 X187.606 Y-3.354 Z12.829 A649.182
 X187.591 Y-3.08 Z12.731 A651.794
 X187.577 Y-2.812 Z12.621 A654.403
 X187.562 Y-2.549 Z12.499 A657.012
 X187.548 Y-2.293 Z12.365 A659.615
 X187.535 Y-2.075 Z12.24 A661.879
 X187.521 Y-1.843 Z12.093 A664.345
 X187.51 Y-1.649 Z11.959 A666.473
 X187.498 Y-1.46 Z11.819 A668.589
 X187.484 Y-1.249 Z11.647 A671.037
 X187.472 Y-1.061 Z11.482 A673.293
 X187.458 Y-0.854 Z11.284 A675.87
 X187.443 Y-0.657 Z11.077 A678.44
 X187.429 Y-0.468 Z10.86 A681.028
 X187.415 Y-0.291 Z10.638 A683.579
 X187.401 Y-0.126 Z10.41 A686.115
 X187.387 Y0.027 Z10.179 A688.616
 X187.373 Y0.168 Z9.943 A691.083
 X187.36 Y0.297 Z9.707 A693.504
 X187.346 Y0.413 Z9.469 A695.889
 X187.338 Y0.484 Z9.31 A697.454
 X187.321 Y-0.226 Z9.146 A695.415
 X187.305 Y-0.936 Z8.955 A693.359
 X187.288 Y-1.643 Z8.736 A691.29
 X187.271 Y-2.346 Z8.491 A689.207
 X187.252 Y-3.134 Z8.182 A686.839
 X187.233 Y-3.913 Z7.838 A684.458
 X187.215 Y-4.598 Z7.502 A682.324
 X187.198 Y-5.273 Z7.14 A680.182
 X187.181 Y-5.935 Z6.752 A678.034
 X187.163 Y-6.584 Z6.338 A675.881
 X187.144 Y-7.285 Z5.852 A673.496
 X187.124 Y-7.965 Z5.336 A671.109
 X187.107 Y-8.556 Z4.849 A668.967
 X187.09 Y-9.129 Z4.342 A666.826
 X187.072 Y-9.681 Z3.813 A664.689
 X187.055 Y-10.212 Z3.266 A662.556
 X187.036 Y-10.786 Z2.627 A660.153
 X187.016 Y-11.33 Z1.966 A657.76
 X187. Y-11.776 Z1.38 A655.7
 X186.983 Y-12.198 Z0.781 A653.649
 X186.967 Y-12.597 Z0.17 A651.61
 X186.95 Y-12.972 Z-0.45 A649.583
 X186.931 Y-13.39 Z-1.207 A647.163
 X186.911 Y-13.772 Z-1.975 A644.764
 X186.885 Y-14.412 Z-1.788 A647.083
 X186.859 Y-15.061 Z-1.57 A649.463
 X186.831 Y-15.746 Z-1.307 A652.015
 X186.802 Y-16.421 Z-1.012 A654.577
 X186.773 Y-17.084 Z-0.686 A657.149
 X186.745 Y-17.734 Z-0.329 A659.727
 X186.716 Y-18.364 Z0.054 A662.29
 X186.688 Y-18.977 Z0.466 A664.861
 X186.659 Y-19.574 Z0.907 A667.44
 X186.63 Y-20.151 Z1.375 A670.025
 X186.602 Y-20.704 Z1.867 A672.598
 X186.573 Y-21.236 Z2.384 A675.178
 X186.544 Y-21.745 Z2.926 A677.764
 X186.516 Y-22.23 Z3.491 A680.355
 X186.489 Y-22.652 Z4.028 A682.731
 X186.462 Y-23.055 Z4.589 A685.134
 X186.435 Y-23.439 Z5.172 A687.562
 X186.428 Y-23.546 Z5.345 A688.268
 X186.4 Y-23.905 Z5.961 A690.747
 X186.371 Y-24.252 Z6.621 A693.342
 X186.342 Y-24.567 Z7.297 A695.937
 X186.313 Y-24.853 Z7.988 A698.536
 X186.284 Y-25.107 Z8.692 A701.138
 X186.256 Y-25.329 Z9.406 A703.74
 X186.227 Y-25.518 Z10.13 A706.343
 X186.198 Y-25.674 Z10.863 A708.949
 X186.169 Y-25.797 Z11.603 A711.557
 X186.14 Y-25.886 Z12.348 A714.166
 X186.111 Y-25.941 Z13.096 A716.778
 X186.082 Y-25.962 Z13.848 A719.391
 X186.052 Y-25.949 Z14.599 A722.005
 X186.024 Y-25.903 Z15.34 A724.587
 X185.996 Y-25.824 Z16.067 A727.131
 X185.967 Y-25.711 Z16.801 A729.712
 X185.938 Y-25.563 Z17.541 A732.337
 X185.908 Y-25.381 Z18.273 A734.961
 X185.879 Y-25.166 Z18.996 A737.584
 X185.85 Y-24.917 Z19.709 A740.212
 X185.821 Y-24.635 Z20.412 A742.846
 X185.792 Y-24.322 Z21.101 A745.478
 X185.762 Y-23.977 Z21.774 A748.107
 X185.733 Y-23.601 Z22.432 A750.743
 X185.704 Y-23.194 Z23.074 A753.387
 X185.674 Y-22.759 Z23.696 A756.027
 X185.645 Y-22.295 Z24.296 A758.664
 X185.616 Y-21.804 Z24.876 A761.309
 X185.589 Y-21.328 Z25.389 A763.741
 X185.562 Y-20.834 Z25.878 A766.158
 X185.535 Y-20.323 Z26.344 A768.565
 X185.508 Y-19.79 Z26.789 A770.979
 X185.479 Y-19.183 Z27.253 A773.635
 X185.449 Y-18.553 Z27.69 A776.302
 X185.42 Y-17.912 Z28.092 A778.935
 X185.391 Y-17.264 Z28.457 A781.521
 X185.362 Y-16.608 Z28.79 A784.081
 X185.334 Y-15.938 Z29.093 A786.637
 X185.306 Y-15.253 Z29.366 A789.202
 X185.277 Y-14.555 Z29.61 A791.775
 X185.248 Y-13.847 Z29.821 A794.345
 X185.222 Y-13.174 Z29.99 A796.756
 X185.193 Y-12.458 Z30.138 A799.299
 X185.165 Y-11.727 Z30.255 A801.874
 X185.138 Y-11.03 Z30.336 A804.314
 X185.109 Y-10.291 Z30.389 A806.893
 X185.08 Y-9.55 Z30.408 A809.47
 X185.052 Y-8.807 Z30.394 A812.053
 X185.023 Y-8.065 Z30.347 A814.642
 X184.994 Y-7.325 Z30.266 A817.229
 X184.965 Y-6.591 Z30.152 A819.814
 X184.936 Y-5.86 Z30.004 A822.405
 X184.908 Y-5.136 Z29.823 A825.
 X184.879 Y-4.422 Z29.61 A827.594
 X184.85 Y-3.717 Z29.365 A830.188
 X184.821 Y-3.024 Z29.087 A832.786
 X184.792 Y-2.343 Z28.779 A835.387
 X184.765 Y-1.717 Z28.461 A837.828
 X184.74 Y-1.145 Z28.14 A840.109
 X184.717 Y-0.652 Z27.839 A842.119
 X184.693 Y-0.131 Z27.494 A844.291
 X184.664 Y0.476 Z27.054 A846.898
 X184.635 Y1.063 Z26.587 A849.508
 X184.606 Y1.629 Z26.093 A852.12
 X184.577 Y2.172 Z25.574 A854.733
 X184.548 Y2.69 Z25.03 A857.347
 X184.519 Y3.184 Z24.462 A859.963
 X184.49 Y3.653 Z23.872 A862.584
 X184.461 Y4.093 Z23.261 A865.204
 X184.432 Y4.505 Z22.63 A867.824
 X184.402 Y4.889 Z21.981 A870.448
 X184.373 Y5.243 Z21.313 A873.078
 X184.344 Y5.566 Z20.629 A875.706
 X184.315 Y5.857 Z19.933 A878.332
 X184.29 Y6.083 Z19.32 A880.603
 X184.258 Y6.331 Z18.538 A883.456
 X184.228 Y6.527 Z17.804 A886.099
 X184.199 Y6.688 Z17.062 A888.74
 X184.17 Y6.815 Z16.314 A891.378
 X184.14 Y6.907 Z15.562 A894.012
 X184.111 Y6.965 Z14.802 A896.666
 X184.081 Y6.988 Z14.04 A899.317
 X184.052 Y6.975 Z13.279 A901.963
 X184.023 Y6.928 Z12.521 A904.604
 X183.993 Y6.844 Z11.759 A907.27
 X183.963 Y6.726 Z11.003 A909.932
 X183.934 Y6.572 Z10.255 A912.588
 X183.905 Y6.385 Z9.517 A915.236
 X183.888 Y5.664 Z9.562 A913.196
 X183.871 Y4.936 Z9.582 A911.141
 X183.855 Y4.202 Z9.575 A909.072
 X183.838 Y3.464 Z9.542 A906.989
 X183.819 Y2.628 Z9.472 A904.621
 X183.799 Y1.791 Z9.366 A902.24
 X183.782 Y1.045 Z9.242 A900.106
 X183.765 Y0.301 Z9.089 A897.964
 X183.747 Y-0.439 Z8.909 A895.816
 X183.73 Y-1.173 Z8.7 A893.663
 X183.711 Y-1.976 Z8.437 A891.278
 X183.691 Y-2.768 Z8.14 A888.891
 X183.674 Y-3.468 Z7.846 A886.749
 X183.657 Y-4.156 Z7.526 A884.608
 X183.639 Y-4.831 Z7.181 A882.471
 X183.622 Y-5.491 Z6.812 A880.337
 X183.603 Y-6.217 Z6.367 A877.935
 X183.583 Y-6.921 Z5.894 A875.542
 X183.566 Y-7.511 Z5.464 A873.482
 X183.55 Y-8.083 Z5.015 A871.431
 X183.533 Y-8.635 Z4.548 A869.392
 X183.517 Y-9.167 Z4.065 A867.365
 X183.497 Y-9.779 Z3.464 A864.945
 X183.478 Y-10.36 Z2.844 A862.546
 X183.463 Y-10.536 Z3.079 A865.189
 X183.448 Y-10.705 Z3.326 A867.878
 X183.433 Y-10.862 Z3.581 A870.578
 X183.419 Y-11.004 Z3.839 A873.226
 X183.409 Y-11.093 Z4.016 A875.016
 X183.394 Y-11.217 Z4.29 A877.717
 X183.377 Y-11.337 Z4.593 A880.652
 X183.365 Y-11.422 Z4.837 A882.98
 X183.351 Y-11.497 Z5.088 A885.335
 X183.338 Y-11.562 Z5.344 A887.71
 X183.325 Y-11.618 Z5.612 A890.18
 X183.31 Y-11.665 Z5.901 A892.81
 X183.295 Y-11.7 Z6.193 A895.462
 X183.281 Y-11.72 Z6.485 A898.094
 X183.266 Y-11.727 Z6.777 A900.724
 X183.251 Y-11.721 Z7.07 A903.364
 X183.237 Y-11.701 Z7.361 A905.981
 X183.222 Y-11.669 Z7.65 A908.603
 X183.207 Y-11.619 Z7.956 A911.394
 X183.195 Y-11.572 Z8.183 A913.477
 X183.184 Y-11.518 Z8.408 A915.559
 X183.172 Y-11.455 Z8.63 A917.638
 X183.157 Y-11.358 Z8.923 A920.416
 X183.142 Y-11.255 Z9.193 A923.018
 X183.128 Y-11.14 Z9.457 A925.608
 X183.114 Y-11.013 Z9.717 A928.212
 X183.099 Y-10.875 Z9.969 A930.801
 X183.085 Y-10.726 Z10.214 A933.383
 X183.07 Y-10.565 Z10.454 A935.978
 X183.056 Y-10.396 Z10.683 A938.545
 X183.041 Y-10.199 Z10.925 A941.355
 X183.025 Y-9.983 Z11.165 A944.258
 X183.009 Y-9.758 Z11.391 A947.122
 X182.994 Y-9.545 Z11.585 A949.713
 X182.98 Y-9.327 Z11.766 A952.269
 X182.966 Y-9.102 Z11.938 A954.813
 X182.952 Y-8.867 Z12.101 A957.39
 X182.938 Y-8.63 Z12.25 A959.915
 X182.925 Y-8.408 Z12.377 A962.212
 X182.908 Y-8.114 Z12.527 A965.182
 X182.896 Y-7.885 Z12.632 A967.453
 X182.883 Y-7.648 Z12.728 A969.755
 X182.87 Y-7.403 Z12.817 A972.093
 X182.856 Y-7.135 Z12.901 A974.628
 X182.841 Y-6.849 Z12.977 A977.287
 X182.826 Y-6.557 Z13.04 A979.976
 X182.812 Y-6.269 Z13.088 A982.606
 X182.797 Y-5.976 Z13.123 A985.26
 X182.782 Y-5.681 Z13.145 A987.919
 X182.768 Y-5.389 Z13.153 A990.549
 X182.753 Y-5.095 Z13.148 A993.2
 X182.738 Y-4.797 Z13.128 A995.887
 X182.723 Y-4.497 Z13.094 A998.601
 X182.708 Y-4.199 Z13.046 A1001.324
 X182.693 Y-3.914 Z12.987 A1003.941
 X182.679 Y-3.632 Z12.914 A1006.562
 X182.664 Y-3.354 Z12.829 A1009.182
 X182.65 Y-3.08 Z12.731 A1011.794
 X182.635 Y-2.812 Z12.621 A1014.403
 X182.621 Y-2.549 Z12.499 A1017.012
 X182.606 Y-2.293 Z12.365 A1019.615
 X182.594 Y-2.075 Z12.24 A1021.879
 X182.58 Y-1.843 Z12.093 A1024.345
 X182.568 Y-1.649 Z11.959 A1026.473
 X182.557 Y-1.46 Z11.819 A1028.589
 X182.543 Y-1.249 Z11.647 A1031.037
 X182.531 Y-1.061 Z11.482 A1033.293
 X182.516 Y-0.854 Z11.284 A1035.87
 X182.502 Y-0.657 Z11.077 A1038.44
 X182.488 Y-0.468 Z10.86 A1041.028
 X182.473 Y-0.291 Z10.638 A1043.579
 X182.459 Y-0.126 Z10.41 A1046.115
 X182.446 Y0.027 Z10.179 A1048.616
 X182.432 Y0.168 Z9.943 A1051.083
 X182.418 Y0.297 Z9.707 A1053.504
 X182.405 Y0.413 Z9.469 A1055.889
 X182.397 Y0.484 Z9.31 A1057.454
 X182.38 Y-0.226 Z9.146 A1055.415
 X182.363 Y-0.936 Z8.955 A1053.359
 X182.347 Y-1.643 Z8.736 A1051.29
 X182.33 Y-2.346 Z8.491 A1049.207
 X182.311 Y-3.134 Z8.182 A1046.839
 X182.291 Y-3.913 Z7.838 A1044.458
 X182.274 Y-4.598 Z7.502 A1042.324
 X182.257 Y-5.273 Z7.14 A1040.182
 X182.239 Y-5.935 Z6.752 A1038.034
 X182.222 Y-6.584 Z6.338 A1035.881
 X182.203 Y-7.285 Z5.852 A1033.496
 X182.183 Y-7.965 Z5.336 A1031.109
 X182.166 Y-8.556 Z4.849 A1028.967
 X182.149 Y-9.129 Z4.342 A1026.826
 X182.131 Y-9.681 Z3.813 A1024.689
 X182.114 Y-10.212 Z3.266 A1022.556
 X182.094 Y-10.786 Z2.627 A1020.153
 X182.075 Y-11.33 Z1.966 A1017.76
 X182.058 Y-11.776 Z1.38 A1015.7
 X182.042 Y-12.198 Z0.781 A1013.649
 X182.025 Y-12.597 Z0.17 A1011.61
 X182.009 Y-12.972 Z-0.45 A1009.583
 X181.989 Y-13.39 Z-1.207 A1007.163
 X181.97 Y-13.772 Z-1.975 A1004.764
 X181.944 Y-14.412 Z-1.788 A1007.083
 X181.918 Y-15.061 Z-1.57 A1009.463
 X181.889 Y-15.746 Z-1.307 A1012.015
 X181.861 Y-16.421 Z-1.012 A1014.577
 X181.832 Y-17.084 Z-0.686 A1017.149
 X181.804 Y-17.734 Z-0.329 A1019.727
 X181.775 Y-18.364 Z0.054 A1022.29
 X181.746 Y-18.977 Z0.466 A1024.861
 X181.718 Y-19.574 Z0.907 A1027.44
 X181.689 Y-20.151 Z1.375 A1030.025
 X181.66 Y-20.704 Z1.867 A1032.598
 X181.632 Y-21.236 Z2.384 A1035.178
 X181.603 Y-21.745 Z2.926 A1037.764
 X181.574 Y-22.23 Z3.491 A1040.355
 X181.548 Y-22.652 Z4.028 A1042.731
 X181.521 Y-23.055 Z4.589 A1045.134
 X181.494 Y-23.439 Z5.172 A1047.56
 X181.486 Y-23.546 Z5.344 A1048.265
 X181.459 Y-23.905 Z5.961 A1050.748
 X181.43 Y-24.252 Z6.621 A1053.343
 X181.401 Y-24.567 Z7.297 A1055.937
 X181.372 Y-24.853 Z7.988 A1058.536
 X181.343 Y-25.107 Z8.692 A1061.138
 X181.314 Y-25.329 Z9.406 A1063.74
 X181.285 Y-25.518 Z10.13 A1066.343
 X181.256 Y-25.674 Z10.863 A1068.949
 X181.227 Y-25.797 Z11.603 A1071.557
 X181.198 Y-25.886 Z12.348 A1074.166
 X181.169 Y-25.941 Z13.096 A1076.778
 X181.14 Y-25.962 Z13.848 A1079.391
 X181.111 Y-25.949 Z14.599 A1082.005
 X181.083 Y-25.903 Z15.34 A1084.587
 X181.054 Y-25.824 Z16.067 A1087.131
 X181.026 Y-25.711 Z16.801 A1089.712
 X180.996 Y-25.563 Z17.541 A1092.337
 X180.967 Y-25.381 Z18.273 A1094.961
 X180.938 Y-25.166 Z18.996 A1097.584
 X180.909 Y-24.917 Z19.709 A1100.212
 X180.88 Y-24.635 Z20.412 A1102.846
 X180.85 Y-24.322 Z21.101 A1105.478
 X180.821 Y-23.977 Z21.774 A1108.107
 X180.792 Y-23.601 Z22.432 A1110.743
 X180.762 Y-23.194 Z23.074 A1113.387
 X180.733 Y-22.759 Z23.696 A1116.027
 X180.704 Y-22.295 Z24.296 A1118.664
 X180.674 Y-21.804 Z24.876 A1121.309
 X180.647 Y-21.328 Z25.389 A1123.741
 X180.62 Y-20.834 Z25.878 A1126.158
 X180.594 Y-20.323 Z26.344 A1128.565
 X180.567 Y-19.79 Z26.789 A1130.979
 X180.537 Y-19.183 Z27.253 A1133.635
 X180.508 Y-18.553 Z27.69 A1136.302
 X180.478 Y-17.912 Z28.092 A1138.935
 X180.45 Y-17.264 Z28.457 A1141.521
 X180.421 Y-16.608 Z28.79 A1144.082
 X180.393 Y-15.938 Z29.093 A1146.637
 X180.364 Y-15.253 Z29.366 A1149.202
 X180.336 Y-14.555 Z29.61 A1151.775
 X180.307 Y-13.847 Z29.821 A1154.344
 X180.28 Y-13.174 Z29.99 A1156.756
 X180.252 Y-12.458 Z30.138 A1159.299
 X180.223 Y-11.727 Z30.255 A1161.874
 X180.196 Y-11.03 Z30.336 A1164.314
 X180.168 Y-10.291 Z30.389 A1166.893
 X180.139 Y-9.55 Z30.408 A1169.47
 X180.11 Y-8.807 Z30.394 A1172.053
 X180.081 Y-8.065 Z30.347 A1174.642
 X180.053 Y-7.325 Z30.266 A1177.229
 X180.024 Y-6.591 Z30.152 A1179.814
 X179.995 Y-5.86 Z30.004 A1182.405
 X179.966 Y-5.136 Z29.823 A1185.
 X179.938 Y-4.422 Z29.61 A1187.594
 X179.909 Y-3.717 Z29.365 A1190.188
 X179.88 Y-3.024 Z29.087 A1192.786
 X179.851 Y-2.343 Z28.779 A1195.387
 X179.824 Y-1.717 Z28.461 A1197.828
 X179.798 Y-1.145 Z28.14 A1200.109
 X179.776 Y-0.652 Z27.839 A1202.119
 X179.752 Y-0.131 Z27.494 A1204.291
 X179.723 Y0.476 Z27.054 A1206.898
 X179.694 Y1.063 Z26.587 A1209.508
 X179.665 Y1.629 Z26.093 A1212.12
 X179.636 Y2.172 Z25.574 A1214.733
 X179.607 Y2.69 Z25.03 A1217.347
 X179.578 Y3.184 Z24.462 A1219.963
 X179.549 Y3.653 Z23.872 A1222.584
 X179.519 Y4.093 Z23.261 A1225.204
 X179.49 Y4.505 Z22.63 A1227.824
 X179.461 Y4.889 Z21.981 A1230.448
 X179.432 Y5.243 Z21.313 A1233.078
 X179.403 Y5.566 Z20.629 A1235.706
 X179.374 Y5.857 Z19.933 A1238.332
 X179.348 Y6.083 Z19.32 A1240.603
 X179.317 Y6.331 Z18.538 A1243.456
 X179.287 Y6.527 Z17.804 A1246.099
 X179.258 Y6.688 Z17.062 A1248.74
 X179.228 Y6.815 Z16.314 A1251.378
 X179.199 Y6.907 Z15.562 A1254.012
 X179.17 Y6.965 Z14.802 A1256.666
 X179.14 Y6.988 Z14.04 A1259.317
 X179.111 Y6.975 Z13.279 A1261.963
 X179.081 Y6.928 Z12.521 A1264.604
 X179.052 Y6.844 Z11.759 A1267.27
 X179.022 Y6.726 Z11.003 A1269.932
 X178.993 Y6.572 Z10.255 A1272.588
 X178.963 Y6.385 Z9.517 A1275.236
 X178.947 Y5.664 Z9.562 A1273.196
 X178.93 Y4.936 Z9.582 A1271.141
 X178.913 Y4.202 Z9.575 A1269.072
 X178.897 Y3.464 Z9.542 A1266.989
 X178.877 Y2.628 Z9.472 A1264.621
 X178.858 Y1.791 Z9.366 A1262.24
 X178.841 Y1.045 Z9.242 A1260.106
 X178.823 Y0.301 Z9.089 A1257.964
 X178.806 Y-0.439 Z8.909 A1255.816
 X178.789 Y-1.173 Z8.7 A1253.663
 X178.769 Y-1.976 Z8.437 A1251.278
 X178.75 Y-2.768 Z8.14 A1248.891
 X178.733 Y-3.468 Z7.846 A1246.749
 X178.715 Y-4.156 Z7.526 A1244.608
 X178.698 Y-4.831 Z7.181 A1242.471
 X178.681 Y-5.491 Z6.812 A1240.337
 X178.661 Y-6.217 Z6.367 A1237.935
 X178.642 Y-6.921 Z5.894 A1235.542
 X178.625 Y-7.511 Z5.464 A1233.482
 X178.609 Y-8.083 Z5.015 A1231.431
 X178.592 Y-8.635 Z4.548 A1229.392
 X178.576 Y-9.167 Z4.065 A1227.365
 X178.556 Y-9.779 Z3.464 A1224.945
 X178.537 Y-10.36 Z2.844 A1222.546
 X178.522 Y-10.536 Z3.079 A1225.189
 X178.507 Y-10.705 Z3.326 A1227.878
 X178.492 Y-10.862 Z3.581 A1230.578
 X178.477 Y-11.004 Z3.839 A1233.226
 X178.467 Y-11.093 Z4.016 A1235.016
 X178.453 Y-11.217 Z4.29 A1237.717
 X178.436 Y-11.337 Z4.593 A1240.652
 X178.423 Y-11.422 Z4.837 A1242.98
 X178.41 Y-11.497 Z5.088 A1245.335
 X178.397 Y-11.562 Z5.344 A1247.71
 X178.383 Y-11.618 Z5.612 A1250.18
 X178.369 Y-11.665 Z5.901 A1252.81
 X178.354 Y-11.7 Z6.193 A1255.462
 X178.339 Y-11.72 Z6.485 A1258.094
 X178.325 Y-11.727 Z6.777 A1260.724
 X178.31 Y-11.721 Z7.07 A1263.364
 X178.296 Y-11.701 Z7.361 A1265.981
 X178.281 Y-11.669 Z7.65 A1268.603
 X178.266 Y-11.619 Z7.956 A1271.394
 X178.254 Y-11.572 Z8.183 A1273.477
 X178.243 Y-11.518 Z8.408 A1275.559
 X178.231 Y-11.455 Z8.63 A1277.638
 X178.216 Y-11.358 Z8.923 A1280.416
 X178.201 Y-11.255 Z9.193 A1283.018
 X178.187 Y-11.14 Z9.457 A1285.608
 X178.172 Y-11.013 Z9.717 A1288.212
 X178.158 Y-10.875 Z9.969 A1290.801
 X178.144 Y-10.726 Z10.214 A1293.383
 X178.129 Y-10.565 Z10.454 A1295.978
 X178.115 Y-10.396 Z10.683 A1298.545
 X178.099 Y-10.199 Z10.925 A1301.355
 X178.083 Y-9.983 Z11.165 A1304.258
 X178.067 Y-9.758 Z11.391 A1307.122
 X178.053 Y-9.545 Z11.585 A1309.713
 X178.039 Y-9.327 Z11.766 A1312.269
 X178.025 Y-9.102 Z11.938 A1314.813
 X178.01 Y-8.867 Z12.101 A1317.39
 X177.996 Y-8.63 Z12.25 A1319.915
 X177.984 Y-8.408 Z12.377 A1322.212
 X177.967 Y-8.114 Z12.527 A1325.182
 X177.955 Y-7.885 Z12.632 A1327.453
 X177.942 Y-7.648 Z12.728 A1329.755
 X177.929 Y-7.403 Z12.817 A1332.093
 X177.915 Y-7.135 Z12.901 A1334.628
 X177.9 Y-6.849 Z12.977 A1337.287
 X177.885 Y-6.557 Z13.04 A1339.976
 X177.871 Y-6.269 Z13.088 A1342.606
 X177.856 Y-5.976 Z13.123 A1345.26
 X177.841 Y-5.681 Z13.145 A1347.919
 X177.826 Y-5.389 Z13.153 A1350.549
 X177.812 Y-5.095 Z13.148 A1353.2
 X177.797 Y-4.797 Z13.128 A1355.887
 X177.782 Y-4.497 Z13.094 A1358.601
 X177.767 Y-4.199 Z13.046 A1361.324
 X177.752 Y-3.914 Z12.987 A1363.941
 X177.738 Y-3.632 Z12.914 A1366.562
 X177.723 Y-3.354 Z12.829 A1369.182
 X177.709 Y-3.08 Z12.731 A1371.794
 X177.694 Y-2.812 Z12.621 A1374.403
 X177.68 Y-2.549 Z12.499 A1377.012
 X177.665 Y-2.293 Z12.365 A1379.615
 X177.653 Y-2.075 Z12.24 A1381.879
 X177.639 Y-1.843 Z12.093 A1384.345
 X177.627 Y-1.649 Z11.959 A1386.473
 X177.615 Y-1.46 Z11.819 A1388.589
 X177.602 Y-1.249 Z11.647 A1391.037
 X177.589 Y-1.061 Z11.482 A1393.293
 X177.575 Y-0.854 Z11.284 A1395.87
 X177.561 Y-0.657 Z11.077 A1398.44
 X177.546 Y-0.468 Z10.86 A1401.028
 X177.532 Y-0.291 Z10.638 A1403.579
 X177.518 Y-0.126 Z10.41 A1406.115
 X177.504 Y0.027 Z10.179 A1408.616
 X177.491 Y0.168 Z9.943 A1411.083
 X177.477 Y0.297 Z9.707 A1413.504
 X177.464 Y0.413 Z9.469 A1415.889
 X177.455 Y0.484 Z9.31 A1417.454
 X177.439 Y-0.226 Z9.146 A1415.415
 X177.422 Y-0.936 Z8.955 A1413.359
 X177.405 Y-1.643 Z8.736 A1411.29
 X177.388 Y-2.346 Z8.491 A1409.207
 X177.369 Y-3.134 Z8.182 A1406.839
 X177.35 Y-3.913 Z7.838 A1404.458
 X177.333 Y-4.598 Z7.502 A1402.324
 X177.315 Y-5.273 Z7.14 A1400.182
 X177.298 Y-5.935 Z6.752 A1398.034
 X177.281 Y-6.584 Z6.338 A1395.881
 X177.261 Y-7.285 Z5.852 A1393.496
 X177.242 Y-7.965 Z5.336 A1391.109
 X177.225 Y-8.556 Z4.849 A1388.967
 X177.207 Y-9.129 Z4.342 A1386.826
 X177.19 Y-9.681 Z3.813 A1384.689
 X177.173 Y-10.212 Z3.266 A1382.556
 X177.153 Y-10.786 Z2.627 A1380.153
 X177.134 Y-11.33 Z1.966 A1377.76
 X177.117 Y-11.776 Z1.38 A1375.7
 X177.101 Y-12.198 Z0.781 A1373.649
 X177.084 Y-12.597 Z0.17 A1371.61
 X177.068 Y-12.972 Z-0.45 A1369.583
 X177.048 Y-13.39 Z-1.207 A1367.163
 X177.029 Y-13.772 Z-1.975 A1364.764
 X177.003 Y-14.412 Z-1.788 A1367.083
 X176.976 Y-15.061 Z-1.57 A1369.463
 X176.948 Y-15.746 Z-1.307 A1372.015
 X176.92 Y-16.421 Z-1.012 A1374.577
 X176.891 Y-17.084 Z-0.686 A1377.149
 X176.862 Y-17.734 Z-0.329 A1379.727
 X176.834 Y-18.364 Z0.054 A1382.29
 X176.805 Y-18.977 Z0.466 A1384.861
 X176.777 Y-19.574 Z0.907 A1387.44
 X176.748 Y-20.151 Z1.375 A1390.025
 X176.719 Y-20.704 Z1.867 A1392.598
 X176.691 Y-21.236 Z2.384 A1395.178
 X176.662 Y-21.745 Z2.926 A1397.764
 X176.633 Y-22.23 Z3.491 A1400.355
 X176.607 Y-22.652 Z4.028 A1402.731
 X176.58 Y-23.055 Z4.589 A1405.134
 X176.553 Y-23.439 Z5.171 A1407.558
 X176.545 Y-23.545 Z5.343 A1408.262
 X176.517 Y-23.905 Z5.961 A1410.748
 X176.489 Y-24.252 Z6.621 A1413.343
 X176.46 Y-24.567 Z7.297 A1415.937
 X176.431 Y-24.853 Z7.988 A1418.536
 X176.402 Y-25.107 Z8.692 A1421.138
 X176.373 Y-25.329 Z9.406 A1423.74
 X176.344 Y-25.518 Z10.13 A1426.343
 X176.315 Y-25.674 Z10.863 A1428.949
 X176.286 Y-25.797 Z11.603 A1431.557
 X176.257 Y-25.886 Z12.348 A1434.166
 X176.228 Y-25.941 Z13.096 A1436.778
 X176.199 Y-25.962 Z13.848 A1439.391
 X176.17 Y-25.949 Z14.599 A1442.005
 X176.141 Y-25.903 Z15.34 A1444.587
 X176.113 Y-25.824 Z16.067 A1447.131
 X176.084 Y-25.711 Z16.801 A1449.712
 X176.055 Y-25.563 Z17.541 A1452.337
 X176.026 Y-25.381 Z18.273 A1454.961
 X175.997 Y-25.166 Z18.996 A1457.584
 X175.968 Y-24.917 Z19.709 A1460.212
 X175.938 Y-24.635 Z20.412 A1462.846
 X175.909 Y-24.322 Z21.101 A1465.478
 X175.88 Y-23.977 Z21.774 A1468.107
 X175.851 Y-23.601 Z22.432 A1470.743
 X175.821 Y-23.194 Z23.074 A1473.387
 X175.792 Y-22.759 Z23.696 A1476.027
 X175.763 Y-22.295 Z24.296 A1478.664
 X175.733 Y-21.804 Z24.876 A1481.309
 X175.706 Y-21.328 Z25.389 A1483.741
 X175.679 Y-20.834 Z25.878 A1486.158
 X175.652 Y-20.323 Z26.344 A1488.565
 X175.626 Y-19.79 Z26.789 A1490.979
 X175.596 Y-19.183 Z27.253 A1493.635
 X175.566 Y-18.553 Z27.69 A1496.302
 X175.537 Y-17.912 Z28.092 A1498.935
 X175.508 Y-17.264 Z28.457 A1501.521
 X175.48 Y-16.608 Z28.79 A1504.082
 X175.452 Y-15.938 Z29.093 A1506.637
 X175.423 Y-15.253 Z29.366 A1509.202
 X175.394 Y-14.555 Z29.61 A1511.775
 X175.366 Y-13.847 Z29.821 A1514.344
 X175.339 Y-13.174 Z29.99 A1516.756
 X175.311 Y-12.458 Z30.138 A1519.299
 X175.282 Y-11.727 Z30.255 A1521.874
 X175.255 Y-11.03 Z30.336 A1524.314
 X175.226 Y-10.291 Z30.389 A1526.893
 X175.198 Y-9.55 Z30.408 A1529.47
 X175.169 Y-8.807 Z30.394 A1532.053
 X175.14 Y-8.065 Z30.347 A1534.642
 X175.111 Y-7.325 Z30.266 A1537.229
 X175.083 Y-6.591 Z30.152 A1539.814
 X175.054 Y-5.86 Z30.004 A1542.405
 X175.025 Y-5.136 Z29.823 A1545.
 X174.996 Y-4.422 Z29.61 A1547.594
 X174.967 Y-3.717 Z29.365 A1550.188
 X174.939 Y-3.024 Z29.087 A1552.786
 X174.91 Y-2.343 Z28.779 A1555.387
 X174.883 Y-1.717 Z28.461 A1557.828
 X174.857 Y-1.145 Z28.14 A1560.109
 X174.835 Y-0.652 Z27.839 A1562.119
 X174.811 Y-0.131 Z27.494 A1564.291
 X174.782 Y0.476 Z27.054 A1566.898
 X174.753 Y1.063 Z26.587 A1569.508
 X174.724 Y1.629 Z26.093 A1572.12
 X174.695 Y2.172 Z25.574 A1574.733
 X174.666 Y2.69 Z25.03 A1577.347
 X174.636 Y3.184 Z24.462 A1579.963
 X174.607 Y3.653 Z23.872 A1582.584
 X174.578 Y4.093 Z23.261 A1585.204
 X174.549 Y4.505 Z22.63 A1587.824
 X174.52 Y4.889 Z21.981 A1590.448
 X174.491 Y5.243 Z21.313 A1593.078
 X174.461 Y5.566 Z20.629 A1595.706
 X174.432 Y5.857 Z19.933 A1598.332
 X174.407 Y6.083 Z19.32 A1600.603
 X174.375 Y6.331 Z18.538 A1603.456
 X174.346 Y6.527 Z17.804 A1606.099
 X174.317 Y6.688 Z17.062 A1608.74
 X174.287 Y6.815 Z16.314 A1611.378
 X174.258 Y6.907 Z15.562 A1614.012
 X174.228 Y6.965 Z14.802 A1616.666
 X174.199 Y6.988 Z14.04 A1619.317
 X174.17 Y6.975 Z13.279 A1621.963
 X174.14 Y6.928 Z12.521 A1624.604
 X174.111 Y6.844 Z11.759 A1627.27
 X174.081 Y6.726 Z11.003 A1629.932
 X174.051 Y6.572 Z10.255 A1632.588
 X174.022 Y6.385 Z9.517 A1635.236
 X174.006 Y5.664 Z9.562 A1633.196
 X173.989 Y4.936 Z9.582 A1631.141
 X173.972 Y4.202 Z9.575 A1629.072
 X173.955 Y3.464 Z9.542 A1626.989
 X173.936 Y2.628 Z9.472 A1624.621
 X173.917 Y1.791 Z9.366 A1622.24
 X173.9 Y1.045 Z9.242 A1620.106
 X173.882 Y0.301 Z9.089 A1617.964
 X173.865 Y-0.439 Z8.909 A1615.816
 X173.847 Y-1.173 Z8.7 A1613.663
 X173.828 Y-1.976 Z8.437 A1611.278
 X173.809 Y-2.768 Z8.14 A1608.891
 X173.791 Y-3.468 Z7.846 A1606.749
 X173.774 Y-4.156 Z7.526 A1604.608
 X173.757 Y-4.831 Z7.181 A1602.471
 X173.739 Y-5.491 Z6.812 A1600.337
 X173.72 Y-6.217 Z6.367 A1597.935
 X173.701 Y-6.921 Z5.894 A1595.542
 X173.684 Y-7.511 Z5.464 A1593.482
 X173.667 Y-8.083 Z5.015 A1591.431
 X173.651 Y-8.635 Z4.548 A1589.392
 X173.634 Y-9.167 Z4.065 A1587.365
 X173.615 Y-9.779 Z3.464 A1584.945
 X173.595 Y-10.36 Z2.844 A1582.546
 X173.581 Y-10.536 Z3.079 A1585.189
 X173.566 Y-10.705 Z3.326 A1587.878
 X173.551 Y-10.862 Z3.581 A1590.578
 X173.536 Y-11.004 Z3.839 A1593.226
 X173.526 Y-11.093 Z4.016 A1595.016
 X173.511 Y-11.217 Z4.29 A1597.717
 X173.495 Y-11.337 Z4.593 A1600.652
 X173.482 Y-11.422 Z4.837 A1602.98
 X173.469 Y-11.497 Z5.088 A1605.335
 X173.456 Y-11.562 Z5.344 A1607.71
 X173.442 Y-11.618 Z5.612 A1610.18
 X173.428 Y-11.665 Z5.901 A1612.81
 X173.413 Y-11.7 Z6.193 A1615.462
 X173.398 Y-11.72 Z6.485 A1618.094
 X173.384 Y-11.727 Z6.777 A1620.724
 X173.369 Y-11.721 Z7.07 A1623.364
 X173.354 Y-11.701 Z7.361 A1625.981
 X173.34 Y-11.669 Z7.65 A1628.603
 X173.324 Y-11.619 Z7.956 A1631.394
 X173.313 Y-11.572 Z8.183 A1633.477
 X173.301 Y-11.518 Z8.408 A1635.559
 X173.29 Y-11.455 Z8.63 A1637.638
 X173.274 Y-11.358 Z8.923 A1640.416
 X173.26 Y-11.255 Z9.193 A1643.018
 X173.246 Y-11.14 Z9.457 A1645.608
 X173.231 Y-11.013 Z9.717 A1648.212
 X173.217 Y-10.875 Z9.969 A1650.801
 X173.202 Y-10.726 Z10.214 A1653.383
 X173.188 Y-10.565 Z10.454 A1655.978
 X173.174 Y-10.396 Z10.683 A1658.545
 X173.158 Y-10.199 Z10.925 A1661.355
 X173.142 Y-9.983 Z11.165 A1664.258
 X173.126 Y-9.758 Z11.391 A1667.122
 X173.112 Y-9.545 Z11.585 A1669.713
 X173.098 Y-9.327 Z11.766 A1672.269
 X173.084 Y-9.102 Z11.938 A1674.813
 X173.069 Y-8.867 Z12.101 A1677.39
 X173.055 Y-8.63 Z12.25 A1679.915
 X173.042 Y-8.408 Z12.377 A1682.212
 X173.026 Y-8.114 Z12.527 A1685.182
 X173.013 Y-7.885 Z12.632 A1687.453
 X173.001 Y-7.648 Z12.728 A1689.755
 X172.988 Y-7.403 Z12.817 A1692.093
 X172.974 Y-7.135 Z12.901 A1694.628
 X172.959 Y-6.849 Z12.977 A1697.287
 X172.944 Y-6.557 Z13.04 A1699.976
 X172.929 Y-6.269 Z13.088 A1702.606
 X172.915 Y-5.976 Z13.123 A1705.26
 X172.9 Y-5.681 Z13.145 A1707.919
 X172.885 Y-5.389 Z13.153 A1710.549
 X172.871 Y-5.095 Z13.148 A1713.2
 X172.856 Y-4.797 Z13.128 A1715.887
 X172.841 Y-4.497 Z13.094 A1718.601
 X172.825 Y-4.199 Z13.046 A1721.324
 X172.811 Y-3.914 Z12.987 A1723.941
 X172.796 Y-3.632 Z12.914 A1726.562
 X172.782 Y-3.354 Z12.829 A1729.182
 X172.767 Y-3.08 Z12.731 A1731.794
 X172.753 Y-2.812 Z12.621 A1734.403
 X172.738 Y-2.549 Z12.499 A1737.012
 X172.724 Y-2.293 Z12.365 A1739.615
 X172.711 Y-2.075 Z12.24 A1741.879
 X172.698 Y-1.843 Z12.093 A1744.345
 X172.686 Y-1.649 Z11.959 A1746.473
 X172.674 Y-1.46 Z11.819 A1748.589
 X172.661 Y-1.249 Z11.647 A1751.037
 X172.648 Y-1.061 Z11.482 A1753.293
 X172.634 Y-0.854 Z11.284 A1755.87
 X172.62 Y-0.657 Z11.077 A1758.44
 X172.605 Y-0.468 Z10.86 A1761.028
 X172.591 Y-0.291 Z10.638 A1763.579
 X172.577 Y-0.126 Z10.41 A1766.115
 X172.563 Y0.027 Z10.179 A1768.616
 X172.549 Y0.168 Z9.943 A1771.083
 X172.536 Y0.297 Z9.707 A1773.504
 X172.523 Y0.413 Z9.469 A1775.889
 X172.514 Y0.484 Z9.31 A1777.454
 X172.498 Y-0.226 Z9.146 A1775.415
 X172.481 Y-0.936 Z8.955 A1773.359
 X172.464 Y-1.643 Z8.736 A1771.29
 X172.447 Y-2.346 Z8.491 A1769.207
 X172.428 Y-3.134 Z8.182 A1766.839
 X172.409 Y-3.913 Z7.838 A1764.458
 X172.392 Y-4.598 Z7.502 A1762.324
 X172.374 Y-5.273 Z7.14 A1760.182
 X172.357 Y-5.935 Z6.752 A1758.034
 X172.339 Y-6.584 Z6.338 A1755.881
 X172.32 Y-7.285 Z5.852 A1753.496
 X172.301 Y-7.965 Z5.336 A1751.109
 X172.283 Y-8.556 Z4.849 A1748.967
 X172.266 Y-9.129 Z4.342 A1746.826
 X172.249 Y-9.681 Z3.813 A1744.689
 X172.231 Y-10.212 Z3.266 A1742.556
 X172.212 Y-10.786 Z2.627 A1740.153
 X172.193 Y-11.33 Z1.966 A1737.76
 X172.176 Y-11.776 Z1.38 A1735.7
 X172.159 Y-12.198 Z0.781 A1733.649
 X172.143 Y-12.597 Z0.17 A1731.61
 X172.126 Y-12.972 Z-0.45 A1729.583
 X172.107 Y-13.39 Z-1.207 A1727.163
 X172.087 Y-13.772 Z-1.975 A1724.764
 X172.062 Y-14.412 Z-1.788 A1727.083
 X172.035 Y-15.061 Z-1.57 A1729.463
 X172.007 Y-15.746 Z-1.307 A1732.015
 X171.978 Y-16.421 Z-1.012 A1734.577
 X171.95 Y-17.084 Z-0.686 A1737.149
 X171.921 Y-17.734 Z-0.329 A1739.727
 X171.893 Y-18.364 Z0.054 A1742.29
 X171.864 Y-18.977 Z0.466 A1744.861
 X171.835 Y-19.574 Z0.907 A1747.44
 X171.807 Y-20.151 Z1.375 A1750.025
 X171.778 Y-20.704 Z1.867 A1752.598
 X171.749 Y-21.236 Z2.384 A1755.178
 X171.721 Y-21.745 Z2.926 A1757.764
 X171.692 Y-22.23 Z3.491 A1760.355
 X171.665 Y-22.652 Z4.028 A1762.731
 X171.639 Y-23.055 Z4.589 A1765.134
 X171.612 Y-23.438 Z5.171 A1767.557
 X171.604 Y-23.545 Z5.342 A1768.259
 X171.576 Y-23.905 Z5.961 A1770.748
 X171.547 Y-24.252 Z6.621 A1773.343
 X171.519 Y-24.567 Z7.297 A1775.937
 X171.49 Y-24.853 Z7.988 A1778.536
 X171.461 Y-25.107 Z8.692 A1781.138
 X171.432 Y-25.329 Z9.406 A1783.74
 X171.403 Y-25.518 Z10.13 A1786.343
 X171.374 Y-25.674 Z10.863 A1788.949
 X171.345 Y-25.797 Z11.603 A1791.557
 X171.316 Y-25.886 Z12.348 A1794.166
 X171.287 Y-25.941 Z13.096 A1796.778
 X171.258 Y-25.962 Z13.848 A1799.391
 X171.229 Y-25.949 Z14.599 A1802.005
 X171.2 Y-25.903 Z15.34 A1804.587
 X171.172 Y-25.824 Z16.067 A1807.131
 X171.143 Y-25.711 Z16.801 A1809.712
 X171.114 Y-25.563 Z17.541 A1812.337
 X171.085 Y-25.381 Z18.273 A1814.961
 X171.056 Y-25.166 Z18.996 A1817.584
 X171.026 Y-24.917 Z19.709 A1820.212
 X170.997 Y-24.635 Z20.412 A1822.846
 X170.968 Y-24.322 Z21.101 A1825.478
 X170.939 Y-23.977 Z21.774 A1828.107
 X170.909 Y-23.601 Z22.432 A1830.743
 X170.88 Y-23.194 Z23.074 A1833.387
 X170.851 Y-22.759 Z23.696 A1836.027
 X170.821 Y-22.295 Z24.296 A1838.664
 X170.792 Y-21.804 Z24.876 A1841.309
 X170.765 Y-21.328 Z25.389 A1843.741
 X170.738 Y-20.834 Z25.878 A1846.158
 X170.711 Y-20.323 Z26.344 A1848.565
 X170.684 Y-19.79 Z26.789 A1850.979
 X170.655 Y-19.183 Z27.253 A1853.635
 X170.625 Y-18.553 Z27.69 A1856.302
 X170.596 Y-17.912 Z28.092 A1858.935
 X170.567 Y-17.264 Z28.457 A1861.521
 X170.539 Y-16.608 Z28.79 A1864.082
 X170.51 Y-15.938 Z29.093 A1866.637
 X170.482 Y-15.253 Z29.366 A1869.202
 X170.453 Y-14.555 Z29.61 A1871.775
 X170.425 Y-13.847 Z29.821 A1874.344
 X170.398 Y-13.174 Z29.99 A1876.756
 X170.37 Y-12.458 Z30.138 A1879.299
 X170.341 Y-11.727 Z30.255 A1881.874
 X170.314 Y-11.03 Z30.336 A1884.314
 X170.285 Y-10.291 Z30.389 A1886.893
 X170.257 Y-9.55 Z30.408 A1889.47
 X170.228 Y-8.807 Z30.394 A1892.053
 X170.199 Y-8.065 Z30.347 A1894.642
 X170.17 Y-7.325 Z30.266 A1897.229
 X170.142 Y-6.591 Z30.152 A1899.814
 X170.113 Y-5.86 Z30.004 A1902.405
 X170.084 Y-5.136 Z29.823 A1905.
 X170.055 Y-4.422 Z29.61 A1907.594
 X170.026 Y-3.717 Z29.365 A1910.188
 X169.997 Y-3.024 Z29.087 A1912.786
 X169.968 Y-2.343 Z28.779 A1915.387
 X169.941 Y-1.717 Z28.461 A1917.827
 X169.916 Y-1.145 Z28.14 A1920.109
 X169.894 Y-0.652 Z27.839 A1922.119
 X169.869 Y-0.131 Z27.494 A1924.291
 X169.84 Y0.476 Z27.054 A1926.898
 X169.811 Y1.063 Z26.587 A1929.508
 X169.782 Y1.629 Z26.093 A1932.12
 X169.753 Y2.172 Z25.574 A1934.733
 X169.724 Y2.69 Z25.03 A1937.346
 X169.695 Y3.184 Z24.462 A1939.963
 X169.666 Y3.653 Z23.872 A1942.584
 X169.637 Y4.093 Z23.261 A1945.204
 X169.608 Y4.505 Z22.63 A1947.824
 X169.579 Y4.889 Z21.981 A1950.448
 X169.549 Y5.243 Z21.313 A1953.078
 X169.52 Y5.566 Z20.629 A1955.706
 X169.491 Y5.857 Z19.933 A1958.332
 X169.466 Y6.083 Z19.32 A1960.603
 X169.434 Y6.331 Z18.538 A1963.456
 X169.405 Y6.527 Z17.804 A1966.099
 X169.375 Y6.688 Z17.062 A1968.74
 X169.346 Y6.815 Z16.314 A1971.378
 X169.317 Y6.907 Z15.562 A1974.012
 X169.287 Y6.965 Z14.802 A1976.666
 X169.258 Y6.988 Z14.04 A1979.317
 X169.228 Y6.975 Z13.279 A1981.963
 X169.199 Y6.928 Z12.521 A1984.604
 X169.169 Y6.844 Z11.759 A1987.27
 X169.14 Y6.726 Z11.003 A1989.932
 X169.11 Y6.572 Z10.255 A1992.588
 X169.081 Y6.385 Z9.517 A1995.236
 X169.064 Y5.664 Z9.562 A1993.196
 X169.048 Y4.936 Z9.582 A1991.141
 X169.031 Y4.202 Z9.575 A1989.072
 X169.014 Y3.464 Z9.542 A1986.989
 X168.995 Y2.628 Z9.472 A1984.621
 X168.976 Y1.791 Z9.366 A1982.24
 X168.958 Y1.045 Z9.242 A1980.106
 X168.941 Y0.301 Z9.089 A1977.964
 X168.924 Y-0.439 Z8.909 A1975.816
 X168.906 Y-1.173 Z8.7 A1973.663
 X168.887 Y-1.976 Z8.437 A1971.278
 X168.867 Y-2.768 Z8.14 A1968.891
 X168.85 Y-3.468 Z7.846 A1966.749
 X168.833 Y-4.156 Z7.526 A1964.608
 X168.816 Y-4.831 Z7.181 A1962.47
 X168.798 Y-5.491 Z6.812 A1960.337
 X168.779 Y-6.217 Z6.367 A1957.935
 X168.759 Y-6.921 Z5.894 A1955.542
 X168.743 Y-7.511 Z5.464 A1953.482
 X168.726 Y-8.083 Z5.015 A1951.431
 X168.71 Y-8.635 Z4.548 A1949.392
 X168.693 Y-9.167 Z4.065 A1947.365
 X168.674 Y-9.779 Z3.464 A1944.945
 X168.654 Y-10.36 Z2.844 A1942.546
 X168.64 Y-10.536 Z3.079 A1945.189
 X168.625 Y-10.705 Z3.326 A1947.878
 X168.61 Y-10.862 Z3.581 A1950.578
 X168.595 Y-11.004 Z3.839 A1953.226
 X168.585 Y-11.093 Z4.016 A1955.016
 X168.57 Y-11.217 Z4.29 A1957.717
 X168.554 Y-11.337 Z4.593 A1960.652
 X168.541 Y-11.422 Z4.837 A1962.98
 X168.528 Y-11.497 Z5.088 A1965.335
 X168.515 Y-11.562 Z5.344 A1967.71
 X168.501 Y-11.618 Z5.612 A1970.18
 X168.486 Y-11.665 Z5.901 A1972.81
 X168.472 Y-11.7 Z6.193 A1975.462
 X168.457 Y-11.72 Z6.485 A1978.094
 X168.442 Y-11.727 Z6.777 A1980.724
 X168.428 Y-11.721 Z7.07 A1983.364
 X168.413 Y-11.701 Z7.361 A1985.981
 X168.399 Y-11.669 Z7.65 A1988.603
 X168.383 Y-11.619 Z7.956 A1991.394
 X168.372 Y-11.572 Z8.183 A1993.477
 X168.36 Y-11.518 Z8.408 A1995.559
 X168.349 Y-11.455 Z8.63 A1997.638
 X168.333 Y-11.358 Z8.923 A2000.416
 X168.319 Y-11.255 Z9.193 A2003.018
 X168.304 Y-11.14 Z9.457 A2005.608
 X168.29 Y-11.013 Z9.717 A2008.212
 X168.275 Y-10.875 Z9.969 A2010.801
 X168.261 Y-10.726 Z10.214 A2013.383
 X168.247 Y-10.565 Z10.454 A2015.978
 X168.233 Y-10.396 Z10.683 A2018.544
 X168.217 Y-10.199 Z10.925 A2021.355
 X168.201 Y-9.983 Z11.165 A2024.258
 X168.185 Y-9.758 Z11.391 A2027.122
 X168.171 Y-9.545 Z11.585 A2029.713
 X168.156 Y-9.327 Z11.766 A2032.269
 X168.142 Y-9.102 Z11.938 A2034.813
 X168.128 Y-8.867 Z12.101 A2037.39
 X168.114 Y-8.63 Z12.25 A2039.915
 X168.101 Y-8.408 Z12.377 A2042.211
 X168.085 Y-8.114 Z12.527 A2045.182
 X168.072 Y-7.885 Z12.632 A2047.453
 X168.059 Y-7.648 Z12.728 A2049.755
 X168.046 Y-7.403 Z12.817 A2052.094
 X168.032 Y-7.135 Z12.901 A2054.628
 X168.018 Y-6.849 Z12.977 A2057.287
 X168.003 Y-6.557 Z13.04 A2059.976
 X167.988 Y-6.269 Z13.088 A2062.606
 X167.973 Y-5.976 Z13.123 A2065.26
 X167.959 Y-5.681 Z13.145 A2067.919
 X167.944 Y-5.389 Z13.153 A2070.549
 X167.929 Y-5.095 Z13.148 A2073.2
 X167.914 Y-4.797 Z13.128 A2075.887
 X167.899 Y-4.497 Z13.094 A2078.601
 X167.884 Y-4.199 Z13.046 A2081.324
 X167.87 Y-3.914 Z12.987 A2083.941
 X167.855 Y-3.632 Z12.914 A2086.562
 X167.841 Y-3.354 Z12.829 A2089.182
 X167.826 Y-3.08 Z12.731 A2091.794
 X167.812 Y-2.812 Z12.621 A2094.403
 X167.797 Y-2.549 Z12.499 A2097.012
 X167.783 Y-2.293 Z12.365 A2099.615
 X167.77 Y-2.075 Z12.24 A2101.879
 X167.756 Y-1.843 Z12.093 A2104.345
 X167.745 Y-1.649 Z11.959 A2106.473
 X167.733 Y-1.46 Z11.819 A2108.589
 X167.719 Y-1.249 Z11.647 A2111.037
 X167.707 Y-1.061 Z11.482 A2113.293
 X167.693 Y-0.854 Z11.284 A2115.87
 X167.678 Y-0.657 Z11.077 A2118.44
 X167.664 Y-0.468 Z10.86 A2121.028
 X167.65 Y-0.291 Z10.638 A2123.579
 X167.636 Y-0.126 Z10.41 A2126.115
 X167.622 Y0.027 Z10.179 A2128.616
 X167.608 Y0.168 Z9.943 A2131.083
 X167.595 Y0.297 Z9.707 A2133.504
 X167.581 Y0.413 Z9.469 A2135.889
 X167.573 Y0.484 Z9.31 A2137.454
 X167.556 Y-0.226 Z9.146 A2135.415
 X167.54 Y-0.936 Z8.955 A2133.359
 X167.523 Y-1.643 Z8.736 A2131.29
 X167.506 Y-2.346 Z8.491 A2129.207
 X167.487 Y-3.134 Z8.182 A2126.839
 X167.468 Y-3.913 Z7.838 A2124.458
 X167.45 Y-4.598 Z7.502 A2122.324
 X167.433 Y-5.273 Z7.14 A2120.182
 X167.416 Y-5.935 Z6.752 A2118.034
 X167.398 Y-6.584 Z6.338 A2115.881
 X167.379 Y-7.285 Z5.852 A2113.496
 X167.359 Y-7.965 Z5.336 A2111.109
 X167.342 Y-8.556 Z4.849 A2108.967
 X167.325 Y-9.129 Z4.342 A2106.826
 X167.307 Y-9.681 Z3.813 A2104.689
 X167.29 Y-10.212 Z3.266 A2102.555
 X167.271 Y-10.786 Z2.627 A2100.153
 X167.251 Y-11.33 Z1.966 A2097.76
 X167.235 Y-11.776 Z1.38 A2095.7
 X167.218 Y-12.198 Z0.781 A2093.649
 X167.202 Y-12.597 Z0.17 A2091.61
 X167.185 Y-12.972 Z-0.45 A2089.583
 X167.166 Y-13.39 Z-1.207 A2087.163
 X167.146 Y-13.772 Z-1.975 A2084.764
 X167.12 Y-14.412 Z-1.788 A2087.083
 X167.094 Y-15.061 Z-1.57 A2089.463
 X167.066 Y-15.746 Z-1.307 A2092.015
 X167.037 Y-16.421 Z-1.012 A2094.577
 X167.009 Y-17.084 Z-0.686 A2097.148
 X166.98 Y-17.734 Z-0.329 A2099.727
 X166.951 Y-18.364 Z0.054 A2102.29
 X166.923 Y-18.977 Z0.466 A2104.861
 X166.894 Y-19.574 Z0.907 A2107.44
 X166.865 Y-20.151 Z1.375 A2110.025
 X166.837 Y-20.704 Z1.867 A2112.598
 X166.808 Y-21.236 Z2.384 A2115.178
 X166.779 Y-21.745 Z2.926 A2117.764
 X166.751 Y-22.23 Z3.491 A2120.355
 X166.724 Y-22.652 Z4.028 A2122.731
 X166.697 Y-23.055 Z4.589 A2125.134
 X166.671 Y-23.438 Z5.171 A2127.555
 X166.663 Y-23.544 Z5.342 A2128.256
 Y-23.721 Z5.636 A2129.449
 Y-24.082 Z6.289 A2132.046
 Y-24.413 Z6.957 A2134.639
 Y-24.714 Z7.641 A2137.236
 Y-24.984 Z8.338 A2139.836
 Y-25.222 Z9.048 A2142.439
 Y-25.427 Z9.767 A2145.041
 Y-25.6 Z10.496 A2147.646
 Y-25.74 Z11.232 A2150.253
 Y-25.846 Z11.974 A2152.861
 Y-25.918 Z12.722 A2155.471
 Y-25.956 Z13.472 A2158.084
 Y-25.96 Z14.223 A2160.698
 Y-25.93 Z14.974 A2163.312
 Y-25.867 Z15.705 A2165.863
 Y-25.773 Z16.428 A2168.4
 Y-25.641 Z17.171 A2171.024
 Y-25.476 Z17.908 A2173.649
 Y-25.277 Z18.636 A2176.273
 Y-25.046 Z19.353 A2178.895
 Y-24.78 Z20.062 A2181.529
 Y-24.482 Z20.758 A2184.162
 Y-24.153 Z21.44 A2186.793
 Y-23.794 Z22.104 A2189.421
 Y-23.401 Z22.755 A2192.065
 Y-22.98 Z23.387 A2194.708
 Y-22.53 Z23.999 A2197.347
 Y-22.054 Z24.587 A2199.981
 Y-21.547 Z25.158 A2202.636
 Y-21.105 Z25.615 A2204.845
 Y-20.558 Z26.135 A2207.471
 Y-20.084 Z26.548 A2209.658
 Y-19.491 Z27.023 A2212.3
 Y-18.871 Z27.475 A2214.97
 Y-18.231 Z27.897 A2217.635
 Y-17.588 Z28.279 A2220.236
 Y-16.937 Z28.628 A2222.807
 Y-16.276 Z28.945 A2225.356
 Y-15.598 Z29.233 A2227.917
 Y-14.906 Z29.492 A2230.487
 Y-14.201 Z29.72 A2233.064
 Y-13.491 Z29.914 A2235.625
 Y-12.857 Z30.06 A2237.887
 Y-12.458 Z30.138 A2239.299
 Y-12.054 Z30.207 A2240.727
 Y-11.4 Z30.297 A2243.021
 Y-10.66 Z30.366 A2245.607
 Y-9.921 Z30.402 A2248.18
 Y-9.179 Z30.405 A2250.76
 Y-8.436 Z30.375 A2253.346
 Y-7.694 Z30.31 A2255.938
 Y-6.958 Z30.213 A2258.52
 Y-6.225 Z30.082 A2261.108
 Y-5.498 Z29.918 A2263.702
 Y-4.778 Z29.721 A2266.298
 Y-4.069 Z29.491 A2268.89
 Y-3.369 Z29.23 A2271.487
 Y-2.682 Z28.937 A2274.086
 Y-2.008 Z28.612 A2276.688
 Y-1.43 Z28.303 A2278.967
 Y-0.864 Z27.971 A2281.251
 Y-0.442 Z27.703 A2282.987
 Y0.175 Z27.277 A2285.594
 Y0.772 Z26.824 A2288.202
 Y1.348 Z26.343 A2290.813
 Y1.903 Z25.836 A2293.426
 Y2.434 Z25.305 A2296.04
 Y2.94 Z24.749 A2298.653
 Y3.421 Z24.17 A2301.273
 Y3.876 Z23.569 A2303.894
 Y4.303 Z22.948 A2306.515
 Y4.7 Z22.308 A2309.134
 Y5.069 Z21.648 A2311.763
 Y5.408 Z20.973 A2314.392
 Y5.715 Z20.282 A2317.02
 Y5.99 Z19.579 A2319.645
 Y6.17 Z19.059 A2321.56
 Y6.331 Z18.538 A2323.456
 Y6.527 Z17.804 A2326.099
 Y6.688 Z17.062 A2328.74
 Y6.815 Z16.314 A2331.378
 Y6.907 Z15.562 A2334.012
 Y6.965 Z14.801 A2336.666
 Y6.987 Z14.04 A2339.317
 Y6.975 Z13.279 A2341.963
 Y6.927 Z12.521 A2344.604
 Y6.844 Z11.759 A2347.27
 Y6.725 Z11.003 A2349.932
 Y6.572 Z10.255 A2352.588
 Y6.385 Z9.517 A2355.236
 Y5.663 Z9.562 A2353.196
 Y4.935 Z9.582 A2351.141
 Y4.202 Z9.575 A2349.072
 Y3.464 Z9.542 A2346.989
 Y2.628 Z9.471 A2344.621
 Y1.79 Z9.366 A2342.24
 Y1.044 Z9.242 A2340.106
 Y0.301 Z9.089 A2337.964
 Y-0.439 Z8.909 A2335.816
 Y-1.173 Z8.7 A2333.663
 Y-1.976 Z8.436 A2331.278
 Y-2.769 Z8.14 A2328.891
 Y-3.469 Z7.845 A2326.749
 Y-4.157 Z7.526 A2324.608
 Y-4.831 Z7.181 A2322.47
 Y-5.491 Z6.812 A2320.337
 Y-6.217 Z6.367 A2317.935
 Y-6.921 Z5.894 A2315.542
 Y-7.512 Z5.464 A2313.482
 Y-8.083 Z5.015 A2311.431
 Y-8.635 Z4.548 A2309.392
 Y-9.167 Z4.065 A2307.365
 Y-9.779 Z3.464 A2304.945
 Y-10.36 Z2.844 A2302.546
 Y-10.479 Z2.998 A2304.3
 Y-10.594 Z3.159 A2306.078
 Y-10.705 Z3.325 A2307.878
 Y-10.813 Z3.497 A2309.702
 Y-10.911 Z3.665 A2311.454
 Y-11.004 Z3.838 A2313.226
 Y-11.094 Z4.016 A2315.016
 Y-11.218 Z4.289 A2317.717
 Y-11.308 Z4.512 A2319.88
 Y-11.367 Z4.673 A2321.424
 Y-11.422 Z4.837 A2322.98
 Y-11.473 Z5.003 A2324.547
 Y-11.52 Z5.172 A2326.124
 Y-11.562 Z5.343 A2327.71
 Y-11.6 Z5.517 A2329.306
 Y-11.636 Z5.707 A2331.053
 Y-11.666 Z5.9 A2332.81
 Y-11.69 Z6.095 A2334.575
 Y-11.709 Z6.291 A2336.349
 Y-11.721 Z6.485 A2338.094
 Y-11.727 Z6.679 A2339.845
 Y-11.727 Z6.874 A2341.602
 Y-11.722 Z7.07 A2343.364
 Y-11.71 Z7.263 A2345.107
 Y-11.693 Z7.457 A2346.854
 Y-11.669 Z7.65 A2348.603
 Y-11.62 Z7.956 A2351.394
 Y-11.573 Z8.183 A2353.477
 Y-11.518 Z8.407 A2355.559
 Y-11.455 Z8.63 A2357.638
 Y-11.359 Z8.923 A2360.416
 Y-11.291 Z9.103 A2362.152
 Y-11.219 Z9.281 A2363.883
 Y-11.141 Z9.457 A2365.608
 Y-11.057 Z9.631 A2367.347
 Y-10.969 Z9.802 A2369.078
 Y-10.875 Z9.969 A2370.801
 Y-10.778 Z10.132 A2372.515
 Y-10.674 Z10.295 A2374.252
 Y-10.566 Z10.453 A2375.978
 Y-10.454 Z10.608 A2377.693
 Y-10.338 Z10.757 A2379.396
 Y-10.199 Z10.925 A2381.355
 Y-10.056 Z11.086 A2383.296
 Y-9.909 Z11.242 A2385.219
 Y-9.759 Z11.39 A2387.122
 Y-9.618 Z11.521 A2388.855
 Y-9.474 Z11.646 A2390.571
 Y-9.328 Z11.766 A2392.269
 Y-9.181 Z11.88 A2393.948
 Y-9.025 Z11.993 A2395.679
 Y-8.868 Z12.1 A2397.39
 Y-8.71 Z12.201 A2399.079
 Y-8.55 Z12.297 A2400.75
 Y-8.409 Z12.376 A2402.211
 Y-8.115 Z12.527 A2405.182
 Y-7.963 Z12.597 A2406.691
 Y-7.807 Z12.664 A2408.215
 Y-7.648 Z12.728 A2409.755
 Y-7.486 Z12.788 A2411.309
 Y-7.321 Z12.844 A2412.878
 Y-7.135 Z12.901 A2414.628
 Y-6.946 Z12.952 A2416.395
 Y-6.753 Z12.999 A2418.178
 Y-6.558 Z13.039 A2419.976
 Y-6.366 Z13.073 A2421.725
 Y-6.173 Z13.101 A2423.487
 Y-5.977 Z13.123 A2425.26
 Y-5.779 Z13.139 A2427.046
 Y-5.585 Z13.149 A2428.793
 Y-5.39 Z13.153 A2430.549
 Y-5.194 Z13.151 A2432.314
 Y-4.997 Z13.142 A2434.087
 Y-4.798 Z13.128 A2435.887
 Y-4.598 Z13.107 A2437.694
 Y-4.398 Z13.08 A2439.507
 Y-4.199 Z13.046 A2441.324
 Y-4.009 Z13.008 A2443.068
 Y-3.821 Z12.964 A2444.814
 Y-3.633 Z12.914 A2446.562
 Y-3.447 Z12.858 A2448.311
 Y-3.263 Z12.797 A2450.053
 Y-3.081 Z12.731 A2451.794
 Y-2.902 Z12.659 A2453.534
 Y-2.725 Z12.581 A2455.272
 Y-2.55 Z12.499 A2457.012
 Y-2.378 Z12.411 A2458.749
 Y-2.21 Z12.318 A2460.48
 Y-1.943 Z12.158 A2463.278
 Y-1.746 Z12.027 A2465.412
 Y-1.554 Z11.889 A2467.535
 Y-1.369 Z11.745 A2469.644
 Y-1.133 Z11.545 A2472.43
 Y-0.991 Z11.416 A2474.156
 Y-0.855 Z11.283 A2475.87
 Y-0.723 Z11.147 A2477.572
 Y-0.593 Z11.005 A2479.307
 Y-0.469 Z10.86 A2481.028
 Y-0.349 Z10.712 A2482.734
 Y-0.236 Z10.563 A2484.425
 Y-0.127 Z10.41 A2486.115
 Y-0.023 Z10.256 A2487.788
 Y0.075 Z10.1 A2489.444
 Y0.167 Z9.943 A2491.083
 Y0.255 Z9.785 A2492.703
 Y0.336 Z9.627 A2494.305
 Y0.413 Z9.469 A2495.889
 Y0.484 Z9.31 A2497.454
 Y-0.227 Z9.145 A2495.415
 Y-0.936 Z8.954 A2493.359
 Y-1.643 Z8.736 A2491.29
 Y-2.346 Z8.491 A2489.207
 Y-3.134 Z8.181 A2486.839
 Y-3.913 Z7.837 A2484.458
 Y-4.598 Z7.502 A2482.324
 Y-5.273 Z7.14 A2480.182
 Y-5.936 Z6.752 A2478.034
 Y-6.585 Z6.338 A2475.881
 Y-7.285 Z5.851 A2473.496
 Y-7.965 Z5.336 A2471.109
 Y-8.557 Z4.849 A2468.967
 Y-9.129 Z4.341 A2466.826
 Y-9.682 Z3.813 A2464.689
 Y-10.213 Z3.266 A2462.555
 Y-10.786 Z2.626 A2460.153
 Y-11.33 Z1.966 A2457.76
 Y-11.776 Z1.38 A2455.7
 Y-12.199 Z0.781 A2453.649
 Y-12.598 Z0.17 A2451.61
 Y-12.972 Z-0.45 A2449.583
 Y-13.39 Z-1.208 A2447.163
 Y-13.773 Z-1.975 A2444.764
 Y-14.413 Z-1.789 A2447.083
 Y-15.062 Z-1.571 A2449.463
 Y-15.746 Z-1.307 A2452.015
 Y-16.421 Z-1.012 A2454.577
 Y-17.085 Z-0.686 A2457.148
 Y-17.735 Z-0.329 A2459.727
 Y-18.364 Z0.054 A2462.29
 Y-18.978 Z0.466 A2464.861
 Y-19.575 Z0.906 A2467.44
 Y-20.152 Z1.375 A2470.025
 Y-20.705 Z1.866 A2472.598
 Y-21.237 Z2.383 A2475.178
 Y-21.746 Z2.925 A2477.764
 Y-22.231 Z3.49 A2480.355
 Y-22.653 Z4.028 A2482.731
 Y-23.056 Z4.588 A2485.134
 Y-23.331 Z5. A2486.855
 Y-23.545 Z5.34 A2488.252
 Y-23.545 Z7.34 A2488.252
G0 Y-23.545 Z32.336 A2488.252
( ---- End of 4X-PC-faces ----)
( ---- Start of F-contour3 ----)
(MESSAGEEEEE)
G0 G53 Z123  ; move up to tool_z_level
G0 A-0
( -------------------- )
( F-CONTOUR3 - PROFILE )
( -------------------- )
 X92.5 Y0. Z59.91 A195.919
 A195.919
 Z44. A195.919
G1 Z40. A195.919 F1000
 A196.327 F2449
 X93.103 A196.268 F147
 X93.697 A196.09 F441
 X94.273 A195.797 F728
 X94.824 A195.392 F1005
 X95.34 A194.882 F1267
 X95.816 A194.274 F1510
 X96.243 A193.577 F1731
 X96.615 A192.801 F1927
 X96.927 A191.957 F2096
 X97.175 A191.058 F2233
 X97.355 A190.117 F2338
 X97.464 A189.147 F2409
 X97.5 A188.163 F2444
 A179.999 F2449
 A-179.133
 A-187.298
 X97.464 A-188.282 F2444
 X97.355 A-189.251 F2409
 X97.175 A-190.193 F2338
 X96.927 A-191.092 F2233
 X96.615 A-191.935 F2096
 X96.243 A-192.711 F1927
 X95.816 A-193.408 F1731
 X95.34 A-194.016 F1510
 X94.824 A-194.526 F1267
 X94.273 A-194.931 F1005
 X93.697 A-195.224 F728
 X93.103 A-195.402 F441
 X92.5 A-195.462 F147
 A-195.053 F2449
G0 Z59.91 A-195.053
( ---- End of F-contour3 ----)
( ---- Start of F-contour8 ----)
G0 G53 Z123  ; move up to tool_z_level
G0 A-0
( -------------------- )
( F-CONTOUR8 - PROFILE )
( -------------------- )
 X102.5 Y0. Z59.91 A-146.686
 A-146.686
 Z37. A-146.686
G1 Z33. A-146.686 F1000
 A-32.736 F5890
G0 Z59.91 A-32.736
( ---- End of F-contour8 ----)
( ---- Start of F-contour4 ----)
G0 G53 Z123  ; move up to tool_z_level
G0 A-0
( -------------------- )
( F-CONTOUR4 - PROFILE )
( -------------------- )
 X124.398 Y-28.264 Z59.91
 Z37.023
G1 Z33.023 F1000
 Y-28.514 F1500
G3 X128.398 Y-24.514 R4.
G1 Y-19.514
 Y16.088
 X106.083
 Y-19.514
 X128.398
 X133.398
G3 X137.398 Y-15.514 R4.
G1 X137.148
G0 Z59.91
( ---- End of F-contour4 ----)
( ---- Start of F-contour6 ----)
G0 G53 Z123  ; move up to tool_z_level
G0 A90
( -------------------- )
( F-CONTOUR6 - PROFILE )
( -------------------- )
 X82.544 Y18.333 Z59.955
 Z36.955
G1 Z24.754 F1000
 X82.794 F1500
G3 X78.794 Y22.333 R4.
G1 X38.946
 Y-22.154
 X92.076
 Y22.333
 X78.794
G3 X74.794 Y18.333 R4.
G1 X75.044
G0 Z59.955
( ---- End of F-contour6 ----)
G0 G53 Z0 M9
G0 G53 X0 Y0 A0 M5
M30
%